(/Applications/pcbgcode.repo/pcb-gcode.ulp)
(Copyright 2005 - 2012 by John Johnson)
(See readme.txt for licensing terms.)
(This file generated from the board:)
(.../808_bass_drum/808_bass_drum.brd)
(Current profile is .../pcbgcode.repo/profiles/mach.pp  )
(This file generated 1/10/15 9:02 PM)
(Settings from pcb-machine.h)
(spindle on time = 0.0000)
(  Tool Size)
(0.0103  )
(spindle speed = 30000.0000)
(tool change at 0.0000  0.0000  3.0000  )
(feed rate xy = F20    )
(feed rate z  = F10    )
(Z Axis Settings)
(  High     Up        Down     Drill)
(1.0000  	0.0500  	-0.0040 	-0.0730 )
(Settings from pcb-defaults.h)
(isolate min = 0.0010)
(isolate max = 0.0050)
(isolate step = 0.0010)
(Generated bottom outlines, bottom drill, )
(Unit of measure: inch)
(Inch Mode)
G20
(Absolute Coordinates)
G90
S30000
G00 Z1.0000  
G00 X0.0000  Y0.0000  
M03
G04 P0.000000
G00 Z0.0500  
G00 X-0.5410 Y0.3628  
G01 Z-0.0040 F10    
G01 X-0.5428 Y0.3610  F20    
G01 X-0.5450 Y0.3601  
G01 X-0.5950 Y0.3601  
G01 X-0.5972 Y0.3610  
G01 X-0.5990 Y0.3628  
G01 X-0.5999 Y0.3650  
G01 X-0.5999 Y0.4150  
G01 X-0.5990 Y0.4172  
G01 X-0.5972 Y0.4190  
G01 X-0.5950 Y0.4199  
G01 X-0.5798 Y0.4199  
G01 X-0.5508 Y0.4779  
G01 X-0.5506 Y0.4785  
G01 X-0.5495 Y0.4805  
G01 X-0.5485 Y0.4825  
G01 X-0.5481 Y0.4830  
G01 X-0.5477 Y0.4836  
G01 X-0.5461 Y0.4852  
G01 X-0.5446 Y0.4869  
G01 X-0.5441 Y0.4872  
G01 X-0.5436 Y0.4877  
G01 X-0.5421 Y0.4886  
G01 X-0.5421 Y0.5311  
G01 X-0.5631 Y0.5521  
G01 X-0.5631 Y0.5879  
G01 X-0.5421 Y0.6089  
G01 X-0.5421 Y0.6311  
G01 X-0.5631 Y0.6521  
G01 X-0.5631 Y0.6879  
G01 X-0.5379 Y0.7131  
G01 X-0.5021 Y0.7131  
G01 X-0.4769 Y0.6879  
G01 X-0.4769 Y0.6521  
G01 X-0.4959 Y0.6331  
G01 X-0.4959 Y0.6069  
G01 X-0.4769 Y0.5879  
G01 X-0.4769 Y0.5521  
G01 X-0.4979 Y0.5311  
G01 X-0.4979 Y0.4671  
G01 X-0.4994 Y0.4615  
G01 X-0.5023 Y0.4564  
G01 X-0.5064 Y0.4523  
G01 X-0.5115 Y0.4494  
G01 X-0.5162 Y0.4481  
G01 X-0.5401 Y0.4003  
G01 X-0.5401 Y0.3650  
G01 X-0.5410 Y0.3628  
G00 Z0.0500  
G00 X-0.5769 Y0.5521  
G01 Z-0.0040 F10    
G01 X-0.6021 Y0.5269  F20    
G01 X-0.6379 Y0.5269  
G01 X-0.6569 Y0.5459  
G01 X-0.6831 Y0.5459  
G01 X-0.7021 Y0.5269  
G01 X-0.7379 Y0.5269  
G01 X-0.7569 Y0.5459  
G01 X-0.7831 Y0.5459  
G01 X-0.8021 Y0.5269  
G01 X-0.8379 Y0.5269  
G01 X-0.8631 Y0.5521  
G01 X-0.8631 Y0.5879  
G01 X-0.8379 Y0.6131  
G01 X-0.8021 Y0.6131  
G01 X-0.7871 Y0.5981  
G01 X-0.7529 Y0.5981  
G01 X-0.7379 Y0.6131  
G01 X-0.7021 Y0.6131  
G01 X-0.6871 Y0.5981  
G01 X-0.6529 Y0.5981  
G01 X-0.6481 Y0.6029  
G01 X-0.6481 Y0.6371  
G01 X-0.6609 Y0.6499  
G01 X-0.6791 Y0.6499  
G01 X-0.7021 Y0.6269  
G01 X-0.7379 Y0.6269  
G01 X-0.7609 Y0.6499  
G01 X-0.7791 Y0.6499  
G01 X-0.8021 Y0.6269  
G01 X-0.8379 Y0.6269  
G01 X-0.8631 Y0.6521  
G01 X-0.8631 Y0.6879  
G01 X-0.8621 Y0.6889  
G01 X-0.8621 Y0.7245  
G01 X-0.9594 Y0.9093  
G01 X-0.9607 Y0.9115  
G01 X-0.9608 Y0.9119  
G01 X-0.9610 Y0.9123  
G01 X-0.9615 Y0.9147  
G01 X-0.9622 Y0.9172  
G01 X-0.9622 Y0.9176  
G01 X-0.9622 Y0.9180  
G01 X-0.9621 Y0.9205  
G01 X-0.9621 Y0.9230  
G01 X-0.9620 Y0.9234  
G01 X-0.9620 Y0.9238  
G01 X-0.9613 Y0.9262  
G01 X-0.9606 Y0.9286  
G01 X-0.9604 Y0.9290  
G01 X-0.9603 Y0.9294  
G01 X-0.9589 Y0.9315  
G01 X-0.9021 Y1.0288  
G01 X-0.9021 Y1.0533  
G01 X-0.8833 Y1.0721  
G01 X-0.8573 Y1.0721  
G01 X-0.7821 Y1.1131  
G01 X-0.7821 Y1.3884  
G01 X-0.7823 Y1.3897  
G01 X-0.7821 Y1.3913  
G01 X-0.7821 Y1.3929  
G01 X-0.7818 Y1.3942  
G01 X-0.7816 Y1.3955  
G01 X-0.7811 Y1.3970  
G01 X-0.7806 Y1.3985  
G01 X-0.7800 Y1.3997  
G01 X-0.7795 Y1.4009  
G01 X-0.7785 Y1.4022  
G01 X-0.7777 Y1.4036  
G01 X-0.7768 Y1.4045  
G01 X-0.7760 Y1.4056  
G01 X-0.7747 Y1.4066  
G01 X-0.7736 Y1.4077  
G01 X-0.7724 Y1.4084  
G01 X-0.7714 Y1.4092  
G01 X-0.7699 Y1.4098  
G01 X-0.7685 Y1.4106  
G01 X-0.7673 Y1.4110  
G01 X-0.7088 Y1.4360  
G01 X-0.7074 Y1.4419  
G01 X-0.7121 Y1.4467  
G01 X-0.7121 Y1.4607  
G01 X-0.7126 Y1.4621  
G01 X-0.7133 Y1.4672  
G01 X-0.7129 Y1.4723  
G01 X-0.7116 Y1.4773  
G01 X-0.7093 Y1.4819  
G01 X-0.7091 Y1.4821  
G01 X-0.7091 Y1.5357  
G01 X-0.7161 Y1.5961  
G01 X-0.7205 Y1.5990  
G01 X-0.7250 Y1.6035  
G01 X-0.7285 Y1.6088  
G01 X-0.7309 Y1.6146  
G01 X-0.7321 Y1.6208  
G01 X-0.7321 Y1.6792  
G01 X-0.7309 Y1.6854  
G01 X-0.7285 Y1.6912  
G01 X-0.7250 Y1.6965  
G01 X-0.7205 Y1.7010  
G01 X-0.7174 Y1.7030  
G01 X-0.7121 Y1.7610  
G01 X-0.7121 Y1.7629  
G01 X-0.7119 Y1.7639  
G01 X-0.7118 Y1.7649  
G01 X-0.7111 Y1.7667  
G01 X-0.7106 Y1.7685  
G01 X-0.7101 Y1.7694  
G01 X-0.7098 Y1.7704  
G01 X-0.7087 Y1.7719  
G01 X-0.7077 Y1.7736  
G01 X-0.7070 Y1.7743  
G01 X-0.7064 Y1.7751  
G01 X-0.7050 Y1.7764  
G01 X-0.6821 Y1.7992  
G01 X-0.6821 Y1.9379  
G01 X-0.8979 Y1.9379  
G01 X-0.8979 Y1.7593  
G01 X-0.8950 Y1.7565  
G01 X-0.8915 Y1.7512  
G01 X-0.8891 Y1.7454  
G01 X-0.8879 Y1.7392  
G01 X-0.8879 Y1.6808  
G01 X-0.8891 Y1.6746  
G01 X-0.8915 Y1.6688  
G01 X-0.8950 Y1.6635  
G01 X-0.8995 Y1.6590  
G01 X-0.9048 Y1.6555  
G01 X-0.9070 Y1.6546  
G01 X-0.9463 Y1.4980  
G01 X-0.9464 Y1.4969  
G01 X-0.9469 Y1.4955  
G01 X-0.9473 Y1.4941  
G01 X-0.9477 Y1.4931  
G01 X-0.9481 Y1.4920  
G01 X-0.9488 Y1.4908  
G01 X-0.9495 Y1.4895  
G01 X-0.9501 Y1.4886  
G01 X-0.9507 Y1.4876  
G01 X-0.9517 Y1.4865  
G01 X-0.9525 Y1.4853  
G01 X-0.9534 Y1.4846  
G01 X-1.0289 Y1.3992  
G01 X-1.0301 Y1.3978  
G01 X-1.0306 Y1.3973  
G01 X-1.0311 Y1.3967  
G01 X-1.0326 Y1.3956  
G01 X-1.0340 Y1.3944  
G01 X-1.0346 Y1.3941  
G01 X-1.0352 Y1.3936  
G01 X-1.0369 Y1.3928  
G01 X-1.0385 Y1.3919  
G01 X-1.0392 Y1.3917  
G01 X-1.0399 Y1.3914  
G01 X-1.0416 Y1.3909  
G01 X-1.0434 Y1.3903  
G01 X-1.0441 Y1.3902  
G01 X-1.0448 Y1.3901  
G01 X-1.0467 Y1.3899  
G01 X-1.2986 Y1.3601  
G01 X-1.3844 Y1.0574  
G01 X-1.3845 Y1.0565  
G01 X-1.3851 Y1.0550  
G01 X-1.3855 Y1.0534  
G01 X-1.3860 Y1.0525  
G01 X-1.3863 Y1.0516  
G01 X-1.3871 Y1.0503  
G01 X-1.3879 Y1.0488  
G01 X-1.3885 Y1.0481  
G01 X-1.3890 Y1.0472  
G01 X-1.3901 Y1.0460  
G01 X-1.3911 Y1.0448  
G01 X-1.3918 Y1.0441  
G01 X-1.3924 Y1.0434  
G01 X-1.3938 Y1.0425  
G01 X-1.3950 Y1.0414  
G01 X-1.3958 Y1.0410  
G01 X-1.3966 Y1.0404  
G01 X-1.3981 Y1.0397  
G01 X-1.3995 Y1.0389  
G01 X-1.4004 Y1.0386  
G01 X-1.4013 Y1.0382  
G01 X-1.4029 Y1.0378  
G01 X-1.4044 Y1.0373  
G01 X-1.4053 Y1.0372  
G01 X-1.4063 Y1.0370  
G01 X-1.4079 Y1.0369  
G01 X-1.4095 Y1.0367  
G01 X-1.4105 Y1.0368  
G01 X-1.6099 Y1.0280  
G01 X-1.6099 Y0.8453  
G01 X-1.5979 Y0.8333  
G01 X-1.5979 Y0.8067  
G01 X-1.6167 Y0.7879  
G01 X-1.6433 Y0.7879  
G01 X-1.6621 Y0.8067  
G01 X-1.6621 Y0.8311  
G01 X-1.6623 Y0.8327  
G01 X-1.6621 Y0.8336  
G01 X-1.6621 Y1.0518  
G01 X-1.6669 Y1.1043  
G01 X-1.6671 Y1.1054  
G01 X-1.6671 Y1.1068  
G01 X-1.6673 Y1.1082  
G01 X-1.6671 Y1.1094  
G01 X-1.6671 Y1.1311  
G01 X-1.6747 Y1.1653  
G01 X-1.6752 Y1.1655  
G01 X-1.6805 Y1.1690  
G01 X-1.6850 Y1.1735  
G01 X-1.6885 Y1.1788  
G01 X-1.6909 Y1.1846  
G01 X-1.6921 Y1.1908  
G01 X-1.6921 Y1.2492  
G01 X-1.6909 Y1.2554  
G01 X-1.6885 Y1.2612  
G01 X-1.6850 Y1.2665  
G01 X-1.6821 Y1.2693  
G01 X-1.6821 Y1.3508  
G01 X-1.7436 Y1.4123  
G01 X-1.7477 Y1.4164  
G01 X-1.7506 Y1.4215  
G01 X-1.7521 Y1.4271  
G01 X-1.7521 Y1.5208  
G01 X-1.7936 Y1.5623  
G01 X-1.7977 Y1.5664  
G01 X-1.8006 Y1.5715  
G01 X-1.8021 Y1.5771  
G01 X-1.8021 Y1.7108  
G01 X-1.8392 Y1.7479  
G01 X-1.9679 Y1.7479  
G01 X-1.9679 Y1.5221  
G01 X-1.9608 Y1.5221  
G01 X-1.9546 Y1.5209  
G01 X-1.9488 Y1.5185  
G01 X-1.9435 Y1.5150  
G01 X-1.9390 Y1.5105  
G01 X-1.9355 Y1.5052  
G01 X-1.9331 Y1.4994  
G01 X-1.9319 Y1.4932  
G01 X-1.9319 Y1.4868  
G01 X-1.9331 Y1.4806  
G01 X-1.9355 Y1.4748  
G01 X-1.9387 Y1.4700  
G01 X-1.9023 Y1.4336  
G01 X-1.8994 Y1.4285  
G01 X-1.8979 Y1.4229  
G01 X-1.8979 Y1.2833  
G01 X-1.8879 Y1.2733  
G01 X-1.8879 Y1.2467  
G01 X-1.9067 Y1.2279  
G01 X-1.9333 Y1.2279  
G01 X-1.9521 Y1.2467  
G01 X-1.9521 Y1.2733  
G01 X-1.9421 Y1.2833  
G01 X-1.9421 Y1.4108  
G01 X-1.9892 Y1.4579  
G01 X-2.0192 Y1.4579  
G01 X-2.0254 Y1.4591  
G01 X-2.0312 Y1.4615  
G01 X-2.0365 Y1.4650  
G01 X-2.0410 Y1.4695  
G01 X-2.0445 Y1.4748  
G01 X-2.0469 Y1.4806  
G01 X-2.0481 Y1.4868  
G01 X-2.0481 Y1.4932  
G01 X-2.0469 Y1.4994  
G01 X-2.0445 Y1.5052  
G01 X-2.0410 Y1.5105  
G01 X-2.0365 Y1.5150  
G01 X-2.0312 Y1.5185  
G01 X-2.0254 Y1.5209  
G01 X-2.0192 Y1.5221  
G01 X-2.0121 Y1.5221  
G01 X-2.0121 Y1.9529  
G01 X-2.0106 Y1.9585  
G01 X-2.0077 Y1.9636  
G01 X-1.9921 Y1.9792  
G01 X-1.9921 Y1.9808  
G01 X-2.0177 Y2.0064  
G01 X-2.0206 Y2.0115  
G01 X-2.0221 Y2.0171  
G01 X-2.0221 Y2.1767  
G01 X-2.0321 Y2.1867  
G01 X-2.0321 Y2.2133  
G01 X-2.0133 Y2.2321  
G01 X-1.9867 Y2.2321  
G01 X-1.9679 Y2.2133  
G01 X-1.9679 Y2.1867  
G01 X-1.9779 Y2.1767  
G01 X-1.9779 Y2.0327  
G01 X-1.9752 Y2.0345  
G01 X-1.9694 Y2.0369  
G01 X-1.9632 Y2.0381  
G01 X-1.9568 Y2.0381  
G01 X-1.9506 Y2.0369  
G01 X-1.9448 Y2.0345  
G01 X-1.9395 Y2.0310  
G01 X-1.9350 Y2.0265  
G01 X-1.9315 Y2.0212  
G01 X-1.9291 Y2.0154  
G01 X-1.9279 Y2.0092  
G01 X-1.9279 Y1.9508  
G01 X-1.9291 Y1.9446  
G01 X-1.9315 Y1.9388  
G01 X-1.9350 Y1.9335  
G01 X-1.9395 Y1.9290  
G01 X-1.9448 Y1.9255  
G01 X-1.9506 Y1.9231  
G01 X-1.9568 Y1.9219  
G01 X-1.9632 Y1.9219  
G01 X-1.9679 Y1.9228  
G01 X-1.9679 Y1.7921  
G01 X-1.8271 Y1.7921  
G01 X-1.8215 Y1.7906  
G01 X-1.8164 Y1.7877  
G01 X-1.8123 Y1.7836  
G01 X-1.7623 Y1.7336  
G01 X-1.7594 Y1.7285  
G01 X-1.7579 Y1.7229  
G01 X-1.7579 Y1.5892  
G01 X-1.7123 Y1.5436  
G01 X-1.7094 Y1.5385  
G01 X-1.7079 Y1.5329  
G01 X-1.7079 Y1.4392  
G01 X-1.6423 Y1.3736  
G01 X-1.6394 Y1.3685  
G01 X-1.6379 Y1.3629  
G01 X-1.6379 Y1.2693  
G01 X-1.6350 Y1.2665  
G01 X-1.6315 Y1.2612  
G01 X-1.6291 Y1.2554  
G01 X-1.6279 Y1.2492  
G01 X-1.6279 Y1.1957  
G01 X-1.6160 Y1.1419  
G01 X-1.6159 Y1.1416  
G01 X-1.6154 Y1.1394  
G01 X-1.6149 Y1.1371  
G01 X-1.6149 Y1.1368  
G01 X-1.6149 Y1.1366  
G01 X-1.6149 Y1.1343  
G01 X-1.6148 Y1.1320  
G01 X-1.6149 Y1.1317  
G01 X-1.6149 Y1.1092  
G01 X-1.6122 Y1.0802  
G01 X-1.4300 Y1.0883  
G01 X-1.3442 Y1.3911  
G01 X-1.3435 Y1.3936  
G01 X-1.3423 Y1.3959  
G01 X-1.3411 Y1.3982  
G01 X-1.3395 Y1.4002  
G01 X-1.3379 Y1.4022  
G01 X-1.3359 Y1.4039  
G01 X-1.3340 Y1.4056  
G01 X-1.3318 Y1.4068  
G01 X-1.3295 Y1.4081  
G01 X-1.3271 Y1.4089  
G01 X-1.3246 Y1.4097  
G01 X-1.3220 Y1.4100  
G01 X-1.0620 Y1.4408  
G01 X-0.9958 Y1.5156  
G01 X-0.9521 Y1.6893  
G01 X-0.9521 Y1.7392  
G01 X-0.9509 Y1.7454  
G01 X-0.9485 Y1.7512  
G01 X-0.9450 Y1.7565  
G01 X-0.9421 Y1.7593  
G01 X-0.9421 Y1.9508  
G01 X-1.0392 Y2.0479  
G01 X-1.0533 Y2.0479  
G01 X-1.0721 Y2.0667  
G01 X-1.0721 Y2.0933  
G01 X-1.0585 Y2.1069  
G01 X-1.0535 Y2.1422  
G01 X-1.1732 Y2.2619  
G01 X-1.1979 Y2.2619  
G01 X-1.1979 Y2.2608  
G01 X-1.1991 Y2.2546  
G01 X-1.2015 Y2.2488  
G01 X-1.2050 Y2.2435  
G01 X-1.2095 Y2.2390  
G01 X-1.2148 Y2.2355  
G01 X-1.2206 Y2.2331  
G01 X-1.2268 Y2.2319  
G01 X-1.2332 Y2.2319  
G01 X-1.2394 Y2.2331  
G01 X-1.2452 Y2.2355  
G01 X-1.2505 Y2.2390  
G01 X-1.2550 Y2.2435  
G01 X-1.2585 Y2.2488  
G01 X-1.2609 Y2.2546  
G01 X-1.2621 Y2.2608  
G01 X-1.2621 Y2.2803  
G01 X-1.2627 Y2.2807  
G01 X-1.2628 Y2.2808  
G01 X-1.2629 Y2.2809  
G01 X-1.2646 Y2.2826  
G01 X-1.2663 Y2.2843  
G01 X-1.2664 Y2.2845  
G01 X-1.2665 Y2.2846  
G01 X-1.2678 Y2.2866  
G01 X-1.2692 Y2.2886  
G01 X-1.2692 Y2.2888  
G01 X-1.2693 Y2.2889  
G01 X-1.2702 Y2.2912  
G01 X-1.2711 Y2.2934  
G01 X-1.2712 Y2.2935  
G01 X-1.2712 Y2.2937  
G01 X-1.2717 Y2.2961  
G01 X-1.2721 Y2.2984  
G01 X-1.2721 Y2.2986  
G01 X-1.2722 Y2.2988  
G01 X-1.2721 Y2.3012  
G01 X-1.2721 Y2.4091  
G01 X-1.4628 Y2.6559  
G01 X-2.3187 Y2.6559  
G01 X-2.5509 Y2.5369  
G01 X-2.5739 Y2.4859  
G01 X-2.5746 Y2.4841  
G01 X-2.5749 Y2.4835  
G01 X-2.5752 Y2.4829  
G01 X-2.5763 Y2.4813  
G01 X-2.5774 Y2.4797  
G01 X-2.5778 Y2.4793  
G01 X-2.5782 Y2.4787  
G01 X-2.5796 Y2.4774  
G01 X-2.6249 Y2.4304  
G01 X-2.6250 Y2.4296  
G01 X-2.6251 Y2.4287  
G01 X-2.6255 Y2.4271  
G01 X-2.6259 Y2.4254  
G01 X-2.6262 Y2.4246  
G01 X-2.6264 Y2.4238  
G01 X-2.6272 Y2.4222  
G01 X-2.6278 Y2.4206  
G01 X-2.6283 Y2.4199  
G01 X-2.6287 Y2.4191  
G01 X-2.6297 Y2.4178  
G01 X-2.6307 Y2.4163  
G01 X-2.6313 Y2.4157  
G01 X-2.6318 Y2.4150  
G01 X-2.6331 Y2.4139  
G01 X-2.6343 Y2.4127  
G01 X-2.6350 Y2.4122  
G01 X-2.6659 Y2.3852  
G01 X-2.6659 Y2.3759  
G01 X-2.6859 Y2.3559  
G01 X-2.7141 Y2.3559  
G01 X-2.7341 Y2.3759  
G01 X-2.7341 Y2.4041  
G01 X-2.7314 Y2.4069  
G01 X-2.9370 Y2.4069  
G01 X-2.9395 Y2.4068  
G01 X-2.9421 Y2.4073  
G01 X-2.9446 Y2.4078  
G01 X-2.9470 Y2.4088  
G01 X-2.9493 Y2.4098  
G01 X-2.9515 Y2.4112  
G01 X-2.9536 Y2.4127  
G01 X-2.9555 Y2.4145  
G01 X-2.9573 Y2.4163  
G01 X-2.9587 Y2.4185  
G01 X-2.9601 Y2.4206  
G01 X-2.9611 Y2.4230  
G01 X-2.9621 Y2.4253  
G01 X-2.9626 Y2.4279  
G01 X-2.9631 Y2.4304  
G01 X-2.9631 Y2.4330  
G01 X-2.9632 Y2.4349  
G01 X-2.9635 Y2.4352  
G01 X-2.9649 Y2.4360  
G01 X-2.9652 Y2.4364  
G01 X-2.9657 Y2.4367  
G01 X-2.9671 Y2.4381  
G01 X-2.9686 Y2.4395  
G01 X-2.9689 Y2.4400  
G01 X-3.1518 Y2.6229  
G01 X-3.7634 Y2.6229  
G01 X-3.8089 Y2.5984  
G01 X-3.8089 Y1.4852  
G01 X-3.7768 Y1.4827  
G01 X-3.7604 Y1.4991  
G01 X-3.7196 Y1.4991  
G01 X-3.6909 Y1.4704  
G01 X-3.6909 Y1.4296  
G01 X-3.7179 Y1.4026  
G01 X-3.7179 Y1.1821  
G01 X-3.4333 Y1.1821  
G01 X-3.4233 Y1.1921  
G01 X-3.3967 Y1.1921  
G01 X-3.3779 Y1.1733  
G01 X-3.3779 Y1.1467  
G01 X-3.3967 Y1.1279  
G01 X-3.4013 Y1.1279  
G01 X-3.4579 Y1.0148  
G01 X-3.4579 Y0.7511  
G01 X-3.4326 Y0.7321  
G01 X-3.2592 Y0.7321  
G01 X-3.2036 Y0.7877  
G01 X-3.1985 Y0.7906  
G01 X-3.1929 Y0.7921  
G01 X-3.0992 Y0.7921  
G01 X-2.9521 Y0.9392  
G01 X-2.9521 Y0.9729  
G01 X-2.9506 Y0.9785  
G01 X-2.9477 Y0.9836  
G01 X-2.9436 Y0.9877  
G01 X-2.9121 Y1.0192  
G01 X-2.9121 Y1.0329  
G01 X-2.9106 Y1.0385  
G01 X-2.9077 Y1.0436  
G01 X-2.9036 Y1.0477  
G01 X-2.8801 Y1.0712  
G01 X-2.8801 Y1.0847  
G01 X-2.8821 Y1.0867  
G01 X-2.8821 Y1.0949  
G01 X-2.8829 Y1.0966  
G01 X-2.8830 Y1.0970  
G01 X-2.8831 Y1.0974  
G01 X-2.8836 Y1.0995  
G01 X-2.8841 Y1.1016  
G01 X-2.8841 Y1.1020  
G01 X-2.8841 Y1.1024  
G01 X-2.8841 Y1.1046  
G01 X-2.8842 Y1.1068  
G01 X-2.8841 Y1.1072  
G01 X-2.8841 Y1.2602  
G01 X-2.8843 Y1.2620  
G01 X-2.8841 Y1.2628  
G01 X-2.8841 Y1.2636  
G01 X-2.8838 Y1.2653  
G01 X-2.8835 Y1.2671  
G01 X-2.8833 Y1.2679  
G01 X-2.8831 Y1.2686  
G01 X-2.8825 Y1.2703  
G01 X-2.8821 Y1.2712  
G01 X-2.8821 Y1.2833  
G01 X-2.8633 Y1.3021  
G01 X-2.8367 Y1.3021  
G01 X-2.8179 Y1.2833  
G01 X-2.8179 Y1.2567  
G01 X-2.8319 Y1.2427  
G01 X-2.8319 Y1.1273  
G01 X-2.8179 Y1.1133  
G01 X-2.8179 Y1.0867  
G01 X-2.8359 Y1.0687  
G01 X-2.8359 Y1.0591  
G01 X-2.8374 Y1.0535  
G01 X-2.8403 Y1.0484  
G01 X-2.8679 Y1.0208  
G01 X-2.8679 Y1.0071  
G01 X-2.8694 Y1.0015  
G01 X-2.8723 Y0.9964  
G01 X-2.9079 Y0.9608  
G01 X-2.9079 Y0.9271  
G01 X-2.9094 Y0.9215  
G01 X-2.9123 Y0.9164  
G01 X-3.0723 Y0.7564  
G01 X-3.0764 Y0.7523  
G01 X-3.0815 Y0.7494  
G01 X-3.0871 Y0.7479  
G01 X-3.1808 Y0.7479  
G01 X-3.2323 Y0.6964  
G01 X-3.2364 Y0.6923  
G01 X-3.2415 Y0.6894  
G01 X-3.2471 Y0.6879  
G01 X-3.4384 Y0.6879  
G01 X-3.4398 Y0.6877  
G01 X-3.4413 Y0.6879  
G01 X-3.4429 Y0.6879  
G01 X-3.4442 Y0.6882  
G01 X-3.4455 Y0.6884  
G01 X-3.4470 Y0.6889  
G01 X-3.4485 Y0.6894  
G01 X-3.4497 Y0.6900  
G01 X-3.4510 Y0.6905  
G01 X-3.4522 Y0.6915  
G01 X-3.4536 Y0.6923  
G01 X-3.4545 Y0.6932  
G01 X-3.4922 Y0.7215  
G01 X-3.4936 Y0.7223  
G01 X-3.4945 Y0.7232  
G01 X-3.4956 Y0.7240  
G01 X-3.4966 Y0.7253  
G01 X-3.4977 Y0.7264  
G01 X-3.4984 Y0.7276  
G01 X-3.4992 Y0.7286  
G01 X-3.4998 Y0.7301  
G01 X-3.5006 Y0.7315  
G01 X-3.5010 Y0.7327  
G01 X-3.5015 Y0.7340  
G01 X-3.5017 Y0.7356  
G01 X-3.5021 Y0.7371  
G01 X-3.5021 Y0.7384  
G01 X-3.5023 Y0.7398  
G01 X-3.5021 Y0.7413  
G01 X-3.5021 Y1.0193  
G01 X-3.5023 Y1.0216  
G01 X-3.5021 Y1.0222  
G01 X-3.5021 Y1.0229  
G01 X-3.5016 Y1.0251  
G01 X-3.5011 Y1.0273  
G01 X-3.5008 Y1.0279  
G01 X-3.5006 Y1.0285  
G01 X-3.4995 Y1.0305  
G01 X-3.4458 Y1.1379  
G01 X-3.7429 Y1.1379  
G01 X-3.7485 Y1.1394  
G01 X-3.7536 Y1.1423  
G01 X-3.7577 Y1.1464  
G01 X-3.7606 Y1.1515  
G01 X-3.7621 Y1.1571  
G01 X-3.7621 Y1.4026  
G01 X-3.7891 Y1.4296  
G01 X-3.7891 Y1.4312  
G01 X-3.8360 Y1.4349  
G01 X-3.8376 Y1.4349  
G01 X-3.8386 Y1.4350  
G01 X-3.8396 Y1.4351  
G01 X-3.8411 Y1.4355  
G01 X-3.8426 Y1.4359  
G01 X-3.8436 Y1.4362  
G01 X-3.8445 Y1.4365  
G01 X-3.8459 Y1.4372  
G01 X-3.8474 Y1.4378  
G01 X-3.8482 Y1.4384  
G01 X-3.8491 Y1.4388  
G01 X-3.8504 Y1.4398  
G01 X-3.8517 Y1.4407  
G01 X-3.8524 Y1.4414  
G01 X-3.8532 Y1.4420  
G01 X-3.8542 Y1.4432  
G01 X-3.8553 Y1.4443  
G01 X-3.8559 Y1.4452  
G01 X-3.8565 Y1.4459  
G01 X-3.8573 Y1.4473  
G01 X-3.8582 Y1.4486  
G01 X-3.8586 Y1.4495  
G01 X-3.8591 Y1.4504  
G01 X-3.8595 Y1.4519  
G01 X-3.8601 Y1.4534  
G01 X-3.8603 Y1.4544  
G01 X-3.8607 Y1.4553  
G01 X-3.8608 Y1.4569  
G01 X-3.8611 Y1.4584  
G01 X-3.8611 Y1.4594  
G01 X-3.8613 Y1.4604  
G01 X-3.8611 Y1.4620  
G01 X-3.8611 Y2.6127  
G01 X-3.8613 Y2.6139  
G01 X-3.8611 Y2.6152  
G01 X-3.8611 Y2.6166  
G01 X-3.8609 Y2.6178  
G01 X-3.8608 Y2.6190  
G01 X-3.8604 Y2.6203  
G01 X-3.8601 Y2.6216  
G01 X-3.8597 Y2.6228  
G01 X-3.8593 Y2.6240  
G01 X-3.8587 Y2.6252  
G01 X-3.8582 Y2.6264  
G01 X-3.8575 Y2.6274  
G01 X-3.8569 Y2.6285  
G01 X-3.8561 Y2.6296  
G01 X-3.8553 Y2.6307  
G01 X-3.8544 Y2.6316  
G01 X-3.8536 Y2.6325  
G01 X-3.8526 Y2.6334  
G01 X-3.8517 Y2.6343  
G01 X-3.8506 Y2.6350  
G01 X-3.8497 Y2.6358  
G01 X-3.8485 Y2.6364  
G01 X-3.8474 Y2.6372  
G01 X-3.8462 Y2.6377  
G01 X-3.7835 Y2.6714  
G01 X-3.7824 Y2.6722  
G01 X-3.7812 Y2.6727  
G01 X-3.7801 Y2.6732  
G01 X-3.7789 Y2.6736  
G01 X-3.7776 Y2.6741  
G01 X-3.7764 Y2.6744  
G01 X-3.7752 Y2.6748  
G01 X-3.7739 Y2.6749  
G01 X-3.7726 Y2.6751  
G01 X-3.7713 Y2.6751  
G01 X-3.7701 Y2.6753  
G01 X-3.7688 Y2.6751  
G01 X-3.1384 Y2.6751  
G01 X-3.1334 Y2.6741  
G01 X-3.1286 Y2.6722  
G01 X-3.1243 Y2.6693  
G01 X-2.9392 Y2.4841  
G01 X-2.9159 Y2.4841  
G01 X-2.8959 Y2.4641  
G01 X-2.8959 Y2.4591  
G01 X-2.6698 Y2.4591  
G01 X-2.6200 Y2.5109  
G01 X-2.5954 Y2.5654  
G01 X-2.5951 Y2.5665  
G01 X-2.5944 Y2.5678  
G01 X-2.5938 Y2.5691  
G01 X-2.5931 Y2.5700  
G01 X-2.5926 Y2.5710  
G01 X-2.5916 Y2.5721  
G01 X-2.5908 Y2.5733  
G01 X-2.5900 Y2.5740  
G01 X-2.5893 Y2.5749  
G01 X-2.5881 Y2.5758  
G01 X-2.5870 Y2.5768  
G01 X-2.5861 Y2.5774  
G01 X-2.5852 Y2.5781  
G01 X-2.5839 Y2.5788  
G01 X-2.5827 Y2.5795  
G01 X-2.5816 Y2.5799  
G01 X-2.3383 Y2.7046  
G01 X-2.3374 Y2.7052  
G01 X-2.3360 Y2.7058  
G01 X-2.3346 Y2.7064  
G01 X-2.3336 Y2.7067  
G01 X-2.3326 Y2.7071  
G01 X-2.3311 Y2.7074  
G01 X-2.3297 Y2.7079  
G01 X-2.3286 Y2.7079  
G01 X-2.3276 Y2.7081  
G01 X-2.3261 Y2.7081  
G01 X-2.3245 Y2.7083  
G01 X-2.3235 Y2.7081  
G01 X-1.4509 Y2.7081  
G01 X-1.4492 Y2.7083  
G01 X-1.4483 Y2.7081  
G01 X-1.4474 Y2.7081  
G01 X-1.4458 Y2.7078  
G01 X-1.4441 Y2.7076  
G01 X-1.4433 Y2.7073  
G01 X-1.4424 Y2.7071  
G01 X-1.4408 Y2.7065  
G01 X-1.4392 Y2.7060  
G01 X-1.4385 Y2.7055  
G01 X-1.4376 Y2.7052  
G01 X-1.4362 Y2.7042  
G01 X-1.4348 Y2.7034  
G01 X-1.4341 Y2.7028  
G01 X-1.4333 Y2.7023  
G01 X-1.4321 Y2.7011  
G01 X-1.4309 Y2.7000  
G01 X-1.4303 Y2.6993  
G01 X-1.4297 Y2.6987  
G01 X-1.4288 Y2.6973  
G01 X-1.2263 Y2.4353  
G01 X-1.2257 Y2.4347  
G01 X-1.2248 Y2.4333  
G01 X-1.2237 Y2.4320  
G01 X-1.2233 Y2.4311  
G01 X-1.2228 Y2.4304  
G01 X-1.2222 Y2.4288  
G01 X-1.2214 Y2.4273  
G01 X-1.2212 Y2.4265  
G01 X-1.2209 Y2.4256  
G01 X-1.2205 Y2.4240  
G01 X-1.2201 Y2.4224  
G01 X-1.2200 Y2.4215  
G01 X-1.2199 Y2.4206  
G01 X-1.2199 Y2.4189  
G01 X-1.2197 Y2.4172  
G01 X-1.2199 Y2.4163  
G01 X-1.2199 Y2.3466  
G01 X-1.2148 Y2.3445  
G01 X-1.2095 Y2.3410  
G01 X-1.2050 Y2.3365  
G01 X-1.2015 Y2.3312  
G01 X-1.1991 Y2.3254  
G01 X-1.1979 Y2.3192  
G01 X-1.1979 Y2.3141  
G01 X-1.1654 Y2.3141  
G01 X-1.1604 Y2.3131  
G01 X-1.1556 Y2.3112  
G01 X-1.1513 Y2.3083  
G01 X-1.1477 Y2.3047  
G01 X-1.1448 Y2.3004  
G01 X-1.1429 Y2.2956  
G01 X-1.1425 Y2.2938  
G01 X-1.0153 Y2.1666  
G01 X-1.0140 Y2.1656  
G01 X-1.0132 Y2.1645  
G01 X-1.0123 Y2.1636  
G01 X-1.0115 Y2.1622  
G01 X-1.0105 Y2.1610  
G01 X-1.0100 Y2.1597  
G01 X-1.0094 Y2.1585  
G01 X-1.0089 Y2.1570  
G01 X-1.0084 Y2.1555  
G01 X-1.0082 Y2.1542  
G01 X-1.0079 Y2.1529  
G01 X-1.0079 Y2.1513  
G01 X-1.0077 Y2.1498  
G01 X-1.0079 Y2.1484  
G01 X-1.0079 Y2.1471  
G01 X-1.0083 Y2.1456  
G01 X-1.0147 Y2.1002  
G01 X-1.0079 Y2.0933  
G01 X-1.0079 Y2.0792  
G01 X-0.9108 Y1.9821  
G01 X-0.6571 Y1.9821  
G01 X-0.6515 Y1.9806  
G01 X-0.6464 Y1.9777  
G01 X-0.6423 Y1.9736  
G01 X-0.6394 Y1.9685  
G01 X-0.6379 Y1.9629  
G01 X-0.6379 Y1.7871  
G01 X-0.6394 Y1.7815  
G01 X-0.6423 Y1.7764  
G01 X-0.6687 Y1.7500  
G01 X-0.6737 Y1.6945  
G01 X-0.6715 Y1.6912  
G01 X-0.6691 Y1.6854  
G01 X-0.6679 Y1.6792  
G01 X-0.6679 Y1.6208  
G01 X-0.6691 Y1.6146  
G01 X-0.6715 Y1.6088  
G01 X-0.6727 Y1.6069  
G01 X-0.6652 Y1.5412  
G01 X-0.6649 Y1.5399  
G01 X-0.6649 Y1.5383  
G01 X-0.6647 Y1.5366  
G01 X-0.6649 Y1.5354  
G01 X-0.6649 Y1.4903  
G01 X-0.6479 Y1.4733  
G01 X-0.6479 Y1.4467  
G01 X-0.6647 Y1.4298  
G01 X-0.6682 Y1.4160  
G01 X-0.6684 Y1.4145  
G01 X-0.6689 Y1.4132  
G01 X-0.6692 Y1.4118  
G01 X-0.6700 Y1.4105  
G01 X-0.6705 Y1.4091  
G01 X-0.6714 Y1.4079  
G01 X-0.6720 Y1.4067  
G01 X-0.6731 Y1.4056  
G01 X-0.6740 Y1.4044  
G01 X-0.6751 Y1.4035  
G01 X-0.6761 Y1.4025  
G01 X-0.6774 Y1.4017  
G01 X-0.6786 Y1.4008  
G01 X-0.6799 Y1.4002  
G01 X-0.6811 Y1.3995  
G01 X-0.6826 Y1.3991  
G01 X-0.7379 Y1.3754  
G01 X-0.7379 Y1.1026  
G01 X-0.7378 Y1.1024  
G01 X-0.7379 Y1.0997  
G01 X-0.7379 Y1.0971  
G01 X-0.7379 Y1.0968  
G01 X-0.7379 Y1.0965  
G01 X-0.7387 Y1.0940  
G01 X-0.7394 Y1.0915  
G01 X-0.7395 Y1.0912  
G01 X-0.7396 Y1.0910  
G01 X-0.7410 Y1.0887  
G01 X-0.7423 Y1.0864  
G01 X-0.7425 Y1.0862  
G01 X-0.7426 Y1.0860  
G01 X-0.7445 Y1.0841  
G01 X-0.7464 Y1.0823  
G01 X-0.7466 Y1.0821  
G01 X-0.7468 Y1.0820  
G01 X-0.7492 Y1.0807  
G01 X-0.7515 Y1.0794  
G01 X-0.7517 Y1.0793  
G01 X-0.8379 Y1.0323  
G01 X-0.8379 Y1.0267  
G01 X-0.8567 Y1.0079  
G01 X-0.8631 Y1.0079  
G01 X-0.9147 Y0.9194  
G01 X-0.8206 Y0.7407  
G01 X-0.8194 Y0.7385  
G01 X-0.8192 Y0.7381  
G01 X-0.8190 Y0.7377  
G01 X-0.8185 Y0.7353  
G01 X-0.8179 Y0.7329  
G01 X-0.8179 Y0.7325  
G01 X-0.8178 Y0.7320  
G01 X-0.8179 Y0.7296  
G01 X-0.8179 Y0.7131  
G01 X-0.8021 Y0.7131  
G01 X-0.7911 Y0.7021  
G01 X-0.7489 Y0.7021  
G01 X-0.7379 Y0.7131  
G01 X-0.7021 Y0.7131  
G01 X-0.6911 Y0.7021  
G01 X-0.6489 Y0.7021  
G01 X-0.6379 Y0.7131  
G01 X-0.6021 Y0.7131  
G01 X-0.5769 Y0.6879  
G01 X-0.5769 Y0.6521  
G01 X-0.5959 Y0.6331  
G01 X-0.5959 Y0.6069  
G01 X-0.5769 Y0.5879  
G01 X-0.5769 Y0.5521  
G00 Z0.0500  
G00 X-0.8769 Y0.5521  
G01 Z-0.0040 F10    
G01 X-0.9021 Y0.5269  F20    
G01 X-0.9124 Y0.5269  
G01 X-1.0022 Y0.3491  
G01 X-1.0024 Y0.3485  
G01 X-1.0035 Y0.3465  
G01 X-1.0045 Y0.3444  
G01 X-1.0050 Y0.3439  
G01 X-1.0053 Y0.3434  
G01 X-1.0069 Y0.3418  
G01 X-1.0084 Y0.3401  
G01 X-1.0090 Y0.3397  
G01 X-1.0094 Y0.3393  
G01 X-1.0114 Y0.3381  
G01 X-1.0133 Y0.3369  
G01 X-1.0139 Y0.3367  
G01 X-1.0145 Y0.3364  
G01 X-1.0167 Y0.3358  
G01 X-1.0188 Y0.3350  
G01 X-1.0195 Y0.3350  
G01 X-1.0201 Y0.3349  
G01 X-1.0224 Y0.3349  
G01 X-1.0247 Y0.3347  
G01 X-1.0253 Y0.3349  
G01 X-3.7142 Y0.3349  
G01 X-3.7163 Y0.3347  
G01 X-3.7171 Y0.3349  
G01 X-3.7179 Y0.3349  
G01 X-3.7199 Y0.3354  
G01 X-3.7220 Y0.3358  
G01 X-3.7227 Y0.3361  
G01 X-3.7235 Y0.3364  
G01 X-3.7254 Y0.3374  
G01 X-3.7272 Y0.3383  
G01 X-3.7279 Y0.3389  
G01 X-3.7286 Y0.3393  
G01 X-3.7301 Y0.3408  
G01 X-3.8722 Y0.4631  
G01 X-3.8732 Y0.4638  
G01 X-3.8744 Y0.4650  
G01 X-3.8757 Y0.4661  
G01 X-3.8764 Y0.4671  
G01 X-3.8772 Y0.4681  
G01 X-3.8780 Y0.4695  
G01 X-3.8789 Y0.4709  
G01 X-3.8794 Y0.4721  
G01 X-3.8799 Y0.4732  
G01 X-3.8803 Y0.4749  
G01 X-3.8809 Y0.4764  
G01 X-3.8810 Y0.4777  
G01 X-3.8812 Y0.4789  
G01 X-3.8812 Y0.4806  
G01 X-3.8813 Y0.4823  
G01 X-3.8811 Y0.4835  
G01 X-3.8712 Y0.7535  
G01 X-3.8713 Y0.7552  
G01 X-3.8711 Y0.7564  
G01 X-3.8710 Y0.7577  
G01 X-3.8705 Y0.7593  
G01 X-3.8702 Y0.7609  
G01 X-3.8697 Y0.7621  
G01 X-3.8693 Y0.7633  
G01 X-3.8684 Y0.7647  
G01 X-3.8677 Y0.7662  
G01 X-3.8669 Y0.7672  
G01 X-3.8662 Y0.7682  
G01 X-3.8650 Y0.7694  
G01 X-3.8082 Y0.8358  
G01 X-3.8077 Y0.8366  
G01 X-3.8063 Y0.8381  
G01 X-3.8049 Y0.8396  
G01 X-3.8042 Y0.8401  
G01 X-3.8036 Y0.8407  
G01 X-3.8018 Y0.8418  
G01 X-3.8001 Y0.8429  
G01 X-3.7993 Y0.8432  
G01 X-3.7985 Y0.8436  
G01 X-3.7966 Y0.8442  
G01 X-3.7946 Y0.8449  
G01 X-3.7938 Y0.8449  
G01 X-3.7929 Y0.8451  
G01 X-3.7909 Y0.8451  
G01 X-3.7888 Y0.8453  
G01 X-3.7880 Y0.8451  
G01 X-3.6555 Y0.8451  
G01 X-3.6531 Y0.8453  
G01 X-3.6526 Y0.8451  
G01 X-3.6521 Y0.8451  
G01 X-3.6498 Y0.8445  
G01 X-3.6474 Y0.8440  
G01 X-3.6470 Y0.8438  
G01 X-3.6465 Y0.8436  
G01 X-3.6444 Y0.8424  
G01 X-3.6423 Y0.8414  
G01 X-3.6419 Y0.8410  
G01 X-3.6414 Y0.8407  
G01 X-3.6397 Y0.8390  
G01 X-3.6379 Y0.8374  
G01 X-3.6377 Y0.8370  
G01 X-3.6373 Y0.8366  
G01 X-3.6361 Y0.8345  
G01 X-3.5169 Y0.6491  
G01 X-3.0159 Y0.6491  
G01 X-2.9231 Y0.7692  
G01 X-2.9016 Y0.8439  
G01 X-2.9014 Y0.8455  
G01 X-2.9009 Y0.8465  
G01 X-2.9007 Y0.8475  
G01 X-2.9005 Y0.8477  
G01 X-2.9005 Y0.8479  
G01 X-2.8996 Y0.8493  
G01 X-2.8510 Y0.9563  
G01 X-2.8508 Y0.9570  
G01 X-2.8498 Y0.9589  
G01 X-2.8490 Y0.9608  
G01 X-2.8484 Y0.9615  
G01 X-2.7921 Y1.0646  
G01 X-2.7921 Y1.3008  
G01 X-2.8170 Y1.3257  
G01 X-2.8865 Y1.3172  
G01 X-2.9251 Y1.3057  
G01 X-2.9160 Y1.1125  
G01 X-2.9159 Y1.1121  
G01 X-2.9159 Y1.1096  
G01 X-2.9157 Y1.1071  
G01 X-2.9158 Y1.1067  
G01 X-2.9158 Y1.1062  
G01 X-2.9165 Y1.1038  
G01 X-2.9170 Y1.1014  
G01 X-2.9172 Y1.1010  
G01 X-2.9173 Y1.1006  
G01 X-2.9185 Y1.0984  
G01 X-2.9197 Y1.0962  
G01 X-2.9200 Y1.0959  
G01 X-2.9967 Y0.9609  
G01 X-2.9969 Y0.9601  
G01 X-2.9981 Y0.9584  
G01 X-2.9992 Y0.9565  
G01 X-2.9997 Y0.9560  
G01 X-3.0002 Y0.9553  
G01 X-3.0018 Y0.9539  
G01 X-3.0033 Y0.9524  
G01 X-3.0040 Y0.9520  
G01 X-3.0046 Y0.9514  
G01 X-3.0065 Y0.9505  
G01 X-3.0083 Y0.9494  
G01 X-3.0091 Y0.9492  
G01 X-3.2620 Y0.8240  
G01 X-3.2619 Y0.8232  
G01 X-3.2619 Y0.8168  
G01 X-3.2631 Y0.8106  
G01 X-3.2655 Y0.8048  
G01 X-3.2690 Y0.7995  
G01 X-3.2735 Y0.7950  
G01 X-3.2788 Y0.7915  
G01 X-3.2846 Y0.7891  
G01 X-3.2908 Y0.7879  
G01 X-3.3492 Y0.7879  
G01 X-3.3554 Y0.7891  
G01 X-3.3612 Y0.7915  
G01 X-3.3665 Y0.7950  
G01 X-3.3710 Y0.7995  
G01 X-3.3745 Y0.8048  
G01 X-3.3769 Y0.8106  
G01 X-3.3781 Y0.8168  
G01 X-3.3781 Y0.8232  
G01 X-3.3769 Y0.8294  
G01 X-3.3745 Y0.8352  
G01 X-3.3710 Y0.8405  
G01 X-3.3665 Y0.8450  
G01 X-3.3612 Y0.8485  
G01 X-3.3554 Y0.8509  
G01 X-3.3492 Y0.8521  
G01 X-3.3050 Y0.8521  
G01 X-3.0329 Y0.9868  
G01 X-2.9604 Y1.1144  
G01 X-2.9700 Y1.3183  
G01 X-2.9701 Y1.3185  
G01 X-2.9701 Y1.3212  
G01 X-2.9703 Y1.3239  
G01 X-2.9702 Y1.3241  
G01 X-2.9702 Y1.3243  
G01 X-2.9696 Y1.3269  
G01 X-2.9690 Y1.3296  
G01 X-2.9689 Y1.3298  
G01 X-2.9689 Y1.3300  
G01 X-2.9676 Y1.3323  
G01 X-2.9663 Y1.3348  
G01 X-2.9662 Y1.3349  
G01 X-2.9661 Y1.3351  
G01 X-2.9642 Y1.3371  
G01 X-2.9624 Y1.3391  
G01 X-2.9622 Y1.3392  
G01 X-2.9621 Y1.3393  
G01 X-2.9598 Y1.3408  
G01 X-2.9575 Y1.3422  
G01 X-2.9573 Y1.3423  
G01 X-2.9571 Y1.3424  
G01 X-2.9545 Y1.3432  
G01 X-2.9520 Y1.3440  
G01 X-2.9517 Y1.3440  
G01 X-2.8983 Y1.3599  
G01 X-2.8966 Y1.3606  
G01 X-2.8955 Y1.3608  
G01 X-2.8945 Y1.3611  
G01 X-2.8927 Y1.3611  
G01 X-2.8354 Y1.3681  
G01 X-2.7791 Y1.4697  
G01 X-2.7791 Y2.2070  
G01 X-2.7793 Y2.2078  
G01 X-2.7791 Y2.2099  
G01 X-2.7791 Y2.2119  
G01 X-2.7789 Y2.2128  
G01 X-2.7789 Y2.2137  
G01 X-2.7782 Y2.2156  
G01 X-2.7776 Y2.2175  
G01 X-2.7772 Y2.2183  
G01 X-2.7769 Y2.2191  
G01 X-2.7757 Y2.2208  
G01 X-2.7747 Y2.2226  
G01 X-2.7741 Y2.2232  
G01 X-2.7736 Y2.2240  
G01 X-2.7720 Y2.2253  
G01 X-2.7706 Y2.2267  
G01 X-2.7698 Y2.2272  
G01 X-2.2940 Y2.6333  
G01 X-2.2926 Y2.6347  
G01 X-2.2918 Y2.6352  
G01 X-2.2912 Y2.6357  
G01 X-2.2893 Y2.6366  
G01 X-2.2875 Y2.6376  
G01 X-2.2867 Y2.6379  
G01 X-2.2859 Y2.6382  
G01 X-2.2839 Y2.6386  
G01 X-2.2819 Y2.6391  
G01 X-2.2810 Y2.6391  
G01 X-2.2802 Y2.6393  
G01 X-2.2781 Y2.6391  
G01 X-1.5199 Y2.6391  
G01 X-1.5188 Y2.6393  
G01 X-1.5170 Y2.6391  
G01 X-1.5151 Y2.6391  
G01 X-1.5141 Y2.6389  
G01 X-1.5130 Y2.6388  
G01 X-1.5113 Y2.6381  
G01 X-1.5095 Y2.6376  
G01 X-1.5085 Y2.6371  
G01 X-1.5076 Y2.6368  
G01 X-1.5060 Y2.6357  
G01 X-1.5044 Y2.6347  
G01 X-1.5037 Y2.6340  
G01 X-1.5028 Y2.6334  
G01 X-1.5016 Y2.6319  
G01 X-1.5003 Y2.6306  
G01 X-1.4998 Y2.6297  
G01 X-1.4046 Y2.5149  
G01 X-1.4033 Y2.5136  
G01 X-1.4028 Y2.5127  
G01 X-1.4021 Y2.5119  
G01 X-1.4013 Y2.5102  
G01 X-1.4004 Y2.5085  
G01 X-1.4001 Y2.5075  
G01 X-1.3997 Y2.5066  
G01 X-1.3993 Y2.5047  
G01 X-1.3989 Y2.5029  
G01 X-1.3989 Y2.5019  
G01 X-1.3987 Y2.5008  
G01 X-1.3989 Y2.4990  
G01 X-1.3989 Y2.2634  
G01 X-1.3987 Y2.2619  
G01 X-1.3989 Y2.2605  
G01 X-1.3989 Y2.2591  
G01 X-1.3992 Y2.2576  
G01 X-1.4240 Y2.0744  
G01 X-1.4242 Y2.0720  
G01 X-1.4244 Y2.0716  
G01 X-1.4244 Y2.0711  
G01 X-1.4254 Y2.0688  
G01 X-1.4263 Y2.0665  
G01 X-1.4265 Y2.0662  
G01 X-1.4267 Y2.0658  
G01 X-1.4282 Y2.0638  
G01 X-1.4297 Y2.0618  
G01 X-1.4300 Y2.0615  
G01 X-1.4303 Y2.0611  
G01 X-1.4322 Y2.0596  
G01 X-1.4342 Y2.0580  
G01 X-1.4346 Y2.0579  
G01 X-1.4349 Y2.0576  
G01 X-1.4372 Y2.0567  
G01 X-1.4395 Y2.0556  
G01 X-1.4399 Y2.0556  
G01 X-1.4403 Y2.0554  
G01 X-1.4428 Y2.0551  
G01 X-1.4879 Y2.0476  
G01 X-1.4879 Y2.0467  
G01 X-1.4969 Y2.0377  
G01 X-1.4969 Y1.9135  
G01 X-1.4860 Y1.9095  
G01 X-1.4833 Y1.9121  
G01 X-1.4567 Y1.9121  
G01 X-1.4379 Y1.8933  
G01 X-1.4379 Y1.8667  
G01 X-1.4567 Y1.8479  
G01 X-1.4833 Y1.8479  
G01 X-1.5021 Y1.8667  
G01 X-1.5021 Y1.8682  
G01 X-1.5257 Y1.8769  
G01 X-1.5275 Y1.8774  
G01 X-1.5284 Y1.8779  
G01 X-1.5294 Y1.8782  
G01 X-1.5309 Y1.8793  
G01 X-1.5326 Y1.8803  
G01 X-1.5333 Y1.8810  
G01 X-1.5341 Y1.8816  
G01 X-1.5354 Y1.8830  
G01 X-1.5367 Y1.8844  
G01 X-1.5372 Y1.8853  
G01 X-1.5379 Y1.8861  
G01 X-1.5387 Y1.8878  
G01 X-1.5396 Y1.8895  
G01 X-1.5399 Y1.8904  
G01 X-1.5403 Y1.8913  
G01 X-1.5407 Y1.8932  
G01 X-1.5411 Y1.8951  
G01 X-1.5411 Y1.8961  
G01 X-1.5413 Y1.8971  
G01 X-1.5411 Y1.8990  
G01 X-1.5411 Y2.0357  
G01 X-1.5521 Y2.0467  
G01 X-1.5521 Y2.0733  
G01 X-1.5333 Y2.0921  
G01 X-1.5067 Y2.0921  
G01 X-1.5043 Y2.0897  
G01 X-1.4658 Y2.0962  
G01 X-1.4431 Y2.2635  
G01 X-1.4431 Y2.4920  
G01 X-1.5284 Y2.5949  
G01 X-2.2708 Y2.5949  
G01 X-2.7349 Y2.1988  
G01 X-2.7349 Y1.4642  
G01 X-2.7348 Y1.4615  
G01 X-2.7349 Y1.4613  
G01 X-2.7349 Y1.4611  
G01 X-2.7356 Y1.4585  
G01 X-2.7362 Y1.4558  
G01 X-2.7363 Y1.4556  
G01 X-2.7364 Y1.4555  
G01 X-2.7377 Y1.4531  
G01 X-2.7890 Y1.3604  
G01 X-2.7523 Y1.3236  
G01 X-2.7494 Y1.3185  
G01 X-2.7479 Y1.3129  
G01 X-2.7479 Y1.0593  
G01 X-2.7478 Y1.0566  
G01 X-2.7479 Y1.0564  
G01 X-2.7479 Y1.0561  
G01 X-2.7485 Y1.0535  
G01 X-2.7492 Y1.0510  
G01 X-2.7493 Y1.0507  
G01 X-2.7494 Y1.0505  
G01 X-2.7507 Y1.0482  
G01 X-2.8102 Y0.9391  
G01 X-2.8591 Y0.8315  
G01 X-2.8731 Y0.7788  
G01 X-2.8265 Y0.7729  
G01 X-2.6318 Y0.8821  
G01 X-2.5616 Y0.9740  
G01 X-2.5621 Y0.9768  
G01 X-2.5621 Y0.9832  
G01 X-2.5609 Y0.9894  
G01 X-2.5585 Y0.9952  
G01 X-2.5550 Y1.0005  
G01 X-2.5505 Y1.0050  
G01 X-2.5452 Y1.0085  
G01 X-2.5394 Y1.0109  
G01 X-2.5332 Y1.0121  
G01 X-2.5268 Y1.0121  
G01 X-2.5206 Y1.0109  
G01 X-2.5148 Y1.0085  
G01 X-2.5095 Y1.0050  
G01 X-2.5050 Y1.0005  
G01 X-2.5015 Y0.9952  
G01 X-2.4991 Y0.9894  
G01 X-2.4979 Y0.9832  
G01 X-2.4979 Y0.9768  
G01 X-2.4991 Y0.9706  
G01 X-2.5015 Y0.9648  
G01 X-2.5050 Y0.9595  
G01 X-2.5095 Y0.9550  
G01 X-2.5148 Y0.9515  
G01 X-2.5206 Y0.9491  
G01 X-2.5257 Y0.9481  
G01 X-2.5986 Y0.8526  
G01 X-2.5994 Y0.8512  
G01 X-2.6004 Y0.8503  
G01 X-2.6012 Y0.8492  
G01 X-2.6025 Y0.8482  
G01 X-2.6036 Y0.8471  
G01 X-2.6048 Y0.8465  
G01 X-2.6058 Y0.8457  
G01 X-2.6073 Y0.8451  
G01 X-2.8097 Y0.7315  
G01 X-2.8107 Y0.7307  
G01 X-2.8123 Y0.7301  
G01 X-2.8137 Y0.7293  
G01 X-2.8149 Y0.7289  
G01 X-2.8161 Y0.7284  
G01 X-2.8178 Y0.7282  
G01 X-2.8194 Y0.7278  
G01 X-2.8206 Y0.7278  
G01 X-2.8219 Y0.7277  
G01 X-2.8235 Y0.7279  
G01 X-2.8252 Y0.7279  
G01 X-2.8264 Y0.7282  
G01 X-2.8923 Y0.7366  
G01 X-2.9866 Y0.6146  
G01 X-2.9873 Y0.6134  
G01 X-2.9883 Y0.6123  
G01 X-2.9893 Y0.6111  
G01 X-2.9904 Y0.6103  
G01 X-2.9914 Y0.6093  
G01 X-2.9927 Y0.6085  
G01 X-2.9939 Y0.6076  
G01 X-2.9952 Y0.6071  
G01 X-2.9965 Y0.6064  
G01 X-2.9979 Y0.6060  
G01 X-2.9993 Y0.6054  
G01 X-3.0007 Y0.6052  
G01 X-3.0021 Y0.6049  
G01 X-3.0036 Y0.6049  
G01 X-3.0051 Y0.6047  
G01 X-3.0065 Y0.6049  
G01 X-3.5285 Y0.6049  
G01 X-3.5309 Y0.6047  
G01 X-3.5314 Y0.6049  
G01 X-3.5319 Y0.6049  
G01 X-3.5342 Y0.6055  
G01 X-3.5366 Y0.6060  
G01 X-3.5370 Y0.6062  
G01 X-3.5375 Y0.6064  
G01 X-3.5396 Y0.6076  
G01 X-3.5417 Y0.6086  
G01 X-3.5421 Y0.6090  
G01 X-3.5426 Y0.6093  
G01 X-3.5443 Y0.6110  
G01 X-3.5461 Y0.6126  
G01 X-3.5463 Y0.6130  
G01 X-3.5467 Y0.6134  
G01 X-3.5479 Y0.6155  
G01 X-3.6671 Y0.8009  
G01 X-3.7798 Y0.8009  
G01 X-3.8271 Y0.7455  
G01 X-3.8365 Y0.4908  
G01 X-3.7068 Y0.3791  
G01 X-1.0366 Y0.3791  
G01 X-0.9539 Y0.5429  
G01 X-0.9631 Y0.5521  
G01 X-0.9631 Y0.5879  
G01 X-0.9431 Y0.6079  
G01 X-0.9431 Y0.6321  
G01 X-0.9631 Y0.6521  
G01 X-0.9631 Y0.6879  
G01 X-0.9379 Y0.7131  
G01 X-0.9021 Y0.7131  
G01 X-0.8769 Y0.6879  
G01 X-0.8769 Y0.6521  
G01 X-0.8989 Y0.6301  
G01 X-0.8989 Y0.6099  
G01 X-0.8769 Y0.5879  
G01 X-0.8769 Y0.5521  
G00 Z0.0500  
G00 X-0.9769 Y0.5521  
G01 Z-0.0040 F10    
G01 X-1.0021 Y0.5269  F20    
G01 X-1.0379 Y0.5269  
G01 X-1.0631 Y0.5521  
G01 X-1.0631 Y0.5879  
G01 X-1.0379 Y0.6131  
G01 X-1.0021 Y0.6131  
G01 X-0.9769 Y0.5879  
G01 X-0.9769 Y0.5521  
G00 Z0.0500  
G00 X-0.9769 Y0.6521  
G01 Z-0.0040 F10    
G01 X-1.0021 Y0.6269  F20    
G01 X-1.0379 Y0.6269  
G01 X-1.0631 Y0.6521  
G01 X-1.0631 Y0.6879  
G01 X-1.0379 Y0.7131  
G01 X-1.0021 Y0.7131  
G01 X-0.9769 Y0.6879  
G01 X-0.9769 Y0.6521  
G00 Z0.0500  
G00 X-1.0769 Y0.6521  
G01 Z-0.0040 F10    
G01 X-1.1021 Y0.6269  F20    
G01 X-1.1379 Y0.6269  
G01 X-1.1631 Y0.6521  
G01 X-1.1631 Y0.6879  
G01 X-1.1379 Y0.7131  
G01 X-1.1021 Y0.7131  
G01 X-1.0769 Y0.6879  
G01 X-1.0769 Y0.6521  
G00 Z0.0500  
G00 X-1.1021 Y0.6131  
G01 Z-0.0040 F10    
G01 X-1.0769 Y0.5879  F20    
G01 X-1.0769 Y0.5521  
G01 X-1.1021 Y0.5269  
G01 X-1.1379 Y0.5269  
G01 X-1.1631 Y0.5521  
G01 X-1.1631 Y0.5879  
G01 X-1.1379 Y0.6131  
G01 X-1.1021 Y0.6131  
G00 Z0.0500  
G00 X-1.2021 Y0.6131  
G01 Z-0.0040 F10    
G01 X-1.1769 Y0.5879  F20    
G01 X-1.1769 Y0.5521  
G01 X-1.2021 Y0.5269  
G01 X-1.2379 Y0.5269  
G01 X-1.2631 Y0.5521  
G01 X-1.2631 Y0.5879  
G01 X-1.2379 Y0.6131  
G01 X-1.2021 Y0.6131  
G00 Z0.0500  
G00 X-1.2021 Y0.6269  
G01 Z-0.0040 F10    
G01 X-1.2379 Y0.6269  F20    
G01 X-1.2631 Y0.6521  
G01 X-1.2631 Y0.6879  
G01 X-1.2379 Y0.7131  
G01 X-1.2021 Y0.7131  
G01 X-1.1769 Y0.6879  
G01 X-1.1769 Y0.6521  
G01 X-1.2021 Y0.6269  
G00 Z0.0500  
G00 X-1.2250 Y0.8835  
G01 Z-0.0040 F10    
G01 X-1.2295 Y0.8790  F20    
G01 X-1.2348 Y0.8755  
G01 X-1.2406 Y0.8731  
G01 X-1.2468 Y0.8719  
G01 X-1.2532 Y0.8719  
G01 X-1.2594 Y0.8731  
G01 X-1.2652 Y0.8755  
G01 X-1.2705 Y0.8790  
G01 X-1.2750 Y0.8835  
G01 X-1.2785 Y0.8888  
G01 X-1.2809 Y0.8946  
G01 X-1.2821 Y0.9008  
G01 X-1.2821 Y0.9420  
G01 X-1.2925 Y0.9636  
G01 X-1.5099 Y0.8076  
G01 X-1.5099 Y0.6453  
G01 X-1.5079 Y0.6433  
G01 X-1.5079 Y0.6167  
G01 X-1.5267 Y0.5979  
G01 X-1.5325 Y0.5979  
G01 X-1.5981 Y0.4525  
G01 X-1.5984 Y0.4515  
G01 X-1.5993 Y0.4499  
G01 X-1.6000 Y0.4482  
G01 X-1.6007 Y0.4474  
G01 X-1.6013 Y0.4464  
G01 X-1.6026 Y0.4451  
G01 X-1.6037 Y0.4437  
G01 X-1.6046 Y0.4431  
G01 X-1.6054 Y0.4423  
G01 X-1.6070 Y0.4414  
G01 X-1.6084 Y0.4403  
G01 X-1.6095 Y0.4399  
G01 X-1.6105 Y0.4394  
G01 X-1.6122 Y0.4389  
G01 X-1.6139 Y0.4383  
G01 X-1.6150 Y0.4381  
G01 X-1.6161 Y0.4379  
G01 X-1.6179 Y0.4379  
G01 X-1.6197 Y0.4377  
G01 X-1.6208 Y0.4379  
G01 X-1.9098 Y0.4379  
G01 X-1.9105 Y0.4377  
G01 X-1.9127 Y0.4379  
G01 X-1.9149 Y0.4379  
G01 X-1.9156 Y0.4380  
G01 X-1.9163 Y0.4381  
G01 X-1.9184 Y0.4388  
G01 X-1.9205 Y0.4394  
G01 X-1.9212 Y0.4397  
G01 X-1.9219 Y0.4399  
G01 X-1.9237 Y0.4412  
G01 X-1.9256 Y0.4423  
G01 X-1.9261 Y0.4428  
G01 X-1.9267 Y0.4432  
G01 X-1.9282 Y0.4448  
G01 X-1.9297 Y0.4464  
G01 X-1.9301 Y0.4470  
G01 X-1.9306 Y0.4476  
G01 X-1.9315 Y0.4495  
G01 X-1.9326 Y0.4515  
G01 X-1.9328 Y0.4521  
G01 X-1.9703 Y0.5279  
G01 X-1.9833 Y0.5279  
G01 X-2.0021 Y0.5467  
G01 X-2.0021 Y0.5733  
G01 X-1.9833 Y0.5921  
G01 X-1.9567 Y0.5921  
G01 X-1.9379 Y0.5733  
G01 X-1.9379 Y0.5622  
G01 X-1.8982 Y0.4821  
G01 X-1.6333 Y0.4821  
G01 X-1.5721 Y0.6177  
G01 X-1.5721 Y0.6433  
G01 X-1.5541 Y0.6613  
G01 X-1.5541 Y0.8179  
G01 X-1.5543 Y0.8197  
G01 X-1.5541 Y0.8208  
G01 X-1.5541 Y0.8219  
G01 X-1.5537 Y0.8237  
G01 X-1.5534 Y0.8255  
G01 X-1.5529 Y0.8265  
G01 X-1.5526 Y0.8275  
G01 X-1.5517 Y0.8291  
G01 X-1.5510 Y0.8308  
G01 X-1.5503 Y0.8316  
G01 X-1.5497 Y0.8326  
G01 X-1.5484 Y0.8339  
G01 X-1.5473 Y0.8353  
G01 X-1.5464 Y0.8359  
G01 X-1.5456 Y0.8367  
G01 X-1.5440 Y0.8376  
G01 X-1.3042 Y1.0097  
G01 X-1.2560 Y1.2805  
G01 X-1.2621 Y1.2867  
G01 X-1.2621 Y1.3133  
G01 X-1.2433 Y1.3321  
G01 X-1.2167 Y1.3321  
G01 X-1.1979 Y1.3133  
G01 X-1.1979 Y1.2867  
G01 X-1.2125 Y1.2721  
G01 X-1.2609 Y1.0002  
G01 X-1.2550 Y0.9878  
G01 X-1.2532 Y0.9881  
G01 X-1.2468 Y0.9881  
G01 X-1.2406 Y0.9869  
G01 X-1.2348 Y0.9845  
G01 X-1.2295 Y0.9810  
G01 X-1.2250 Y0.9765  
G01 X-1.2215 Y0.9712  
G01 X-1.2191 Y0.9654  
G01 X-1.2179 Y0.9592  
G01 X-1.2179 Y0.9008  
G01 X-1.2191 Y0.8946  
G01 X-1.2215 Y0.8888  
G01 X-1.2250 Y0.8835  
G00 Z0.0500  
G00 X-1.1750 Y0.8835  
G01 Z-0.0040 F10    
G01 X-1.1785 Y0.8888  F20    
G01 X-1.1809 Y0.8946  
G01 X-1.1821 Y0.9008  
G01 X-1.1821 Y0.9592  
G01 X-1.1809 Y0.9654  
G01 X-1.1785 Y0.9712  
G01 X-1.1750 Y0.9765  
G01 X-1.1721 Y0.9793  
G01 X-1.1721 Y1.1173  
G01 X-1.1722 Y1.1174  
G01 X-1.1721 Y1.1202  
G01 X-1.1721 Y1.1229  
G01 X-1.1721 Y1.1231  
G01 X-1.1721 Y1.1233  
G01 X-1.1713 Y1.1259  
G01 X-1.1706 Y1.1285  
G01 X-1.1705 Y1.1287  
G01 X-1.1638 Y1.1523  
G01 X-1.1637 Y1.1534  
G01 X-1.1630 Y1.1551  
G01 X-1.1625 Y1.1569  
G01 X-1.1619 Y1.1578  
G01 X-1.1615 Y1.1588  
G01 X-1.1604 Y1.1603  
G01 X-1.1595 Y1.1619  
G01 X-1.1587 Y1.1626  
G01 X-1.1012 Y1.2403  
G01 X-1.0809 Y1.2854  
G01 X-1.0821 Y1.2867  
G01 X-1.0821 Y1.3133  
G01 X-1.0633 Y1.3321  
G01 X-1.0417 Y1.3321  
G01 X-0.8321 Y1.4719  
G01 X-0.8321 Y1.7329  
G01 X-0.8306 Y1.7385  
G01 X-0.8277 Y1.7436  
G01 X-0.8236 Y1.7477  
G01 X-0.7821 Y1.7892  
G01 X-0.7821 Y1.8567  
G01 X-0.7921 Y1.8667  
G01 X-0.7921 Y1.8933  
G01 X-0.7733 Y1.9121  
G01 X-0.7467 Y1.9121  
G01 X-0.7279 Y1.8933  
G01 X-0.7279 Y1.8667  
G01 X-0.7379 Y1.8567  
G01 X-0.7379 Y1.7771  
G01 X-0.7394 Y1.7715  
G01 X-0.7423 Y1.7664  
G01 X-0.7879 Y1.7208  
G01 X-0.7879 Y1.4607  
G01 X-0.7877 Y1.4585  
G01 X-0.7879 Y1.4578  
G01 X-0.7879 Y1.4571  
G01 X-0.7884 Y1.4550  
G01 X-0.7889 Y1.4528  
G01 X-0.7892 Y1.4521  
G01 X-0.7894 Y1.4515  
G01 X-0.7905 Y1.4495  
G01 X-0.7914 Y1.4476  
G01 X-0.7919 Y1.4470  
G01 X-0.7923 Y1.4464  
G01 X-0.7938 Y1.4448  
G01 X-0.7953 Y1.4432  
G01 X-0.7959 Y1.4428  
G01 X-0.7964 Y1.4423  
G01 X-0.7983 Y1.4412  
G01 X-1.0179 Y1.2948  
G01 X-1.0179 Y1.2867  
G01 X-1.0367 Y1.2679  
G01 X-1.0402 Y1.2679  
G01 X-1.0616 Y1.2204  
G01 X-1.0625 Y1.2182  
G01 X-1.0628 Y1.2177  
G01 X-1.0630 Y1.2172  
G01 X-1.0645 Y1.2154  
G01 X-1.1218 Y1.1380  
G01 X-1.1279 Y1.1169  
G01 X-1.1279 Y0.9793  
G01 X-1.1250 Y0.9765  
G01 X-1.1215 Y0.9712  
G01 X-1.1191 Y0.9654  
G01 X-1.1179 Y0.9592  
G01 X-1.1179 Y0.9008  
G01 X-1.1191 Y0.8946  
G01 X-1.1215 Y0.8888  
G01 X-1.1250 Y0.8835  
G01 X-1.1295 Y0.8790  
G01 X-1.1348 Y0.8755  
G01 X-1.1406 Y0.8731  
G01 X-1.1468 Y0.8719  
G01 X-1.1532 Y0.8719  
G01 X-1.1594 Y0.8731  
G01 X-1.1652 Y0.8755  
G01 X-1.1705 Y0.8790  
G01 X-1.1750 Y0.8835  
G00 Z0.0500  
G00 X-1.0750 Y0.8835  
G01 Z-0.0040 F10    
G01 X-1.0785 Y0.8888  F20    
G01 X-1.0809 Y0.8946  
G01 X-1.0821 Y0.9008  
G01 X-1.0821 Y0.9592  
G01 X-1.0809 Y0.9654  
G01 X-1.0785 Y0.9712  
G01 X-1.0750 Y0.9765  
G01 X-1.0705 Y0.9810  
G01 X-1.0652 Y0.9845  
G01 X-1.0614 Y0.9861  
G01 X-1.0522 Y1.0320  
G01 X-1.0522 Y1.0325  
G01 X-1.0516 Y1.0349  
G01 X-1.0511 Y1.0372  
G01 X-1.0509 Y1.0377  
G01 X-1.0420 Y1.0732  
G01 X-1.0586 Y1.0898  
G01 X-1.0586 Y1.1302  
G01 X-1.0302 Y1.1586  
G01 X-1.0031 Y1.1586  
G01 X-0.9922 Y1.1741  
G01 X-0.9918 Y1.1750  
G01 X-0.9906 Y1.1765  
G01 X-0.9895 Y1.1781  
G01 X-0.9887 Y1.1787  
G01 X-0.9881 Y1.1795  
G01 X-0.9865 Y1.1806  
G01 X-0.9850 Y1.1818  
G01 X-0.9841 Y1.1823  
G01 X-0.9556 Y1.2022  
G01 X-0.9192 Y1.2504  
G01 X-0.9190 Y1.2508  
G01 X-0.9174 Y1.2527  
G01 X-0.9159 Y1.2547  
G01 X-0.9156 Y1.2549  
G01 X-0.8821 Y1.2957  
G01 X-0.8821 Y1.3133  
G01 X-0.8633 Y1.3321  
G01 X-0.8367 Y1.3321  
G01 X-0.8179 Y1.3133  
G01 X-0.8179 Y1.2867  
G01 X-0.8367 Y1.2679  
G01 X-0.8477 Y1.2679  
G01 X-0.8826 Y1.2253  
G01 X-0.9209 Y1.1745  
G01 X-0.9212 Y1.1740  
G01 X-0.9227 Y1.1722  
G01 X-0.9241 Y1.1703  
G01 X-0.9246 Y1.1700  
G01 X-0.9249 Y1.1695  
G01 X-0.9268 Y1.1682  
G01 X-0.9287 Y1.1667  
G01 X-0.9292 Y1.1665  
G01 X-0.9571 Y1.1471  
G01 X-0.9658 Y1.1346  
G01 X-0.9614 Y1.1302  
G01 X-0.9614 Y1.0898  
G01 X-0.9898 Y1.0614  
G01 X-0.9993 Y1.0614  
G01 X-1.0084 Y1.0251  
G01 X-1.0199 Y0.9674  
G01 X-1.0191 Y0.9654  
G01 X-1.0179 Y0.9592  
G01 X-1.0179 Y0.9008  
G01 X-1.0191 Y0.8946  
G01 X-1.0215 Y0.8888  
G01 X-1.0250 Y0.8835  
G01 X-1.0295 Y0.8790  
G01 X-1.0348 Y0.8755  
G01 X-1.0406 Y0.8731  
G01 X-1.0468 Y0.8719  
G01 X-1.0532 Y0.8719  
G01 X-1.0594 Y0.8731  
G01 X-1.0652 Y0.8755  
G01 X-1.0705 Y0.8790  
G01 X-1.0750 Y0.8835  
G00 Z0.0500  
G00 X-0.8565 Y0.8950  
G01 Z-0.0040 F10    
G01 X-0.8610 Y0.8995  F20    
G01 X-0.8645 Y0.9048  
G01 X-0.8669 Y0.9106  
G01 X-0.8681 Y0.9168  
G01 X-0.8681 Y0.9232  
G01 X-0.8669 Y0.9294  
G01 X-0.8645 Y0.9352  
G01 X-0.8610 Y0.9405  
G01 X-0.8565 Y0.9450  
G01 X-0.8512 Y0.9485  
G01 X-0.8454 Y0.9509  
G01 X-0.8392 Y0.9521  
G01 X-0.7808 Y0.9521  
G01 X-0.7746 Y0.9509  
G01 X-0.7713 Y0.9495  
G01 X-0.7173 Y0.9594  
G01 X-0.6983 Y1.0228  
G01 X-0.7021 Y1.0267  
G01 X-0.7021 Y1.0533  
G01 X-0.6833 Y1.0721  
G01 X-0.6567 Y1.0721  
G01 X-0.6503 Y1.0657  
G01 X-0.5547 Y1.0817  
G01 X-0.5529 Y1.0821  
G01 X-0.5518 Y1.0821  
G01 X-0.5508 Y1.0823  
G01 X-0.5489 Y1.0821  
G01 X-0.4721 Y1.0821  
G01 X-0.4721 Y1.1467  
G01 X-0.4821 Y1.1567  
G01 X-0.4821 Y1.1833  
G01 X-0.4633 Y1.2021  
G01 X-0.4367 Y1.2021  
G01 X-0.4179 Y1.1833  
G01 X-0.4179 Y1.1567  
G01 X-0.4279 Y1.1467  
G01 X-0.4279 Y1.0571  
G01 X-0.4294 Y1.0515  
G01 X-0.4323 Y1.0464  
G01 X-0.4364 Y1.0423  
G01 X-0.4415 Y1.0394  
G01 X-0.4471 Y1.0379  
G01 X-0.5482 Y1.0379  
G01 X-0.6424 Y1.0221  
G01 X-0.6564 Y1.0081  
G01 X-0.6781 Y0.9359  
G01 X-0.6782 Y0.9353  
G01 X-0.6790 Y0.9331  
G01 X-0.6796 Y0.9308  
G01 X-0.6799 Y0.9303  
G01 X-0.6801 Y0.9298  
G01 X-0.6815 Y0.9279  
G01 X-0.6827 Y0.9259  
G01 X-0.6831 Y0.9255  
G01 X-0.6834 Y0.9250  
G01 X-0.6852 Y0.9235  
G01 X-0.6869 Y0.9219  
G01 X-0.6874 Y0.9216  
G01 X-0.6879 Y0.9212  
G01 X-0.6900 Y0.9202  
G01 X-0.6921 Y0.9191  
G01 X-0.6926 Y0.9190  
G01 X-0.6932 Y0.9187  
G01 X-0.6955 Y0.9183  
G01 X-0.6977 Y0.9178  
G01 X-0.6983 Y0.9178  
G01 X-0.7543 Y0.9076  
G01 X-0.7555 Y0.9048  
G01 X-0.7590 Y0.8995  
G01 X-0.7635 Y0.8950  
G01 X-0.7688 Y0.8915  
G01 X-0.7746 Y0.8891  
G01 X-0.7808 Y0.8879  
G01 X-0.8392 Y0.8879  
G01 X-0.8454 Y0.8891  
G01 X-0.8512 Y0.8915  
G01 X-0.8565 Y0.8950  
G00 Z0.0500  
G00 X-0.5565 Y0.8950  
G01 Z-0.0040 F10    
G01 X-0.5610 Y0.8995  F20    
G01 X-0.5645 Y0.9048  
G01 X-0.5669 Y0.9106  
G01 X-0.5681 Y0.9168  
G01 X-0.5681 Y0.9232  
G01 X-0.5669 Y0.9294  
G01 X-0.5645 Y0.9352  
G01 X-0.5610 Y0.9405  
G01 X-0.5565 Y0.9450  
G01 X-0.5512 Y0.9485  
G01 X-0.5454 Y0.9509  
G01 X-0.5392 Y0.9521  
G01 X-0.4808 Y0.9521  
G01 X-0.4746 Y0.9509  
G01 X-0.4688 Y0.9485  
G01 X-0.4635 Y0.9450  
G01 X-0.4607 Y0.9421  
G01 X-0.4167 Y0.9421  
G01 X-0.3902 Y0.9686  
G01 X-0.3498 Y0.9686  
G01 X-0.3214 Y0.9402  
G01 X-0.3214 Y0.8998  
G01 X-0.3498 Y0.8714  
G01 X-0.3902 Y0.8714  
G01 X-0.4167 Y0.8979  
G01 X-0.4607 Y0.8979  
G01 X-0.4635 Y0.8950  
G01 X-0.4688 Y0.8915  
G01 X-0.4746 Y0.8891  
G01 X-0.4808 Y0.8879  
G01 X-0.5392 Y0.8879  
G01 X-0.5454 Y0.8891  
G01 X-0.5512 Y0.8915  
G01 X-0.5565 Y0.8950  
G00 Z0.0500  
G00 X-0.6179 Y1.1567  
G01 Z-0.0040 F10    
G01 X-0.6367 Y1.1379  F20    
G01 X-0.6633 Y1.1379  
G01 X-0.6821 Y1.1567  
G01 X-0.6821 Y1.1833  
G01 X-0.6737 Y1.1918  
G01 X-0.6805 Y1.2951  
G01 X-0.6921 Y1.3067  
G01 X-0.6921 Y1.3333  
G01 X-0.6733 Y1.3521  
G01 X-0.6467 Y1.3521  
G01 X-0.6279 Y1.3333  
G01 X-0.6279 Y1.3067  
G01 X-0.6363 Y1.2982  
G01 X-0.6295 Y1.1949  
G01 X-0.6179 Y1.1833  
G01 X-0.6179 Y1.1567  
G00 Z0.0500  
G00 X-0.4921 Y1.3067  
G01 Z-0.0040 F10    
G01 X-0.4921 Y1.3333  F20    
G01 X-0.4754 Y1.3501  
G01 X-0.4953 Y1.4298  
G01 X-0.5121 Y1.4467  
G01 X-0.5121 Y1.4568  
G01 X-0.5751 Y1.5197  
G01 X-0.5766 Y1.5211  
G01 X-0.5771 Y1.5218  
G01 X-0.5777 Y1.5224  
G01 X-0.5788 Y1.5242  
G01 X-0.5799 Y1.5259  
G01 X-0.5802 Y1.5267  
G01 X-0.5806 Y1.5275  
G01 X-0.5812 Y1.5295  
G01 X-0.6031 Y1.5919  
G01 X-0.6094 Y1.5931  
G01 X-0.6152 Y1.5955  
G01 X-0.6205 Y1.5990  
G01 X-0.6250 Y1.6035  
G01 X-0.6285 Y1.6088  
G01 X-0.6309 Y1.6146  
G01 X-0.6321 Y1.6208  
G01 X-0.6321 Y1.6792  
G01 X-0.6309 Y1.6854  
G01 X-0.6285 Y1.6912  
G01 X-0.6250 Y1.6965  
G01 X-0.6205 Y1.7010  
G01 X-0.6152 Y1.7045  
G01 X-0.6094 Y1.7069  
G01 X-0.6032 Y1.7081  
G01 X-0.5968 Y1.7081  
G01 X-0.5906 Y1.7069  
G01 X-0.5848 Y1.7045  
G01 X-0.5795 Y1.7010  
G01 X-0.5750 Y1.6965  
G01 X-0.5715 Y1.6912  
G01 X-0.5691 Y1.6854  
G01 X-0.5679 Y1.6792  
G01 X-0.5679 Y1.6253  
G01 X-0.5408 Y1.5481  
G01 X-0.4848 Y1.4921  
G01 X-0.4667 Y1.4921  
G01 X-0.4479 Y1.4733  
G01 X-0.4479 Y1.4467  
G01 X-0.4526 Y1.4419  
G01 X-0.4287 Y1.3462  
G01 X-0.4281 Y1.3442  
G01 X-0.4280 Y1.3434  
G01 X-0.4278 Y1.3425  
G01 X-0.4278 Y1.3405  
G01 X-0.4277 Y1.3384  
G01 X-0.4279 Y1.3376  
G01 X-0.4279 Y1.3367  
G01 X-0.4285 Y1.3347  
G01 X-0.4286 Y1.3341  
G01 X-0.4279 Y1.3333  
G01 X-0.4279 Y1.3067  
G01 X-0.4467 Y1.2879  
G01 X-0.4733 Y1.2879  
G01 X-0.4921 Y1.3067  
G00 Z0.0500  
G00 X-0.4906 Y1.5931  
G01 Z-0.0040 F10    
G01 X-0.4968 Y1.5919  F20    
G01 X-0.5032 Y1.5919  
G01 X-0.5094 Y1.5931  
G01 X-0.5152 Y1.5955  
G01 X-0.5205 Y1.5990  
G01 X-0.5250 Y1.6035  
G01 X-0.5285 Y1.6088  
G01 X-0.5309 Y1.6146  
G01 X-0.5321 Y1.6208  
G01 X-0.5321 Y1.6792  
G01 X-0.5309 Y1.6854  
G01 X-0.5285 Y1.6912  
G01 X-0.5250 Y1.6965  
G01 X-0.5205 Y1.7010  
G01 X-0.5174 Y1.7030  
G01 X-0.5127 Y1.7550  
G01 X-0.5669 Y1.8479  
G01 X-0.5733 Y1.8479  
G01 X-0.5921 Y1.8667  
G01 X-0.5921 Y1.8933  
G01 X-0.5733 Y1.9121  
G01 X-0.5467 Y1.9121  
G01 X-0.5279 Y1.8933  
G01 X-0.5279 Y1.8688  
G01 X-0.4718 Y1.7728  
G01 X-0.4711 Y1.7719  
G01 X-0.4703 Y1.7702  
G01 X-0.4694 Y1.7686  
G01 X-0.4691 Y1.7676  
G01 X-0.4687 Y1.7666  
G01 X-0.4684 Y1.7648  
G01 X-0.4679 Y1.7630  
G01 X-0.4679 Y1.7619  
G01 X-0.4677 Y1.7609  
G01 X-0.4678 Y1.7590  
G01 X-0.4678 Y1.7572  
G01 X-0.4681 Y1.7562  
G01 X-0.4737 Y1.6945  
G01 X-0.4715 Y1.6912  
G01 X-0.4691 Y1.6854  
G01 X-0.4679 Y1.6792  
G01 X-0.4679 Y1.6208  
G01 X-0.4691 Y1.6146  
G01 X-0.4715 Y1.6088  
G01 X-0.4750 Y1.6035  
G01 X-0.4795 Y1.5990  
G01 X-0.4848 Y1.5955  
G01 X-0.4906 Y1.5931  
G00 Z0.0500  
G00 X-0.9950 Y1.6635  
G01 Z-0.0040 F10    
G01 X-0.9995 Y1.6590  F20    
G01 X-1.0048 Y1.6555  
G01 X-1.0106 Y1.6531  
G01 X-1.0148 Y1.6522  
G01 X-1.0433 Y1.5610  
G01 X-1.0435 Y1.5598  
G01 X-1.0442 Y1.5583  
G01 X-1.0447 Y1.5566  
G01 X-1.0454 Y1.5556  
G01 X-1.0458 Y1.5545  
G01 X-1.0469 Y1.5531  
G01 X-1.0478 Y1.5517  
G01 X-1.0487 Y1.5509  
G01 X-1.0495 Y1.5499  
G01 X-1.0509 Y1.5489  
G01 X-1.0521 Y1.5477  
G01 X-1.0532 Y1.5472  
G01 X-1.0542 Y1.5465  
G01 X-1.0558 Y1.5458  
G01 X-1.0573 Y1.5450  
G01 X-1.0585 Y1.5448  
G01 X-1.1196 Y1.5207  
G01 X-1.1465 Y1.4983  
G01 X-1.1483 Y1.4966  
G01 X-1.1487 Y1.4964  
G01 X-1.1491 Y1.4961  
G01 X-1.1513 Y1.4951  
G01 X-1.1534 Y1.4940  
G01 X-1.1539 Y1.4939  
G01 X-1.1544 Y1.4937  
G01 X-1.1568 Y1.4933  
G01 X-1.2009 Y1.4837  
G01 X-1.2167 Y1.4679  
G01 X-1.2433 Y1.4679  
G01 X-1.2621 Y1.4867  
G01 X-1.2621 Y1.5133  
G01 X-1.2433 Y1.5321  
G01 X-1.2167 Y1.5321  
G01 X-1.2113 Y1.5267  
G01 X-1.1710 Y1.5355  
G01 X-1.1469 Y1.5556  
G01 X-1.1465 Y1.5561  
G01 X-1.1447 Y1.5574  
G01 X-1.1429 Y1.5589  
G01 X-1.1424 Y1.5592  
G01 X-1.1418 Y1.5595  
G01 X-1.1397 Y1.5604  
G01 X-1.1376 Y1.5613  
G01 X-1.1370 Y1.5614  
G01 X-1.0830 Y1.5827  
G01 X-1.0521 Y1.6814  
G01 X-1.0521 Y1.7108  
G01 X-1.0577 Y1.7164  
G01 X-1.0606 Y1.7215  
G01 X-1.0621 Y1.7271  
G01 X-1.0621 Y1.8567  
G01 X-1.0721 Y1.8667  
G01 X-1.0721 Y1.8933  
G01 X-1.0533 Y1.9121  
G01 X-1.0267 Y1.9121  
G01 X-1.0079 Y1.8933  
G01 X-1.0079 Y1.8667  
G01 X-1.0179 Y1.8567  
G01 X-1.0179 Y1.7681  
G01 X-1.0168 Y1.7681  
G01 X-1.0106 Y1.7669  
G01 X-1.0048 Y1.7645  
G01 X-0.9995 Y1.7610  
G01 X-0.9950 Y1.7565  
G01 X-0.9915 Y1.7512  
G01 X-0.9891 Y1.7454  
G01 X-0.9879 Y1.7392  
G01 X-0.9879 Y1.6808  
G01 X-0.9891 Y1.6746  
G01 X-0.9915 Y1.6688  
G01 X-0.9950 Y1.6635  
G00 Z0.0500  
G00 X-1.0950 Y1.6635  
G01 Z-0.0040 F10    
G01 X-1.0995 Y1.6590  F20    
G01 X-1.1048 Y1.6555  
G01 X-1.1106 Y1.6531  
G01 X-1.1168 Y1.6519  
G01 X-1.1232 Y1.6519  
G01 X-1.1294 Y1.6531  
G01 X-1.1352 Y1.6555  
G01 X-1.1405 Y1.6590  
G01 X-1.1450 Y1.6635  
G01 X-1.1485 Y1.6688  
G01 X-1.1509 Y1.6746  
G01 X-1.1521 Y1.6808  
G01 X-1.1521 Y1.7392  
G01 X-1.1509 Y1.7454  
G01 X-1.1497 Y1.7484  
G01 X-1.1692 Y1.7679  
G01 X-1.5487 Y1.7679  
G01 X-1.5502 Y1.7677  
G01 X-1.5516 Y1.7679  
G01 X-1.5529 Y1.7679  
G01 X-1.5544 Y1.7683  
G01 X-1.5679 Y1.7702  
G01 X-1.5679 Y1.6492  
G01 X-1.5223 Y1.6036  
G01 X-1.5194 Y1.5985  
G01 X-1.5179 Y1.5929  
G01 X-1.5179 Y1.5771  
G01 X-1.5194 Y1.5715  
G01 X-1.5223 Y1.5664  
G01 X-1.5264 Y1.5623  
G01 X-1.5279 Y1.5608  
G01 X-1.5279 Y1.2196  
G01 X-1.5278 Y1.2193  
G01 X-1.5279 Y1.2167  
G01 X-1.5279 Y1.1908  
G01 X-1.5291 Y1.1846  
G01 X-1.5315 Y1.1788  
G01 X-1.5350 Y1.1735  
G01 X-1.5395 Y1.1690  
G01 X-1.5448 Y1.1655  
G01 X-1.5506 Y1.1631  
G01 X-1.5568 Y1.1619  
G01 X-1.5632 Y1.1619  
G01 X-1.5694 Y1.1631  
G01 X-1.5752 Y1.1655  
G01 X-1.5805 Y1.1690  
G01 X-1.5850 Y1.1735  
G01 X-1.5885 Y1.1788  
G01 X-1.5909 Y1.1846  
G01 X-1.5921 Y1.1908  
G01 X-1.5921 Y1.2492  
G01 X-1.5909 Y1.2554  
G01 X-1.5885 Y1.2612  
G01 X-1.5850 Y1.2665  
G01 X-1.5805 Y1.2710  
G01 X-1.5752 Y1.2745  
G01 X-1.5721 Y1.2758  
G01 X-1.5721 Y1.5729  
G01 X-1.5706 Y1.5785  
G01 X-1.5677 Y1.5836  
G01 X-1.5663 Y1.5850  
G01 X-1.6036 Y1.6223  
G01 X-1.6077 Y1.6264  
G01 X-1.6106 Y1.6315  
G01 X-1.6121 Y1.6371  
G01 X-1.6121 Y1.7908  
G01 X-1.6336 Y1.8123  
G01 X-1.6377 Y1.8164  
G01 X-1.6406 Y1.8215  
G01 X-1.6421 Y1.8271  
G01 X-1.6421 Y2.1629  
G01 X-1.6406 Y2.1685  
G01 X-1.6377 Y2.1736  
G01 X-1.5521 Y2.2592  
G01 X-1.5521 Y2.2733  
G01 X-1.5411 Y2.2843  
G01 X-1.5411 Y2.3447  
G01 X-1.5413 Y2.3462  
G01 X-1.5411 Y2.3476  
G01 X-1.5411 Y2.3489  
G01 X-1.5407 Y2.3504  
G01 X-1.5405 Y2.3520  
G01 X-1.5400 Y2.3532  
G01 X-1.5396 Y2.3545  
G01 X-1.5389 Y2.3559  
G01 X-1.5382 Y2.3574  
G01 X-1.5374 Y2.3584  
G01 X-1.5367 Y2.3596  
G01 X-1.5356 Y2.3607  
G01 X-1.5051 Y2.3996  
G01 X-1.5051 Y2.4448  
G01 X-1.5932 Y2.5329  
G01 X-2.2308 Y2.5329  
G01 X-2.2832 Y2.4805  
G01 X-2.3659 Y2.3937  
G01 X-2.3659 Y2.3759  
G01 X-2.3859 Y2.3559  
G01 X-2.4141 Y2.3559  
G01 X-2.4341 Y2.3759  
G01 X-2.4341 Y2.4041  
G01 X-2.4141 Y2.4241  
G01 X-2.3981 Y2.4241  
G01 X-2.3169 Y2.5094  
G01 X-2.3167 Y2.5096  
G01 X-2.3149 Y2.5115  
G01 X-2.3130 Y2.5134  
G01 X-2.3128 Y2.5135  
G01 X-2.2536 Y2.5727  
G01 X-2.2485 Y2.5756  
G01 X-2.2429 Y2.5771  
G01 X-1.5811 Y2.5771  
G01 X-1.5755 Y2.5756  
G01 X-1.5704 Y2.5727  
G01 X-1.5663 Y2.5686  
G01 X-1.4653 Y2.4676  
G01 X-1.4624 Y2.4625  
G01 X-1.4609 Y2.4569  
G01 X-1.4609 Y2.3933  
G01 X-1.4607 Y2.3918  
G01 X-1.4609 Y2.3904  
G01 X-1.4609 Y2.3891  
G01 X-1.4613 Y2.3876  
G01 X-1.4615 Y2.3860  
G01 X-1.4620 Y2.3848  
G01 X-1.4624 Y2.3835  
G01 X-1.4631 Y2.3821  
G01 X-1.4638 Y2.3806  
G01 X-1.4646 Y2.3796  
G01 X-1.4653 Y2.3784  
G01 X-1.4664 Y2.3773  
G01 X-1.4969 Y2.3384  
G01 X-1.4969 Y2.2823  
G01 X-1.4879 Y2.2733  
G01 X-1.4879 Y2.2467  
G01 X-1.5067 Y2.2279  
G01 X-1.5208 Y2.2279  
G01 X-1.5979 Y2.1508  
G01 X-1.5979 Y1.8392  
G01 X-1.5746 Y1.8159  
G01 X-1.5484 Y1.8121  
G01 X-1.1571 Y1.8121  
G01 X-1.1515 Y1.8106  
G01 X-1.1464 Y1.8077  
G01 X-1.1423 Y1.8036  
G01 X-1.0999 Y1.7613  
G01 X-1.0995 Y1.7610  
G01 X-1.0950 Y1.7565  
G01 X-1.0947 Y1.7561  
G01 X-1.0823 Y1.7436  
G01 X-1.0794 Y1.7385  
G01 X-1.0779 Y1.7329  
G01 X-1.0779 Y1.7271  
G01 X-1.0794 Y1.7215  
G01 X-1.0823 Y1.7164  
G01 X-1.0864 Y1.7123  
G01 X-1.0879 Y1.7108  
G01 X-1.0879 Y1.6808  
G01 X-1.0891 Y1.6746  
G01 X-1.0915 Y1.6688  
G01 X-1.0950 Y1.6635  
G00 Z0.0500  
G00 X-1.2679 Y1.6567  
G01 Z-0.0040 F10    
G01 X-1.2867 Y1.6379  F20    
G01 X-1.2958 Y1.6379  
G01 X-1.3249 Y1.5972  
G01 X-1.3265 Y1.5950  
G01 X-1.3266 Y1.5949  
G01 X-1.3267 Y1.5947  
G01 X-1.3288 Y1.5930  
G01 X-1.3930 Y1.5387  
G01 X-1.3944 Y1.5373  
G01 X-1.3952 Y1.5368  
G01 X-1.3959 Y1.5362  
G01 X-1.3977 Y1.5354  
G01 X-1.3995 Y1.5344  
G01 X-1.4004 Y1.5341  
G01 X-1.4012 Y1.5337  
G01 X-1.4032 Y1.5334  
G01 X-1.4051 Y1.5329  
G01 X-1.4060 Y1.5329  
G01 X-1.4064 Y1.5328  
G01 X-1.4096 Y1.5251  
G01 X-1.3979 Y1.5133  
G01 X-1.3979 Y1.4867  
G01 X-1.4167 Y1.4679  
G01 X-1.4239 Y1.4679  
G01 X-1.4370 Y1.4041  
G01 X-1.4443 Y1.2742  
G01 X-1.4395 Y1.2710  
G01 X-1.4350 Y1.2665  
G01 X-1.4315 Y1.2612  
G01 X-1.4291 Y1.2554  
G01 X-1.4279 Y1.2492  
G01 X-1.4279 Y1.1908  
G01 X-1.4291 Y1.1846  
G01 X-1.4315 Y1.1788  
G01 X-1.4350 Y1.1735  
G01 X-1.4395 Y1.1690  
G01 X-1.4448 Y1.1655  
G01 X-1.4506 Y1.1631  
G01 X-1.4568 Y1.1619  
G01 X-1.4632 Y1.1619  
G01 X-1.4694 Y1.1631  
G01 X-1.4752 Y1.1655  
G01 X-1.4805 Y1.1690  
G01 X-1.4850 Y1.1735  
G01 X-1.4885 Y1.1788  
G01 X-1.4909 Y1.1846  
G01 X-1.4921 Y1.1908  
G01 X-1.4921 Y1.2492  
G01 X-1.4909 Y1.2554  
G01 X-1.4896 Y1.2586  
G01 X-1.4812 Y1.4070  
G01 X-1.4813 Y1.4086  
G01 X-1.4810 Y1.4099  
G01 X-1.4810 Y1.4112  
G01 X-1.4804 Y1.4127  
G01 X-1.4629 Y1.4983  
G01 X-1.4628 Y1.5000  
G01 X-1.4624 Y1.5011  
G01 X-1.4623 Y1.5014  
G01 X-1.4624 Y1.5017  
G01 X-1.4625 Y1.5021  
G01 X-1.4626 Y1.5024  
G01 X-1.4629 Y1.5049  
G01 X-1.4633 Y1.5074  
G01 X-1.4633 Y1.5078  
G01 X-1.4633 Y1.5082  
G01 X-1.4630 Y1.5107  
G01 X-1.4627 Y1.5132  
G01 X-1.4626 Y1.5136  
G01 X-1.4625 Y1.5140  
G01 X-1.4615 Y1.5163  
G01 X-1.4606 Y1.5187  
G01 X-1.4604 Y1.5190  
G01 X-1.4445 Y1.5563  
G01 X-1.4724 Y1.6479  
G01 X-1.4833 Y1.6479  
G01 X-1.5021 Y1.6667  
G01 X-1.5021 Y1.6933  
G01 X-1.4833 Y1.7121  
G01 X-1.4567 Y1.7121  
G01 X-1.4379 Y1.6933  
G01 X-1.4379 Y1.6828  
G01 X-1.4370 Y1.6818  
G01 X-1.4364 Y1.6805  
G01 X-1.4357 Y1.6792  
G01 X-1.4352 Y1.6778  
G01 X-1.4346 Y1.6765  
G01 X-1.4344 Y1.6751  
G01 X-1.4069 Y1.5849  
G01 X-1.3594 Y1.6251  
G01 X-1.3321 Y1.6632  
G01 X-1.3321 Y1.6833  
G01 X-1.3133 Y1.7021  
G01 X-1.2867 Y1.7021  
G01 X-1.2679 Y1.6833  
G01 X-1.2679 Y1.6567  
G00 Z0.0500  
G00 X-1.2679 Y1.8567  
G01 Z-0.0040 F10    
G01 X-1.2867 Y1.8379  F20    
G01 X-1.3133 Y1.8379  
G01 X-1.3321 Y1.8567  
G01 X-1.3321 Y1.8833  
G01 X-1.3241 Y1.8914  
G01 X-1.3269 Y1.9238  
G01 X-1.3270 Y1.9243  
G01 X-1.3271 Y1.9267  
G01 X-1.3273 Y1.9290  
G01 X-1.3272 Y1.9296  
G01 X-1.3272 Y1.9301  
G01 X-1.3267 Y1.9324  
G01 X-1.3263 Y1.9347  
G01 X-1.3261 Y1.9353  
G01 X-1.3259 Y1.9358  
G01 X-1.3248 Y1.9379  
G01 X-1.3238 Y1.9400  
G01 X-1.3235 Y1.9405  
G01 X-1.3232 Y1.9410  
G01 X-1.3216 Y1.9427  
G01 X-1.3201 Y1.9445  
G01 X-1.3196 Y1.9448  
G01 X-1.3192 Y1.9452  
G01 X-1.3172 Y1.9465  
G01 X-1.3153 Y1.9478  
G01 X-1.3147 Y1.9480  
G01 X-1.3143 Y1.9483  
G01 X-1.3120 Y1.9490  
G01 X-1.3098 Y1.9498  
G01 X-1.3092 Y1.9499  
G01 X-1.2621 Y1.9643  
G01 X-1.2621 Y1.9998  
G01 X-1.3677 Y2.1054  
G01 X-1.3706 Y2.1105  
G01 X-1.3721 Y2.1161  
G01 X-1.3721 Y2.3967  
G01 X-1.3821 Y2.4067  
G01 X-1.3821 Y2.4333  
G01 X-1.3633 Y2.4521  
G01 X-1.3367 Y2.4521  
G01 X-1.3179 Y2.4333  
G01 X-1.3179 Y2.4067  
G01 X-1.3279 Y2.3967  
G01 X-1.3279 Y2.1282  
G01 X-1.2445 Y2.0448  
G01 X-1.2394 Y2.0469  
G01 X-1.2332 Y2.0481  
G01 X-1.2268 Y2.0481  
G01 X-1.2206 Y2.0469  
G01 X-1.2148 Y2.0445  
G01 X-1.2095 Y2.0410  
G01 X-1.2050 Y2.0365  
G01 X-1.2015 Y2.0312  
G01 X-1.1991 Y2.0254  
G01 X-1.1979 Y2.0192  
G01 X-1.1979 Y1.9608  
G01 X-1.1991 Y1.9546  
G01 X-1.2015 Y1.9488  
G01 X-1.2050 Y1.9435  
G01 X-1.2095 Y1.9390  
G01 X-1.2148 Y1.9355  
G01 X-1.2171 Y1.9345  
G01 X-1.2188 Y1.9328  
G01 X-1.2191 Y1.9326  
G01 X-1.2194 Y1.9323  
G01 X-1.2216 Y1.9310  
G01 X-1.2237 Y1.9297  
G01 X-1.2241 Y1.9296  
G01 X-1.2245 Y1.9294  
G01 X-1.2269 Y1.9287  
G01 X-1.2814 Y1.9121  
G01 X-1.2800 Y1.8954  
G01 X-1.2679 Y1.8833  
G01 X-1.2679 Y1.8567  
G00 Z0.0500  
G00 X-1.7019 Y1.8223  
G01 Z-0.0040 F10    
G01 X-1.7001 Y1.8204  F20    
G01 X-1.6983 Y1.8186  
G01 X-1.6981 Y1.8183  
G01 X-1.6979 Y1.8181  
G01 X-1.6967 Y1.8158  
G01 X-1.6954 Y1.8136  
G01 X-1.6953 Y1.8132  
G01 X-1.6951 Y1.8129  
G01 X-1.6945 Y1.8104  
G01 X-1.6196 Y1.5321  
G01 X-1.6167 Y1.5321  
G01 X-1.5979 Y1.5133  
G01 X-1.5979 Y1.4867  
G01 X-1.6167 Y1.4679  
G01 X-1.6433 Y1.4679  
G01 X-1.6621 Y1.4867  
G01 X-1.6621 Y1.5133  
G01 X-1.6607 Y1.5147  
G01 X-1.7351 Y1.7908  
G01 X-1.8571 Y1.8662  
G01 X-1.8580 Y1.8666  
G01 X-1.8595 Y1.8677  
G01 X-1.8611 Y1.8687  
G01 X-1.8619 Y1.8695  
G01 X-1.8627 Y1.8701  
G01 X-1.8638 Y1.8716  
G01 X-1.8643 Y1.8721  
G01 X-1.8661 Y1.8735  
G01 X-1.8696 Y1.8782  
G01 X-1.8717 Y1.8837  
G01 X-1.8764 Y1.9263  
G01 X-1.8805 Y1.9290  
G01 X-1.8850 Y1.9335  
G01 X-1.8885 Y1.9388  
G01 X-1.8909 Y1.9446  
G01 X-1.8921 Y1.9508  
G01 X-1.8921 Y2.0092  
G01 X-1.8909 Y2.0154  
G01 X-1.8885 Y2.0212  
G01 X-1.8850 Y2.0265  
G01 X-1.8805 Y2.0310  
G01 X-1.8752 Y2.0345  
G01 X-1.8694 Y2.0369  
G01 X-1.8632 Y2.0381  
G01 X-1.8568 Y2.0381  
G01 X-1.8506 Y2.0369  
G01 X-1.8448 Y2.0345  
G01 X-1.8395 Y2.0310  
G01 X-1.8350 Y2.0265  
G01 X-1.8315 Y2.0212  
G01 X-1.8291 Y2.0154  
G01 X-1.8279 Y2.0092  
G01 X-1.8279 Y1.9508  
G01 X-1.8291 Y1.9446  
G01 X-1.8315 Y1.9388  
G01 X-1.8319 Y1.9382  
G01 X-1.8265 Y1.8994  
G01 X-1.7046 Y1.8240  
G01 X-1.7024 Y1.8227  
G01 X-1.7022 Y1.8225  
G01 X-1.7019 Y1.8223  
G00 Z0.0500  
G00 X-1.7350 Y1.9335  
G01 Z-0.0040 F10    
G01 X-1.7395 Y1.9290  F20    
G01 X-1.7448 Y1.9255  
G01 X-1.7506 Y1.9231  
G01 X-1.7568 Y1.9219  
G01 X-1.7632 Y1.9219  
G01 X-1.7694 Y1.9231  
G01 X-1.7752 Y1.9255  
G01 X-1.7805 Y1.9290  
G01 X-1.7850 Y1.9335  
G01 X-1.7885 Y1.9388  
G01 X-1.7909 Y1.9446  
G01 X-1.7921 Y1.9508  
G01 X-1.7921 Y2.0092  
G01 X-1.7909 Y2.0154  
G01 X-1.7885 Y2.0212  
G01 X-1.7881 Y2.0217  
G01 X-1.7881 Y2.1618  
G01 X-1.7942 Y2.1679  
G01 X-1.8133 Y2.1679  
G01 X-1.8321 Y2.1867  
G01 X-1.8321 Y2.2133  
G01 X-1.8133 Y2.2321  
G01 X-1.8031 Y2.2321  
G01 X-1.8099 Y2.3544  
G01 X-1.8221 Y2.3667  
G01 X-1.8221 Y2.3933  
G01 X-1.8033 Y2.4121  
G01 X-1.7767 Y2.4121  
G01 X-1.7579 Y2.3933  
G01 X-1.7579 Y2.3667  
G01 X-1.7658 Y2.3588  
G01 X-1.7569 Y2.1989  
G01 X-1.7567 Y2.1968  
G01 X-1.7568 Y2.1960  
G01 X-1.7567 Y2.1953  
G01 X-1.7571 Y2.1934  
G01 X-1.7483 Y2.1846  
G01 X-1.7454 Y2.1795  
G01 X-1.7439 Y2.1739  
G01 X-1.7439 Y2.0339  
G01 X-1.7395 Y2.0310  
G01 X-1.7350 Y2.0265  
G01 X-1.7315 Y2.0212  
G01 X-1.7291 Y2.0154  
G01 X-1.7279 Y2.0092  
G01 X-1.7279 Y1.9508  
G01 X-1.7291 Y1.9446  
G01 X-1.7315 Y1.9388  
G01 X-1.7350 Y1.9335  
G00 Z0.0500  
G00 X-1.8467 Y1.6921  
G01 Z-0.0040 F10    
G01 X-1.8279 Y1.6733  F20    
G01 X-1.8279 Y1.6467  
G01 X-1.8379 Y1.6367  
G01 X-1.8379 Y1.5092  
G01 X-1.8263 Y1.4976  
G01 X-1.8261 Y1.4975  
G01 X-1.8242 Y1.4955  
G01 X-1.8223 Y1.4936  
G01 X-1.8222 Y1.4934  
G01 X-1.8220 Y1.4933  
G01 X-1.8207 Y1.4909  
G01 X-1.8194 Y1.4885  
G01 X-1.8193 Y1.4884  
G01 X-1.8192 Y1.4882  
G01 X-1.8186 Y1.4856  
G01 X-1.8179 Y1.4829  
G01 X-1.8179 Y1.4827  
G01 X-1.7888 Y1.3664  
G01 X-1.7198 Y1.1695  
G01 X-1.7195 Y1.1689  
G01 X-1.7189 Y1.1667  
G01 X-1.7181 Y1.1646  
G01 X-1.7181 Y1.1639  
G01 X-1.6995 Y1.0987  
G01 X-1.6994 Y1.0985  
G01 X-1.6987 Y1.0959  
G01 X-1.6979 Y1.0933  
G01 X-1.6979 Y1.0931  
G01 X-1.6979 Y1.0929  
G01 X-1.6979 Y1.0902  
G01 X-1.6978 Y1.0874  
G01 X-1.6979 Y1.0873  
G01 X-1.6979 Y0.9722  
G01 X-1.6977 Y0.9714  
G01 X-1.6979 Y0.9693  
G01 X-1.6979 Y0.9671  
G01 X-1.6980 Y0.9664  
G01 X-1.7075 Y0.8250  
G01 X-1.6516 Y0.7225  
G01 X-1.6510 Y0.7218  
G01 X-1.6502 Y0.7199  
G01 X-1.6492 Y0.7180  
G01 X-1.6490 Y0.7173  
G01 X-1.6486 Y0.7165  
G01 X-1.6483 Y0.7144  
G01 X-1.6478 Y0.7124  
G01 X-1.6478 Y0.7116  
G01 X-1.6283 Y0.5947  
G01 X-1.6279 Y0.5929  
G01 X-1.6279 Y0.5918  
G01 X-1.6277 Y0.5908  
G01 X-1.6279 Y0.5889  
G01 X-1.6279 Y0.5871  
G01 X-1.6281 Y0.5860  
G01 X-1.6282 Y0.5850  
G01 X-1.6289 Y0.5832  
G01 X-1.6294 Y0.5815  
G01 X-1.6299 Y0.5805  
G01 X-1.6303 Y0.5795  
G01 X-1.6314 Y0.5780  
G01 X-1.6323 Y0.5764  
G01 X-1.6330 Y0.5756  
G01 X-1.6337 Y0.5748  
G01 X-1.6351 Y0.5736  
G01 X-1.6828 Y0.5259  
G01 X-1.6832 Y0.5253  
G01 X-1.6849 Y0.5238  
G01 X-1.6864 Y0.5223  
G01 X-1.6870 Y0.5219  
G01 X-1.6876 Y0.5214  
G01 X-1.6896 Y0.5204  
G01 X-1.6915 Y0.5194  
G01 X-1.6922 Y0.5192  
G01 X-1.6928 Y0.5188  
G01 X-1.6950 Y0.5184  
G01 X-1.6971 Y0.5179  
G01 X-1.6978 Y0.5179  
G01 X-1.6986 Y0.5177  
G01 X-1.7007 Y0.5179  
G01 X-1.7029 Y0.5179  
G01 X-1.7036 Y0.5180  
G01 X-1.8507 Y0.5278  
G01 X-1.8528 Y0.5278  
G01 X-1.8536 Y0.5280  
G01 X-1.8544 Y0.5281  
G01 X-1.8564 Y0.5288  
G01 X-1.8585 Y0.5293  
G01 X-1.8591 Y0.5297  
G01 X-1.8599 Y0.5300  
G01 X-1.8617 Y0.5312  
G01 X-1.8635 Y0.5322  
G01 X-1.8641 Y0.5328  
G01 X-1.8647 Y0.5332  
G01 X-1.8662 Y0.5348  
G01 X-1.8677 Y0.5363  
G01 X-1.8681 Y0.5370  
G01 X-1.8686 Y0.5376  
G01 X-1.8695 Y0.5395  
G01 X-1.9339 Y0.6499  
G01 X-2.0838 Y0.6748  
G01 X-2.1391 Y0.6196  
G01 X-2.1479 Y0.5584  
G01 X-2.1479 Y0.4271  
G01 X-2.1494 Y0.4215  
G01 X-2.1523 Y0.4164  
G01 X-2.1564 Y0.4123  
G01 X-2.1615 Y0.4094  
G01 X-2.1671 Y0.4079  
G01 X-3.6577 Y0.4079  
G01 X-3.6584 Y0.4077  
G01 X-3.6607 Y0.4079  
G01 X-3.6629 Y0.4079  
G01 X-3.6636 Y0.4080  
G01 X-3.6642 Y0.4081  
G01 X-3.6664 Y0.4088  
G01 X-3.6685 Y0.4094  
G01 X-3.6691 Y0.4097  
G01 X-3.6697 Y0.4099  
G01 X-3.6716 Y0.4111  
G01 X-3.6736 Y0.4123  
G01 X-3.6741 Y0.4127  
G01 X-3.6746 Y0.4131  
G01 X-3.6761 Y0.4148  
G01 X-3.6777 Y0.4164  
G01 X-3.6781 Y0.4170  
G01 X-3.7259 Y0.4709  
G01 X-3.7604 Y0.4709  
G01 X-3.7891 Y0.4996  
G01 X-3.7891 Y0.5404  
G01 X-3.7604 Y0.5691  
G01 X-3.7196 Y0.5691  
G01 X-3.6909 Y0.5404  
G01 X-3.6909 Y0.4996  
G01 X-3.6916 Y0.4989  
G01 X-3.6501 Y0.4521  
G01 X-2.1921 Y0.4521  
G01 X-2.1921 Y0.5587  
G01 X-2.1923 Y0.5602  
G01 X-2.1921 Y0.5616  
G01 X-2.1921 Y0.5629  
G01 X-2.1917 Y0.5644  
G01 X-2.1835 Y0.6222  
G01 X-2.1992 Y0.6379  
G01 X-2.2429 Y0.6379  
G01 X-2.2485 Y0.6394  
G01 X-2.2536 Y0.6423  
G01 X-2.2577 Y0.6464  
G01 X-2.3477 Y0.7364  
G01 X-2.3506 Y0.7415  
G01 X-2.3521 Y0.7471  
G01 X-2.3521 Y0.7567  
G01 X-2.3621 Y0.7667  
G01 X-2.3621 Y0.7933  
G01 X-2.3521 Y0.8033  
G01 X-2.3521 Y0.9567  
G01 X-2.3550 Y0.9595  
G01 X-2.3585 Y0.9648  
G01 X-2.3609 Y0.9706  
G01 X-2.3621 Y0.9768  
G01 X-2.3621 Y0.9832  
G01 X-2.3609 Y0.9894  
G01 X-2.3585 Y0.9952  
G01 X-2.3550 Y1.0005  
G01 X-2.3505 Y1.0050  
G01 X-2.3452 Y1.0085  
G01 X-2.3394 Y1.0109  
G01 X-2.3332 Y1.0121  
G01 X-2.3268 Y1.0121  
G01 X-2.3206 Y1.0109  
G01 X-2.3148 Y1.0085  
G01 X-2.3095 Y1.0050  
G01 X-2.3050 Y1.0005  
G01 X-2.3015 Y0.9952  
G01 X-2.2991 Y0.9894  
G01 X-2.2979 Y0.9832  
G01 X-2.2979 Y0.9768  
G01 X-2.2991 Y0.9706  
G01 X-2.3015 Y0.9648  
G01 X-2.3050 Y0.9595  
G01 X-2.3079 Y0.9567  
G01 X-2.3079 Y0.8033  
G01 X-2.2979 Y0.7933  
G01 X-2.2979 Y0.7667  
G01 X-2.3066 Y0.7579  
G01 X-2.2308 Y0.6821  
G01 X-2.1871 Y0.6821  
G01 X-2.1815 Y0.6806  
G01 X-2.1764 Y0.6777  
G01 X-2.1600 Y0.6613  
G01 X-2.1222 Y0.6992  
G01 X-2.1223 Y0.7008  
G01 X-2.1221 Y0.7018  
G01 X-2.1221 Y0.7029  
G01 X-2.1217 Y0.7047  
G01 X-2.1214 Y0.7065  
G01 X-2.1209 Y0.7075  
G01 X-2.1206 Y0.7085  
G01 X-2.1197 Y0.7101  
G01 X-2.1190 Y0.7118  
G01 X-2.1183 Y0.7127  
G01 X-2.1177 Y0.7136  
G01 X-2.1164 Y0.7149  
G01 X-2.1152 Y0.7163  
G01 X-2.1144 Y0.7170  
G01 X-2.1136 Y0.7177  
G01 X-2.1120 Y0.7186  
G01 X-2.1105 Y0.7197  
G01 X-2.1095 Y0.7201  
G01 X-2.1085 Y0.7206  
G01 X-2.1068 Y0.7211  
G01 X-2.1050 Y0.7218  
G01 X-2.1040 Y0.7219  
G01 X-2.1029 Y0.7221  
G01 X-2.1011 Y0.7221  
G01 X-2.0992 Y0.7223  
G01 X-2.0982 Y0.7221  
G01 X-2.0971 Y0.7221  
G01 X-2.0953 Y0.7217  
G01 X-1.9182 Y0.6922  
G01 X-1.9172 Y0.6922  
G01 X-1.9154 Y0.6917  
G01 X-1.9135 Y0.6914  
G01 X-1.9125 Y0.6909  
G01 X-1.9115 Y0.6907  
G01 X-1.9099 Y0.6897  
G01 X-1.9082 Y0.6890  
G01 X-1.9074 Y0.6883  
G01 X-1.9065 Y0.6878  
G01 X-1.9051 Y0.6865  
G01 X-1.9037 Y0.6852  
G01 X-1.9031 Y0.6844  
G01 X-1.9023 Y0.6837  
G01 X-1.9014 Y0.6820  
G01 X-1.9003 Y0.6805  
G01 X-1.8999 Y0.6795  
G01 X-1.8368 Y0.5713  
G01 X-1.7086 Y0.5628  
G01 X-1.6737 Y0.5976  
G01 X-1.6912 Y0.7027  
G01 X-1.7483 Y0.8073  
G01 X-1.7486 Y0.8076  
G01 X-1.7497 Y0.8098  
G01 X-1.7508 Y0.8120  
G01 X-1.7510 Y0.8124  
G01 X-1.7512 Y0.8128  
G01 X-1.7516 Y0.8152  
G01 X-1.7522 Y0.8176  
G01 X-1.7522 Y0.8181  
G01 X-1.7523 Y0.8186  
G01 X-1.7521 Y0.8210  
G01 X-1.7521 Y0.8235  
G01 X-1.7519 Y0.8239  
G01 X-1.7421 Y0.9707  
G01 X-1.7421 Y1.0869  
G01 X-1.7611 Y1.1533  
G01 X-1.8303 Y1.3509  
G01 X-1.8308 Y1.3518  
G01 X-1.8312 Y1.3536  
G01 X-1.8319 Y1.3554  
G01 X-1.8319 Y1.3565  
G01 X-1.8600 Y1.4687  
G01 X-1.8777 Y1.4864  
G01 X-1.8806 Y1.4915  
G01 X-1.8821 Y1.4971  
G01 X-1.8821 Y1.6367  
G01 X-1.8921 Y1.6467  
G01 X-1.8921 Y1.6733  
G01 X-1.8733 Y1.6921  
G01 X-1.8467 Y1.6921  
G00 Z0.0500  
G00 X-2.1379 Y1.6833  
G01 Z-0.0040 F10    
G01 X-2.1279 Y1.6733  F20    
G01 X-2.1279 Y1.6467  
G01 X-2.1467 Y1.6279  
G01 X-2.1733 Y1.6279  
G01 X-2.1921 Y1.6467  
G01 X-2.1921 Y1.6733  
G01 X-2.1821 Y1.6833  
G01 X-2.1821 Y2.0008  
G01 X-2.2792 Y2.0979  
G01 X-2.3608 Y2.0979  
G01 X-2.5137 Y1.9450  
G01 X-2.4323 Y1.8636  
G01 X-2.4294 Y1.8585  
G01 X-2.4279 Y1.8529  
G01 X-2.4279 Y1.7433  
G01 X-2.4179 Y1.7333  
G01 X-2.4179 Y1.7067  
G01 X-2.4367 Y1.6879  
G01 X-2.4508 Y1.6879  
G01 X-2.5879 Y1.5508  
G01 X-2.5879 Y1.4092  
G01 X-2.5123 Y1.3336  
G01 X-2.5094 Y1.3285  
G01 X-2.5079 Y1.3229  
G01 X-2.5079 Y1.3033  
G01 X-2.5050 Y1.3005  
G01 X-2.5015 Y1.2952  
G01 X-2.4991 Y1.2894  
G01 X-2.4979 Y1.2832  
G01 X-2.4979 Y1.2768  
G01 X-2.4991 Y1.2706  
G01 X-2.5015 Y1.2648  
G01 X-2.5050 Y1.2595  
G01 X-2.5095 Y1.2550  
G01 X-2.5148 Y1.2515  
G01 X-2.5206 Y1.2491  
G01 X-2.5268 Y1.2479  
G01 X-2.5332 Y1.2479  
G01 X-2.5394 Y1.2491  
G01 X-2.5452 Y1.2515  
G01 X-2.5505 Y1.2550  
G01 X-2.5550 Y1.2595  
G01 X-2.5585 Y1.2648  
G01 X-2.5609 Y1.2706  
G01 X-2.5621 Y1.2768  
G01 X-2.5621 Y1.2832  
G01 X-2.5609 Y1.2894  
G01 X-2.5585 Y1.2952  
G01 X-2.5550 Y1.3005  
G01 X-2.5521 Y1.3033  
G01 X-2.5521 Y1.3108  
G01 X-2.6236 Y1.3823  
G01 X-2.6277 Y1.3864  
G01 X-2.6306 Y1.3915  
G01 X-2.6321 Y1.3971  
G01 X-2.6321 Y1.5179  
G01 X-2.6333 Y1.5179  
G01 X-2.6521 Y1.5367  
G01 X-2.6521 Y1.5633  
G01 X-2.6333 Y1.5821  
G01 X-2.6192 Y1.5821  
G01 X-2.4821 Y1.7192  
G01 X-2.4821 Y1.7333  
G01 X-2.4721 Y1.7433  
G01 X-2.4721 Y1.8408  
G01 X-2.5586 Y1.9273  
G01 X-2.5627 Y1.9314  
G01 X-2.5992 Y1.9679  
G01 X-2.6133 Y1.9679  
G01 X-2.6321 Y1.9867  
G01 X-2.6321 Y2.0133  
G01 X-2.6133 Y2.0321  
G01 X-2.5867 Y2.0321  
G01 X-2.5679 Y2.0133  
G01 X-2.5679 Y1.9992  
G01 X-2.5450 Y1.9763  
G01 X-2.3836 Y2.1377  
G01 X-2.3785 Y2.1406  
G01 X-2.3729 Y2.1421  
G01 X-2.2671 Y2.1421  
G01 X-2.2615 Y2.1406  
G01 X-2.2564 Y2.1377  
G01 X-2.2523 Y2.1336  
G01 X-2.1423 Y2.0236  
G01 X-2.1394 Y2.0185  
G01 X-2.1379 Y2.0129  
G01 X-2.1379 Y1.6833  
G00 Z0.0500  
G00 X-2.3079 Y1.6371  
G01 Z-0.0040 F10    
G01 X-2.3094 Y1.6315  F20    
G01 X-2.3123 Y1.6264  
G01 X-2.4179 Y1.5208  
G01 X-2.4179 Y1.5067  
G01 X-2.4279 Y1.4967  
G01 X-2.4279 Y1.3121  
G01 X-2.4268 Y1.3121  
G01 X-2.4206 Y1.3109  
G01 X-2.4148 Y1.3085  
G01 X-2.4095 Y1.3050  
G01 X-2.4050 Y1.3005  
G01 X-2.4015 Y1.2952  
G01 X-2.3991 Y1.2894  
G01 X-2.3979 Y1.2832  
G01 X-2.3979 Y1.2768  
G01 X-2.3991 Y1.2706  
G01 X-2.4015 Y1.2648  
G01 X-2.4050 Y1.2595  
G01 X-2.4095 Y1.2550  
G01 X-2.4148 Y1.2515  
G01 X-2.4206 Y1.2491  
G01 X-2.4268 Y1.2479  
G01 X-2.4332 Y1.2479  
G01 X-2.4394 Y1.2491  
G01 X-2.4452 Y1.2515  
G01 X-2.4505 Y1.2550  
G01 X-2.4550 Y1.2595  
G01 X-2.4585 Y1.2648  
G01 X-2.4609 Y1.2706  
G01 X-2.4621 Y1.2768  
G01 X-2.4621 Y1.2808  
G01 X-2.4677 Y1.2864  
G01 X-2.4706 Y1.2915  
G01 X-2.4721 Y1.2971  
G01 X-2.4721 Y1.4967  
G01 X-2.4821 Y1.5067  
G01 X-2.4821 Y1.5333  
G01 X-2.4633 Y1.5521  
G01 X-2.4492 Y1.5521  
G01 X-2.3521 Y1.6492  
G01 X-2.3521 Y1.9867  
G01 X-2.3621 Y1.9967  
G01 X-2.3621 Y2.0233  
G01 X-2.3433 Y2.0421  
G01 X-2.3167 Y2.0421  
G01 X-2.2979 Y2.0233  
G01 X-2.2979 Y1.9967  
G01 X-2.3079 Y1.9867  
G01 X-2.3079 Y1.6371  
G00 Z0.0500  
G00 X-2.3192 Y1.5221  
G01 Z-0.0040 F10    
G01 X-2.2608 Y1.5221  F20    
G01 X-2.2546 Y1.5209  
G01 X-2.2488 Y1.5185  
G01 X-2.2435 Y1.5150  
G01 X-2.2390 Y1.5105  
G01 X-2.2355 Y1.5052  
G01 X-2.2331 Y1.4994  
G01 X-2.2319 Y1.4932  
G01 X-2.2319 Y1.4868  
G01 X-2.2331 Y1.4806  
G01 X-2.2355 Y1.4748  
G01 X-2.2390 Y1.4695  
G01 X-2.2435 Y1.4650  
G01 X-2.2488 Y1.4615  
G01 X-2.2546 Y1.4591  
G01 X-2.2608 Y1.4579  
G01 X-2.2918 Y1.4579  
G01 X-2.3029 Y1.4468  
G01 X-2.3029 Y1.2972  
G01 X-2.3015 Y1.2952  
G01 X-2.2991 Y1.2894  
G01 X-2.2979 Y1.2832  
G01 X-2.2979 Y1.2768  
G01 X-2.2990 Y1.2710  
G01 X-2.2500 Y1.1805  
G01 X-1.8394 Y1.1901  
G01 X-1.8364 Y1.1901  
G01 X-1.8336 Y1.1902  
G01 X-1.8334 Y1.1902  
G01 X-1.8307 Y1.1895  
G01 X-1.8279 Y1.1888  
G01 X-1.8278 Y1.1888  
G01 X-1.8253 Y1.1874  
G01 X-1.8228 Y1.1860  
G01 X-1.8227 Y1.1859  
G01 X-1.8207 Y1.1840  
G01 X-1.8186 Y1.1820  
G01 X-1.8185 Y1.1819  
G01 X-1.8170 Y1.1794  
G01 X-1.8156 Y1.1770  
G01 X-1.8155 Y1.1769  
G01 X-1.8147 Y1.1742  
G01 X-1.8139 Y1.1714  
G01 X-1.7829 Y1.0628  
G01 X-1.7822 Y1.0608  
G01 X-1.7821 Y1.0600  
G01 X-1.7819 Y1.0593  
G01 X-1.7819 Y1.0571  
G01 X-1.7817 Y1.0550  
G01 X-1.7818 Y1.0542  
G01 X-1.7818 Y1.0534  
G01 X-1.7823 Y1.0514  
G01 X-1.8179 Y0.8521  
G01 X-1.8167 Y0.8521  
G01 X-1.7979 Y0.8333  
G01 X-1.7979 Y0.8282  
G01 X-1.7967 Y0.8258  
G01 X-1.7967 Y0.8254  
G01 X-1.7607 Y0.7421  
G01 X-1.7605 Y0.7419  
G01 X-1.7595 Y0.7395  
G01 X-1.7585 Y0.7371  
G01 X-1.7585 Y0.7368  
G01 X-1.7289 Y0.6621  
G01 X-1.7267 Y0.6621  
G01 X-1.7079 Y0.6433  
G01 X-1.7079 Y0.6167  
G01 X-1.7267 Y0.5979  
G01 X-1.7533 Y0.5979  
G01 X-1.7721 Y0.6167  
G01 X-1.7721 Y0.6433  
G01 X-1.7700 Y0.6455  
G01 X-1.8005 Y0.7225  
G01 X-1.8287 Y0.7879  
G01 X-1.8433 Y0.7879  
G01 X-1.8436 Y0.7881  
G01 X-1.8824 Y0.7493  
G01 X-1.8875 Y0.7464  
G01 X-1.8931 Y0.7449  
G01 X-1.9397 Y0.7449  
G01 X-1.9567 Y0.7279  
G01 X-1.9833 Y0.7279  
G01 X-2.0021 Y0.7467  
G01 X-2.0021 Y0.7733  
G01 X-1.9833 Y0.7921  
G01 X-1.9567 Y0.7921  
G01 X-1.9537 Y0.7891  
G01 X-1.9052 Y0.7891  
G01 X-1.8659 Y0.8284  
G01 X-1.8661 Y0.8302  
G01 X-1.8663 Y0.8330  
G01 X-1.8663 Y0.8332  
G01 X-1.8658 Y0.8360  
G01 X-1.8267 Y1.0548  
G01 X-1.8526 Y1.1455  
G01 X-2.2601 Y1.1359  
G01 X-2.2607 Y1.1358  
G01 X-2.2630 Y1.1358  
G01 X-2.2654 Y1.1358  
G01 X-2.2660 Y1.1359  
G01 X-2.2665 Y1.1359  
G01 X-2.2688 Y1.1366  
G01 X-2.2711 Y1.1372  
G01 X-2.2716 Y1.1374  
G01 X-2.2721 Y1.1376  
G01 X-2.2741 Y1.1388  
G01 X-2.2762 Y1.1400  
G01 X-2.2766 Y1.1404  
G01 X-2.2771 Y1.1407  
G01 X-2.2787 Y1.1424  
G01 X-2.2804 Y1.1440  
G01 X-2.2807 Y1.1445  
G01 X-2.2811 Y1.1449  
G01 X-2.2822 Y1.1470  
G01 X-2.2834 Y1.1490  
G01 X-2.2836 Y1.1495  
G01 X-2.3373 Y1.2487  
G01 X-2.3394 Y1.2491  
G01 X-2.3452 Y1.2515  
G01 X-2.3505 Y1.2550  
G01 X-2.3550 Y1.2595  
G01 X-2.3585 Y1.2648  
G01 X-2.3609 Y1.2706  
G01 X-2.3621 Y1.2768  
G01 X-2.3621 Y1.2832  
G01 X-2.3609 Y1.2894  
G01 X-2.3585 Y1.2952  
G01 X-2.3550 Y1.3005  
G01 X-2.3505 Y1.3050  
G01 X-2.3471 Y1.3072  
G01 X-2.3471 Y1.4589  
G01 X-2.3456 Y1.4645  
G01 X-2.3427 Y1.4696  
G01 X-2.3417 Y1.4706  
G01 X-2.3445 Y1.4748  
G01 X-2.3469 Y1.4806  
G01 X-2.3481 Y1.4868  
G01 X-2.3481 Y1.4932  
G01 X-2.3469 Y1.4994  
G01 X-2.3445 Y1.5052  
G01 X-2.3410 Y1.5105  
G01 X-2.3365 Y1.5150  
G01 X-2.3312 Y1.5185  
G01 X-2.3254 Y1.5209  
G01 X-2.3192 Y1.5221  
G00 Z0.0500  
G00 X-2.2590 Y1.3872  
G01 Z-0.0040 F10    
G01 X-2.2572 Y1.3890  F20    
G01 X-2.2550 Y1.3899  
G01 X-2.2050 Y1.3899  
G01 X-2.2028 Y1.3890  
G01 X-2.2010 Y1.3872  
G01 X-2.2001 Y1.3850  
G01 X-2.2001 Y1.3350  
G01 X-2.2010 Y1.3328  
G01 X-2.2028 Y1.3310  
G01 X-2.2050 Y1.3301  
G01 X-2.2079 Y1.3301  
G01 X-2.2079 Y1.3033  
G01 X-2.2067 Y1.3021  
G01 X-2.1199 Y1.3021  
G01 X-2.1199 Y1.3050  
G01 X-2.1190 Y1.3072  
G01 X-2.1172 Y1.3090  
G01 X-2.1150 Y1.3099  
G01 X-2.0650 Y1.3099  
G01 X-2.0628 Y1.3090  
G01 X-2.0610 Y1.3072  
G01 X-2.0601 Y1.3050  
G01 X-2.0601 Y1.2550  
G01 X-2.0610 Y1.2528  
G01 X-2.0628 Y1.2510  
G01 X-2.0650 Y1.2501  
G01 X-2.1150 Y1.2501  
G01 X-2.1172 Y1.2510  
G01 X-2.1190 Y1.2528  
G01 X-2.1199 Y1.2550  
G01 X-2.1199 Y1.2579  
G01 X-2.2067 Y1.2579  
G01 X-2.2095 Y1.2550  
G01 X-2.2148 Y1.2515  
G01 X-2.2206 Y1.2491  
G01 X-2.2268 Y1.2479  
G01 X-2.2332 Y1.2479  
G01 X-2.2394 Y1.2491  
G01 X-2.2452 Y1.2515  
G01 X-2.2505 Y1.2550  
G01 X-2.2550 Y1.2595  
G01 X-2.2585 Y1.2648  
G01 X-2.2609 Y1.2706  
G01 X-2.2621 Y1.2768  
G01 X-2.2621 Y1.2832  
G01 X-2.2609 Y1.2894  
G01 X-2.2585 Y1.2952  
G01 X-2.2550 Y1.3005  
G01 X-2.2521 Y1.3033  
G01 X-2.2521 Y1.3301  
G01 X-2.2550 Y1.3301  
G01 X-2.2572 Y1.3310  
G01 X-2.2590 Y1.3328  
G01 X-2.2599 Y1.3350  
G01 X-2.2599 Y1.3850  
G01 X-2.2590 Y1.3872  
G00 Z0.0500  
G00 X-2.2550 Y1.0005  
G01 Z-0.0040 F10    
G01 X-2.2505 Y1.0050  F20    
G01 X-2.2452 Y1.0085  
G01 X-2.2394 Y1.0109  
G01 X-2.2332 Y1.0121  
G01 X-2.2282 Y1.0121  
G01 X-2.1696 Y1.0707  
G01 X-2.1645 Y1.0736  
G01 X-2.1589 Y1.0751  
G01 X-1.9503 Y1.0751  
G01 X-1.9333 Y1.0921  
G01 X-1.9067 Y1.0921  
G01 X-1.8879 Y1.0733  
G01 X-1.8879 Y1.0467  
G01 X-1.9067 Y1.0279  
G01 X-1.9333 Y1.0279  
G01 X-1.9363 Y1.0309  
G01 X-2.1468 Y1.0309  
G01 X-2.1979 Y0.9798  
G01 X-2.1979 Y0.9768  
G01 X-2.1991 Y0.9706  
G01 X-2.2015 Y0.9648  
G01 X-2.2050 Y0.9595  
G01 X-2.2095 Y0.9550  
G01 X-2.2148 Y0.9515  
G01 X-2.2206 Y0.9491  
G01 X-2.2268 Y0.9479  
G01 X-2.2332 Y0.9479  
G01 X-2.2394 Y0.9491  
G01 X-2.2452 Y0.9515  
G01 X-2.2505 Y0.9550  
G01 X-2.2550 Y0.9595  
G01 X-2.2585 Y0.9648  
G01 X-2.2609 Y0.9706  
G01 X-2.2621 Y0.9768  
G01 X-2.2621 Y0.9832  
G01 X-2.2609 Y0.9894  
G01 X-2.2585 Y0.9952  
G01 X-2.2550 Y1.0005  
G00 Z0.0500  
G00 X-2.4050 Y1.0005  
G01 Z-0.0040 F10    
G01 X-2.4015 Y0.9952  F20    
G01 X-2.3991 Y0.9894  
G01 X-2.3979 Y0.9832  
G01 X-2.3979 Y0.9768  
G01 X-2.3991 Y0.9706  
G01 X-2.4015 Y0.9648  
G01 X-2.4050 Y0.9595  
G01 X-2.4095 Y0.9550  
G01 X-2.4148 Y0.9515  
G01 X-2.4199 Y0.9494  
G01 X-2.4199 Y0.7111  
G01 X-2.4032 Y0.7111  
G01 X-2.4005 Y0.7112  
G01 X-2.4003 Y0.7111  
G01 X-2.4001 Y0.7111  
G01 X-2.3974 Y0.7104  
G01 X-2.3948 Y0.7098  
G01 X-2.3946 Y0.7097  
G01 X-2.3945 Y0.7096  
G01 X-2.3921 Y0.7083  
G01 X-2.3897 Y0.7070  
G01 X-2.3896 Y0.7068  
G01 X-2.3894 Y0.7067  
G01 X-2.3875 Y0.7048  
G01 X-2.3855 Y0.7029  
G01 X-2.3854 Y0.7027  
G01 X-2.3853 Y0.7026  
G01 X-2.3839 Y0.7002  
G01 X-2.3311 Y0.6121  
G01 X-2.3167 Y0.6121  
G01 X-2.2979 Y0.5933  
G01 X-2.2979 Y0.5667  
G01 X-2.3167 Y0.5479  
G01 X-2.3310 Y0.5479  
G01 X-2.3317 Y0.5476  
G01 X-2.3336 Y0.5473  
G01 X-2.3355 Y0.5468  
G01 X-2.3364 Y0.5468  
G01 X-2.3374 Y0.5467  
G01 X-2.3394 Y0.5469  
G01 X-2.3413 Y0.5469  
G01 X-2.3422 Y0.5472  
G01 X-2.3432 Y0.5473  
G01 X-2.3450 Y0.5480  
G01 X-2.3469 Y0.5485  
G01 X-2.3477 Y0.5490  
G01 X-2.3487 Y0.5494  
G01 X-2.3502 Y0.5505  
G01 X-2.3519 Y0.5515  
G01 X-2.3526 Y0.5522  
G01 X-2.3534 Y0.5528  
G01 X-2.3546 Y0.5543  
G01 X-2.3560 Y0.5557  
G01 X-2.3564 Y0.5566  
G01 X-2.3571 Y0.5573  
G01 X-2.3578 Y0.5591  
G01 X-2.3588 Y0.5608  
G01 X-2.3590 Y0.5618  
G01 X-2.3594 Y0.5627  
G01 X-2.3597 Y0.5642  
G01 X-2.3621 Y0.5667  
G01 X-2.3621 Y0.5743  
G01 X-2.3637 Y0.5804  
G01 X-2.4155 Y0.6669  
G01 X-2.4458 Y0.6669  
G01 X-2.5036 Y0.6091  
G01 X-2.5047 Y0.6077  
G01 X-2.5056 Y0.6071  
G01 X-2.5064 Y0.6063  
G01 X-2.5080 Y0.6054  
G01 X-2.5094 Y0.6043  
G01 X-2.5105 Y0.6039  
G01 X-2.5115 Y0.6034  
G01 X-2.5132 Y0.6029  
G01 X-2.5149 Y0.6023  
G01 X-2.5160 Y0.6021  
G01 X-2.5171 Y0.6019  
G01 X-2.5189 Y0.6019  
G01 X-2.5256 Y0.6012  
G01 X-2.5444 Y0.5824  
G01 X-2.5756 Y0.5824  
G01 X-2.5976 Y0.6044  
G01 X-2.5976 Y0.6190  
G01 X-2.6985 Y0.6460  
G01 X-2.7067 Y0.6379  
G01 X-2.7333 Y0.6379  
G01 X-2.7521 Y0.6567  
G01 X-2.7521 Y0.6833  
G01 X-2.7333 Y0.7021  
G01 X-2.7067 Y0.7021  
G01 X-2.6956 Y0.6911  
G01 X-2.5706 Y0.6576  
G01 X-2.5444 Y0.6576  
G01 X-2.5439 Y0.6571  
G01 X-2.5271 Y0.6683  
G01 X-2.5266 Y0.6687  
G01 X-2.5246 Y0.6699  
G01 X-2.5228 Y0.6711  
G01 X-2.5221 Y0.6713  
G01 X-2.5215 Y0.6716  
G01 X-2.5194 Y0.6722  
G01 X-2.5172 Y0.6729  
G01 X-2.5166 Y0.6730  
G01 X-2.5159 Y0.6731  
G01 X-2.5137 Y0.6731  
G01 X-2.5114 Y0.6733  
G01 X-2.5108 Y0.6731  
G01 X-2.5101 Y0.6731  
G01 X-2.5079 Y0.6726  
G01 X-2.5057 Y0.6721  
G01 X-2.5051 Y0.6718  
G01 X-2.5045 Y0.6716  
G01 X-2.5040 Y0.6714  
G01 X-2.4686 Y0.7067  
G01 X-2.4641 Y0.7093  
G01 X-2.4641 Y0.9735  
G01 X-2.4643 Y0.9750  
G01 X-2.4641 Y0.9764  
G01 X-2.4641 Y0.9779  
G01 X-2.4638 Y0.9793  
G01 X-2.4636 Y0.9807  
G01 X-2.4630 Y0.9821  
G01 X-2.4626 Y0.9835  
G01 X-2.4619 Y0.9848  
G01 X-2.4617 Y0.9852  
G01 X-2.4609 Y0.9894  
G01 X-2.4585 Y0.9952  
G01 X-2.4550 Y1.0005  
G01 X-2.4505 Y1.0050  
G01 X-2.4452 Y1.0085  
G01 X-2.4394 Y1.0109  
G01 X-2.4332 Y1.0121  
G01 X-2.4268 Y1.0121  
G01 X-2.4206 Y1.0109  
G01 X-2.4148 Y1.0085  
G01 X-2.4095 Y1.0050  
G01 X-2.4050 Y1.0005  
G00 Z0.0500  
G00 X-2.6848 Y1.0069  
G01 Z-0.0040 F10    
G01 X-2.6923 Y0.9878  F20    
G01 X-2.6879 Y0.9833  
G01 X-2.6879 Y0.9567  
G01 X-2.7067 Y0.9379  
G01 X-2.7333 Y0.9379  
G01 X-2.7521 Y0.9567  
G01 X-2.7521 Y0.9833  
G01 X-2.7348 Y1.0007  
G01 X-2.7263 Y1.0224  
G01 X-2.7081 Y1.1073  
G01 X-2.7081 Y2.1299  
G01 X-2.7083 Y2.1307  
G01 X-2.7081 Y2.1328  
G01 X-2.7081 Y2.1349  
G01 X-2.7079 Y2.1357  
G01 X-2.7079 Y2.1365  
G01 X-2.7072 Y2.1385  
G01 X-2.7066 Y2.1405  
G01 X-2.7062 Y2.1412  
G01 X-2.7060 Y2.1420  
G01 X-2.7048 Y2.1438  
G01 X-2.7037 Y2.1456  
G01 X-2.7032 Y2.1462  
G01 X-2.7027 Y2.1468  
G01 X-2.7011 Y2.1482  
G01 X-2.6996 Y2.1497  
G01 X-2.6989 Y2.1501  
G01 X-2.6321 Y2.2080  
G01 X-2.6321 Y2.2133  
G01 X-2.6133 Y2.2321  
G01 X-2.5987 Y2.2321  
G01 X-2.5965 Y2.2323  
G01 X-2.5958 Y2.2321  
G01 X-2.3842 Y2.2321  
G01 X-2.3838 Y2.2333  
G01 X-2.3837 Y2.2334  
G01 X-2.3836 Y2.2336  
G01 X-2.3821 Y2.2358  
G01 X-2.2684 Y2.3989  
G01 X-2.2681 Y2.3996  
G01 X-2.2667 Y2.4013  
G01 X-2.2655 Y2.4031  
G01 X-2.2649 Y2.4035  
G01 X-2.2644 Y2.4041  
G01 X-2.2627 Y2.4054  
G01 X-2.2610 Y2.4068  
G01 X-2.2604 Y2.4071  
G01 X-2.2597 Y2.4076  
G01 X-2.2577 Y2.4084  
G01 X-2.2558 Y2.4093  
G01 X-2.2550 Y2.4094  
G01 X-2.2543 Y2.4097  
G01 X-2.2522 Y2.4099  
G01 X-2.2500 Y2.4103  
G01 X-2.2493 Y2.4103  
G01 X-1.9817 Y2.4394  
G01 X-1.9812 Y2.4403  
G01 X-1.9808 Y2.4413  
G01 X-1.9797 Y2.4429  
G01 X-1.9788 Y2.4445  
G01 X-1.9781 Y2.4452  
G01 X-1.9775 Y2.4461  
G01 X-1.9760 Y2.4473  
G01 X-1.9747 Y2.4486  
G01 X-1.9738 Y2.4492  
G01 X-1.9140 Y2.4993  
G01 X-1.9126 Y2.5007  
G01 X-1.9118 Y2.5012  
G01 X-1.9110 Y2.5018  
G01 X-1.9092 Y2.5027  
G01 X-1.9075 Y2.5036  
G01 X-1.9066 Y2.5039  
G01 X-1.9057 Y2.5043  
G01 X-1.9038 Y2.5046  
G01 X-1.9019 Y2.5051  
G01 X-1.9009 Y2.5051  
G01 X-1.9000 Y2.5053  
G01 X-1.8980 Y2.5051  
G01 X-1.7317 Y2.5051  
G01 X-1.7306 Y2.5053  
G01 X-1.7288 Y2.5051  
G01 X-1.7271 Y2.5051  
G01 X-1.7259 Y2.5048  
G01 X-1.7248 Y2.5047  
G01 X-1.7231 Y2.5041  
G01 X-1.7215 Y2.5036  
G01 X-1.7204 Y2.5030  
G01 X-1.7193 Y2.5026  
G01 X-1.7179 Y2.5016  
G01 X-1.7164 Y2.5007  
G01 X-1.7156 Y2.4999  
G01 X-1.7146 Y2.4992  
G01 X-1.7135 Y2.4978  
G01 X-1.7123 Y2.4966  
G01 X-1.7117 Y2.4956  
G01 X-1.6774 Y2.4531  
G01 X-1.5592 Y2.4531  
G01 X-1.5574 Y2.4533  
G01 X-1.5563 Y2.4531  
G01 X-1.5551 Y2.4531  
G01 X-1.5534 Y2.4527  
G01 X-1.5517 Y2.4524  
G01 X-1.5510 Y2.4521  
G01 X-1.5367 Y2.4521  
G01 X-1.5179 Y2.4333  
G01 X-1.5179 Y2.4067  
G01 X-1.5367 Y2.3879  
G01 X-1.5633 Y2.3879  
G01 X-1.5821 Y2.4067  
G01 X-1.5821 Y2.4089  
G01 X-1.6863 Y2.4089  
G01 X-1.6874 Y2.4087  
G01 X-1.6892 Y2.4089  
G01 X-1.6909 Y2.4089  
G01 X-1.6921 Y2.4092  
G01 X-1.6932 Y2.4093  
G01 X-1.6949 Y2.4099  
G01 X-1.6965 Y2.4104  
G01 X-1.6976 Y2.4110  
G01 X-1.6987 Y2.4114  
G01 X-1.7001 Y2.4124  
G01 X-1.7016 Y2.4133  
G01 X-1.7024 Y2.4141  
G01 X-1.7034 Y2.4148  
G01 X-1.7045 Y2.4162  
G01 X-1.7057 Y2.4174  
G01 X-1.7063 Y2.4184  
G01 X-1.7406 Y2.4609  
G01 X-1.8909 Y2.4609  
G01 X-1.9437 Y2.4166  
G01 X-1.9579 Y2.3917  
G01 X-1.9579 Y2.3667  
G01 X-1.9767 Y2.3479  
G01 X-2.0033 Y2.3479  
G01 X-2.0221 Y2.3667  
G01 X-2.0221 Y2.3905  
G01 X-2.2366 Y2.3671  
G01 X-2.3237 Y2.2421  
G01 X-2.3167 Y2.2421  
G01 X-2.2979 Y2.2233  
G01 X-2.2979 Y2.1967  
G01 X-2.3167 Y2.1779  
G01 X-2.3433 Y2.1779  
G01 X-2.3533 Y2.1879  
G01 X-2.5679 Y2.1879  
G01 X-2.5679 Y2.1867  
G01 X-2.5867 Y2.1679  
G01 X-2.6108 Y2.1679  
G01 X-2.6639 Y2.1219  
G01 X-2.6639 Y1.1056  
G01 X-2.6637 Y1.1032  
G01 X-2.6639 Y1.1027  
G01 X-2.6639 Y1.1021  
G01 X-2.6645 Y1.0998  
G01 X-2.6831 Y1.0124  
G01 X-2.6833 Y1.0106  
G01 X-2.6837 Y1.0096  
G01 X-2.6839 Y1.0085  
G01 X-2.6848 Y1.0069  
G00 Z0.0500  
G00 X-3.0179 Y1.0867  
G01 Z-0.0040 F10    
G01 X-3.0367 Y1.0679  F20    
G01 X-3.0508 Y1.0679  
G01 X-3.1364 Y0.9823  
G01 X-3.1415 Y0.9794  
G01 X-3.1471 Y0.9779  
G01 X-3.1908 Y0.9779  
G01 X-3.2664 Y0.9023  
G01 X-3.2677 Y0.9015  
G01 X-3.2690 Y0.8995  
G01 X-3.2735 Y0.8950  
G01 X-3.2788 Y0.8915  
G01 X-3.2846 Y0.8891  
G01 X-3.2908 Y0.8879  
G01 X-3.3492 Y0.8879  
G01 X-3.3554 Y0.8891  
G01 X-3.3612 Y0.8915  
G01 X-3.3665 Y0.8950  
G01 X-3.3710 Y0.8995  
G01 X-3.3745 Y0.9048  
G01 X-3.3769 Y0.9106  
G01 X-3.3781 Y0.9168  
G01 X-3.3781 Y0.9232  
G01 X-3.3769 Y0.9294  
G01 X-3.3745 Y0.9352  
G01 X-3.3710 Y0.9405  
G01 X-3.3665 Y0.9450  
G01 X-3.3612 Y0.9485  
G01 X-3.3554 Y0.9509  
G01 X-3.3492 Y0.9521  
G01 X-3.2908 Y0.9521  
G01 X-3.2846 Y0.9509  
G01 X-3.2816 Y0.9497  
G01 X-3.2136 Y1.0177  
G01 X-3.2085 Y1.0206  
G01 X-3.2029 Y1.0221  
G01 X-3.1592 Y1.0221  
G01 X-3.1007 Y1.0806  
G01 X-3.1036 Y1.0823  
G01 X-3.1936 Y1.1723  
G01 X-3.1977 Y1.1764  
G01 X-3.2006 Y1.1815  
G01 X-3.2021 Y1.1871  
G01 X-3.2021 Y1.2508  
G01 X-3.2092 Y1.2579  
G01 X-3.2233 Y1.2579  
G01 X-3.2421 Y1.2767  
G01 X-3.2421 Y1.3033  
G01 X-3.2233 Y1.3221  
G01 X-3.1967 Y1.3221  
G01 X-3.1779 Y1.3033  
G01 X-3.1779 Y1.2892  
G01 X-3.1623 Y1.2736  
G01 X-3.1594 Y1.2685  
G01 X-3.1579 Y1.2629  
G01 X-3.1579 Y1.1992  
G01 X-3.0808 Y1.1221  
G01 X-3.0733 Y1.1221  
G01 X-3.0633 Y1.1321  
G01 X-3.0367 Y1.1321  
G01 X-3.0179 Y1.1133  
G01 X-3.0179 Y1.0867  
G00 Z0.0500  
G00 X-3.0179 Y1.2567  
G01 Z-0.0040 F10    
G01 X-3.0367 Y1.2379  F20    
G01 X-3.0633 Y1.2379  
G01 X-3.0773 Y1.2519  
G01 X-3.1028 Y1.2519  
G01 X-3.1035 Y1.2517  
G01 X-3.1057 Y1.2519  
G01 X-3.1079 Y1.2519  
G01 X-3.1086 Y1.2520  
G01 X-3.1093 Y1.2521  
G01 X-3.1114 Y1.2528  
G01 X-3.1135 Y1.2534  
G01 X-3.1142 Y1.2537  
G01 X-3.1148 Y1.2539  
G01 X-3.1167 Y1.2552  
G01 X-3.1186 Y1.2563  
G01 X-3.1191 Y1.2568  
G01 X-3.1197 Y1.2572  
G01 X-3.1211 Y1.2588  
G01 X-3.1227 Y1.2604  
G01 X-3.1231 Y1.2610  
G01 X-3.1235 Y1.2615  
G01 X-3.1245 Y1.2635  
G01 X-3.1256 Y1.2655  
G01 X-3.1258 Y1.2661  
G01 X-3.1261 Y1.2667  
G01 X-3.1266 Y1.2689  
G01 X-3.1271 Y1.2711  
G01 X-3.1271 Y1.2718  
G01 X-3.1595 Y1.4317  
G01 X-3.1601 Y1.4336  
G01 X-3.1601 Y1.4345  
G01 X-3.1603 Y1.4355  
G01 X-3.1602 Y1.4374  
G01 X-3.1607 Y1.4578  
G01 X-3.1626 Y1.4583  
G01 X-3.1644 Y1.4586  
G01 X-3.1654 Y1.4590  
G01 X-3.1664 Y1.4593  
G01 X-3.1680 Y1.4602  
G01 X-3.1697 Y1.4610  
G01 X-3.1706 Y1.4617  
G01 X-3.1715 Y1.4622  
G01 X-3.1728 Y1.4635  
G01 X-3.1743 Y1.4647  
G01 X-3.1749 Y1.4655  
G01 X-3.1756 Y1.4663  
G01 X-3.1766 Y1.4679  
G01 X-3.1777 Y1.4694  
G01 X-3.1780 Y1.4704  
G01 X-3.1786 Y1.4713  
G01 X-3.1791 Y1.4731  
G01 X-3.1797 Y1.4749  
G01 X-3.1798 Y1.4759  
G01 X-3.1801 Y1.4769  
G01 X-3.1801 Y1.4788  
G01 X-3.1803 Y1.4807  
G01 X-3.1802 Y1.4817  
G01 X-3.1802 Y1.4827  
G01 X-3.1797 Y1.4846  
G01 X-3.1794 Y1.4864  
G01 X-3.1790 Y1.4874  
G01 X-3.1752 Y1.5019  
G01 X-3.1776 Y1.5044  
G01 X-3.1776 Y1.5356  
G01 X-3.1656 Y1.5476  
G01 X-3.1562 Y1.7769  
G01 X-3.1563 Y1.7779  
G01 X-3.1561 Y1.7798  
G01 X-3.1560 Y1.7818  
G01 X-3.1557 Y1.7827  
G01 X-3.1487 Y1.8380  
G01 X-3.1491 Y1.8566  
G01 X-3.1493 Y1.8575  
G01 X-3.1492 Y1.8595  
G01 X-3.1492 Y1.8615  
G01 X-3.1490 Y1.8624  
G01 X-3.1489 Y1.8633  
G01 X-3.1483 Y1.8652  
G01 X-3.1478 Y1.8671  
G01 X-3.1474 Y1.8680  
G01 X-3.1470 Y1.8689  
G01 X-3.1460 Y1.8705  
G01 X-3.1521 Y1.8767  
G01 X-3.1521 Y1.9033  
G01 X-3.1333 Y1.9221  
G01 X-3.1067 Y1.9221  
G01 X-3.0879 Y1.9033  
G01 X-3.0879 Y1.8767  
G01 X-3.0975 Y1.8671  
G01 X-3.0969 Y1.8323  
G01 X-3.0967 Y1.8313  
G01 X-3.0968 Y1.8294  
G01 X-3.0968 Y1.8275  
G01 X-3.0971 Y1.8265  
G01 X-3.0971 Y1.8254  
G01 X-3.0978 Y1.8236  
G01 X-3.0982 Y1.8218  
G01 X-3.0987 Y1.8209  
G01 X-3.1047 Y1.8037  
G01 X-3.1052 Y1.8019  
G01 X-3.1057 Y1.8009  
G01 X-3.1061 Y1.7999  
G01 X-3.1071 Y1.7984  
G01 X-3.1080 Y1.7968  
G01 X-3.1087 Y1.7960  
G01 X-3.1093 Y1.7951  
G01 X-3.1095 Y1.7950  
G01 X-3.1119 Y1.7762  
G01 X-3.1210 Y1.5542  
G01 X-3.1024 Y1.5356  
G01 X-3.1024 Y1.5044  
G01 X-3.1171 Y1.4896  
G01 X-3.1159 Y1.4395  
G01 X-3.0869 Y1.2961  
G01 X-3.0693 Y1.2961  
G01 X-3.0633 Y1.3021  
G01 X-3.0367 Y1.3021  
G01 X-3.0179 Y1.2833  
G01 X-3.0179 Y1.2567  
G00 Z0.0500  
G00 X-3.0172 Y1.5510  
G01 Z-0.0040 F10    
G01 X-3.0190 Y1.5528  F20    
G01 X-3.0199 Y1.5550  
G01 X-3.0199 Y1.6014  
G01 X-3.0532 Y1.7079  
G01 X-3.0533 Y1.7079  
G01 X-3.0721 Y1.7267  
G01 X-3.0721 Y1.7533  
G01 X-3.0533 Y1.7721  
G01 X-3.0267 Y1.7721  
G01 X-3.0079 Y1.7533  
G01 X-3.0079 Y1.7267  
G01 X-3.0115 Y1.7230  
G01 X-2.9761 Y1.6099  
G01 X-2.9650 Y1.6099  
G01 X-2.9628 Y1.6090  
G01 X-2.9610 Y1.6072  
G01 X-2.9601 Y1.6050  
G01 X-2.9601 Y1.5550  
G01 X-2.9610 Y1.5528  
G01 X-2.9628 Y1.5510  
G01 X-2.9650 Y1.5501  
G01 X-3.0150 Y1.5501  
G01 X-3.0172 Y1.5510  
G00 Z0.0500  
G00 X-2.8526 Y1.5515  
G01 Z-0.0040 F10    
G01 X-2.8531 Y1.5533  F20    
G01 X-2.8538 Y1.5551  
G01 X-2.8539 Y1.5561  
G01 X-2.8541 Y1.5571  
G01 X-2.8541 Y1.5590  
G01 X-2.8543 Y1.5609  
G01 X-2.8541 Y1.5619  
G01 X-2.8541 Y2.0479  
G01 X-2.8633 Y2.0479  
G01 X-2.8821 Y2.0667  
G01 X-2.8821 Y2.0933  
G01 X-2.8802 Y2.0952  
G01 X-2.8798 Y2.0970  
G01 X-2.8713 Y2.1608  
G01 X-3.1979 Y2.5259  
G01 X-3.6946 Y2.5259  
G01 X-3.7196 Y2.5009  
G01 X-3.7604 Y2.5009  
G01 X-3.7891 Y2.5296  
G01 X-3.7891 Y2.5704  
G01 X-3.7604 Y2.5991  
G01 X-3.7196 Y2.5991  
G01 X-3.6909 Y2.5704  
G01 X-3.6909 Y2.5701  
G01 X-3.1903 Y2.5701  
G01 X-3.1897 Y2.5703  
G01 X-3.1874 Y2.5701  
G01 X-3.1851 Y2.5701  
G01 X-3.1845 Y2.5700  
G01 X-3.1839 Y2.5700  
G01 X-3.1817 Y2.5692  
G01 X-3.1795 Y2.5686  
G01 X-3.1789 Y2.5683  
G01 X-3.1783 Y2.5681  
G01 X-3.1764 Y2.5669  
G01 X-3.1744 Y2.5657  
G01 X-3.1740 Y2.5653  
G01 X-3.1734 Y2.5649  
G01 X-3.1719 Y2.5632  
G01 X-3.1703 Y2.5616  
G01 X-3.1700 Y2.5611  
G01 X-2.8329 Y2.1843  
G01 X-2.8322 Y2.1838  
G01 X-2.8309 Y2.1821  
G01 X-2.8295 Y2.1806  
G01 X-2.8292 Y2.1798  
G01 X-2.8286 Y2.1791  
G01 X-2.8278 Y2.1772  
G01 X-2.8269 Y2.1754  
G01 X-2.8267 Y2.1745  
G01 X-2.8264 Y2.1737  
G01 X-2.8261 Y2.1717  
G01 X-2.8257 Y2.1697  
G01 X-2.8258 Y2.1688  
G01 X-2.8257 Y2.1680  
G01 X-2.8259 Y2.1659  
G01 X-2.8260 Y2.1639  
G01 X-2.8263 Y2.1630  
G01 X-2.8335 Y2.1090  
G01 X-2.8179 Y2.0933  
G01 X-2.8179 Y2.0842  
G01 X-2.8143 Y2.0806  
G01 X-2.8114 Y2.0755  
G01 X-2.8099 Y2.0699  
G01 X-2.8099 Y1.5821  
G01 X-2.8067 Y1.5821  
G01 X-2.7879 Y1.5633  
G01 X-2.7879 Y1.5367  
G01 X-2.8067 Y1.5179  
G01 X-2.8333 Y1.5179  
G01 X-2.8521 Y1.5367  
G01 X-2.8521 Y1.5506  
G01 X-2.8526 Y1.5515  
G00 Z0.0500  
G00 X-3.2160 Y1.5492  
G01 Z-0.0040 F10    
G01 X-3.2108 Y1.5440  F20    
G01 X-3.2066 Y1.5378  
G01 X-3.2038 Y1.5310  
G01 X-3.2024 Y1.5237  
G01 X-3.2024 Y1.5163  
G01 X-3.2038 Y1.5090  
G01 X-3.2066 Y1.5022  
G01 X-3.2108 Y1.4960  
G01 X-3.2160 Y1.4908  
G01 X-3.2179 Y1.4895  
G01 X-3.2179 Y1.4871  
G01 X-3.2194 Y1.4815  
G01 X-3.2223 Y1.4764  
G01 X-3.2264 Y1.4723  
G01 X-3.2315 Y1.4694  
G01 X-3.2371 Y1.4679  
G01 X-3.2429 Y1.4679  
G01 X-3.2474 Y1.4690  
G01 X-3.2779 Y1.4233  
G01 X-3.2779 Y1.3371  
G01 X-3.2794 Y1.3315  
G01 X-3.2823 Y1.3264  
G01 X-3.2879 Y1.3208  
G01 X-3.2879 Y1.1833  
G01 X-3.2779 Y1.1733  
G01 X-3.2779 Y1.1467  
G01 X-3.2896 Y1.1350  
G01 X-3.2955 Y1.0521  
G01 X-3.2908 Y1.0521  
G01 X-3.2846 Y1.0509  
G01 X-3.2788 Y1.0485  
G01 X-3.2735 Y1.0450  
G01 X-3.2690 Y1.0405  
G01 X-3.2655 Y1.0352  
G01 X-3.2631 Y1.0294  
G01 X-3.2619 Y1.0232  
G01 X-3.2619 Y1.0168  
G01 X-3.2631 Y1.0106  
G01 X-3.2655 Y1.0048  
G01 X-3.2690 Y0.9995  
G01 X-3.2735 Y0.9950  
G01 X-3.2788 Y0.9915  
G01 X-3.2846 Y0.9891  
G01 X-3.2908 Y0.9879  
G01 X-3.3492 Y0.9879  
G01 X-3.3554 Y0.9891  
G01 X-3.3612 Y0.9915  
G01 X-3.3665 Y0.9950  
G01 X-3.3710 Y0.9995  
G01 X-3.3745 Y1.0048  
G01 X-3.3769 Y1.0106  
G01 X-3.3781 Y1.0168  
G01 X-3.3781 Y1.0232  
G01 X-3.3769 Y1.0294  
G01 X-3.3745 Y1.0352  
G01 X-3.3710 Y1.0405  
G01 X-3.3665 Y1.0450  
G01 X-3.3612 Y1.0485  
G01 X-3.3554 Y1.0509  
G01 X-3.3492 Y1.0521  
G01 X-3.3399 Y1.0521  
G01 X-3.3338 Y1.1383  
G01 X-3.3421 Y1.1467  
G01 X-3.3421 Y1.1733  
G01 X-3.3321 Y1.1833  
G01 X-3.3321 Y1.3329  
G01 X-3.3306 Y1.3385  
G01 X-3.3277 Y1.3436  
G01 X-3.3236 Y1.3477  
G01 X-3.3221 Y1.3492  
G01 X-3.3221 Y1.4278  
G01 X-3.3223 Y1.4285  
G01 X-3.3221 Y1.4307  
G01 X-3.3221 Y1.4329  
G01 X-3.3220 Y1.4336  
G01 X-3.3219 Y1.4343  
G01 X-3.3212 Y1.4364  
G01 X-3.3206 Y1.4385  
G01 X-3.3203 Y1.4392  
G01 X-3.3200 Y1.4399  
G01 X-3.3188 Y1.4417  
G01 X-3.3177 Y1.4436  
G01 X-3.3172 Y1.4441  
G01 X-3.2753 Y1.5069  
G01 X-3.2762 Y1.5090  
G01 X-3.2776 Y1.5163  
G01 X-3.2776 Y1.5237  
G01 X-3.2762 Y1.5310  
G01 X-3.2734 Y1.5378  
G01 X-3.2692 Y1.5440  
G01 X-3.2640 Y1.5492  
G01 X-3.2621 Y1.5505  
G01 X-3.2621 Y1.7167  
G01 X-3.2721 Y1.7267  
G01 X-3.2721 Y1.7533  
G01 X-3.2533 Y1.7721  
G01 X-3.2267 Y1.7721  
G01 X-3.2079 Y1.7533  
G01 X-3.2079 Y1.7267  
G01 X-3.2179 Y1.7167  
G01 X-3.2179 Y1.5505  
G01 X-3.2160 Y1.5492  
G00 Z0.0500  
G00 X-3.4244 Y1.4976  
G01 Z-0.0040 F10    
G01 X-3.4024 Y1.4756  F20    
G01 X-3.4024 Y1.4444  
G01 X-3.4187 Y1.4280  
G01 X-3.4249 Y1.3959  
G01 X-3.4249 Y1.3345  
G01 X-3.4118 Y1.3221  
G01 X-3.3967 Y1.3221  
G01 X-3.3779 Y1.3033  
G01 X-3.3779 Y1.2767  
G01 X-3.3967 Y1.2579  
G01 X-3.4233 Y1.2579  
G01 X-3.4421 Y1.2767  
G01 X-3.4421 Y1.2899  
G01 X-3.4603 Y1.3071  
G01 X-3.4606 Y1.3073  
G01 X-3.4624 Y1.3091  
G01 X-3.4643 Y1.3109  
G01 X-3.4645 Y1.3112  
G01 X-3.4647 Y1.3114  
G01 X-3.4660 Y1.3137  
G01 X-3.4674 Y1.3159  
G01 X-3.4675 Y1.3162  
G01 X-3.4676 Y1.3165  
G01 X-3.4683 Y1.3190  
G01 X-3.4691 Y1.3215  
G01 X-3.4691 Y1.3218  
G01 X-3.4691 Y1.3221  
G01 X-3.4691 Y1.3247  
G01 X-3.4692 Y1.3273  
G01 X-3.4691 Y1.3276  
G01 X-3.4691 Y1.3972  
G01 X-3.4693 Y1.3993  
G01 X-3.4691 Y1.4001  
G01 X-3.4691 Y1.4009  
G01 X-3.4686 Y1.4029  
G01 X-3.4634 Y1.4302  
G01 X-3.4776 Y1.4444  
G01 X-3.4776 Y1.4756  
G01 X-3.4556 Y1.4976  
G01 X-3.4244 Y1.4976  
G00 Z0.0500  
G00 X-3.5160 Y1.4892  
G01 Z-0.0040 F10    
G01 X-3.5108 Y1.4840  F20    
G01 X-3.5066 Y1.4778  
G01 X-3.5038 Y1.4710  
G01 X-3.5024 Y1.4637  
G01 X-3.5024 Y1.4563  
G01 X-3.5038 Y1.4490  
G01 X-3.5066 Y1.4422  
G01 X-3.5108 Y1.4360  
G01 X-3.5160 Y1.4308  
G01 X-3.5222 Y1.4266  
G01 X-3.5290 Y1.4238  
G01 X-3.5363 Y1.4224  
G01 X-3.5437 Y1.4224  
G01 X-3.5510 Y1.4238  
G01 X-3.5578 Y1.4266  
G01 X-3.5640 Y1.4308  
G01 X-3.5692 Y1.4360  
G01 X-3.5734 Y1.4422  
G01 X-3.5762 Y1.4490  
G01 X-3.5776 Y1.4563  
G01 X-3.5776 Y1.4637  
G01 X-3.5767 Y1.4682  
G01 X-3.6241 Y1.5221  
G01 X-3.6909 Y1.5318  
G01 X-3.6909 Y1.5296  
G01 X-3.7196 Y1.5009  
G01 X-3.7604 Y1.5009  
G01 X-3.7891 Y1.5296  
G01 X-3.7891 Y1.5704  
G01 X-3.7604 Y1.5991  
G01 X-3.7196 Y1.5991  
G01 X-3.6981 Y1.5776  
G01 X-3.6125 Y1.5652  
G01 X-3.6123 Y1.5651  
G01 X-3.6101 Y1.5651  
G01 X-3.6094 Y1.5650  
G01 X-3.6087 Y1.5649  
G01 X-3.6066 Y1.5642  
G01 X-3.6045 Y1.5636  
G01 X-3.6038 Y1.5633  
G01 X-3.6031 Y1.5631  
G01 X-3.6013 Y1.5618  
G01 X-3.5994 Y1.5607  
G01 X-3.5989 Y1.5602  
G01 X-3.5983 Y1.5598  
G01 X-3.5968 Y1.5582  
G01 X-3.5953 Y1.5566  
G01 X-3.5949 Y1.5560  
G01 X-3.5436 Y1.4976  
G01 X-3.5363 Y1.4976  
G01 X-3.5290 Y1.4962  
G01 X-3.5222 Y1.4934  
G01 X-3.5160 Y1.4892  
G00 Z0.0500  
G00 X-3.6909 Y1.6296  
G01 Z-0.0040 F10    
G01 X-3.7196 Y1.6009  F20    
G01 X-3.7604 Y1.6009  
G01 X-3.7891 Y1.6296  
G01 X-3.7891 Y1.6704  
G01 X-3.7604 Y1.6991  
G01 X-3.7531 Y1.6991  
G01 X-3.7531 Y1.9213  
G01 X-3.7532 Y1.9215  
G01 X-3.7531 Y1.9242  
G01 X-3.7531 Y1.9269  
G01 X-3.7531 Y1.9271  
G01 X-3.7531 Y1.9273  
G01 X-3.7523 Y1.9299  
G01 X-3.7516 Y1.9325  
G01 X-3.7515 Y1.9327  
G01 X-3.7515 Y1.9329  
G01 X-3.7501 Y1.9353  
G01 X-3.7487 Y1.9376  
G01 X-3.7486 Y1.9378  
G01 X-3.6751 Y2.0595  
G01 X-3.6749 Y2.0601  
G01 X-3.6736 Y2.0620  
G01 X-3.6725 Y2.0639  
G01 X-3.6720 Y2.0644  
G01 X-3.6716 Y2.0649  
G01 X-3.6699 Y2.0664  
G01 X-3.6683 Y2.0680  
G01 X-3.6677 Y2.0683  
G01 X-3.6576 Y2.0769  
G01 X-3.6576 Y2.0837  
G01 X-3.6562 Y2.0910  
G01 X-3.6534 Y2.0978  
G01 X-3.6492 Y2.1040  
G01 X-3.6440 Y2.1092  
G01 X-3.6378 Y2.1134  
G01 X-3.6310 Y2.1162  
G01 X-3.6237 Y2.1176  
G01 X-3.6163 Y2.1176  
G01 X-3.6090 Y2.1162  
G01 X-3.6022 Y2.1134  
G01 X-3.5960 Y2.1092  
G01 X-3.5908 Y2.1040  
G01 X-3.5866 Y2.0978  
G01 X-3.5838 Y2.0910  
G01 X-3.5824 Y2.0837  
G01 X-3.5824 Y2.0763  
G01 X-3.5838 Y2.0690  
G01 X-3.5866 Y2.0622  
G01 X-3.5908 Y2.0560  
G01 X-3.5960 Y2.0508  
G01 X-3.6022 Y2.0466  
G01 X-3.6090 Y2.0438  
G01 X-3.6163 Y2.0424  
G01 X-3.6237 Y2.0424  
G01 X-3.6287 Y2.0433  
G01 X-3.6379 Y2.0355  
G01 X-3.7089 Y1.9178  
G01 X-3.7089 Y1.6884  
G01 X-3.6909 Y1.6704  
G01 X-3.6909 Y1.6296  
G00 Z0.0500  
G00 X-3.5356 Y2.0424  
G01 Z-0.0040 F10    
G01 X-3.5576 Y2.0644  F20    
G01 X-3.5576 Y2.0956  
G01 X-3.5356 Y2.1176  
G01 X-3.5291 Y2.1176  
G01 X-3.4832 Y2.2355  
G01 X-3.4829 Y2.2368  
G01 X-3.4822 Y2.2382  
G01 X-3.4816 Y2.2398  
G01 X-3.4808 Y2.2408  
G01 X-3.4802 Y2.2420  
G01 X-3.4791 Y2.2432  
G01 X-3.4781 Y2.2445  
G01 X-3.4771 Y2.2453  
G01 X-3.4762 Y2.2462  
G01 X-3.4748 Y2.2471  
G01 X-3.4736 Y2.2481  
G01 X-3.4724 Y2.2486  
G01 X-3.4439 Y2.2664  
G01 X-3.3928 Y2.3175  
G01 X-3.4679 Y2.3925  
G01 X-3.7047 Y2.3842  
G01 X-3.6909 Y2.3704  
G01 X-3.6909 Y2.3296  
G01 X-3.7196 Y2.3009  
G01 X-3.7604 Y2.3009  
G01 X-3.7891 Y2.3296  
G01 X-3.7891 Y2.3704  
G01 X-3.7661 Y2.3934  
G01 X-3.7661 Y2.4046  
G01 X-3.7662 Y2.4067  
G01 X-3.7891 Y2.4296  
G01 X-3.7891 Y2.4704  
G01 X-3.7604 Y2.4991  
G01 X-3.7196 Y2.4991  
G01 X-3.6909 Y2.4704  
G01 X-3.6909 Y2.4296  
G01 X-3.6915 Y2.4290  
G01 X-3.4623 Y2.4370  
G01 X-3.4619 Y2.4371  
G01 X-3.4594 Y2.4371  
G01 X-3.4569 Y2.4372  
G01 X-3.4565 Y2.4371  
G01 X-3.4561 Y2.4371  
G01 X-3.4536 Y2.4365  
G01 X-3.4512 Y2.4359  
G01 X-3.4508 Y2.4357  
G01 X-3.4505 Y2.4356  
G01 X-3.4483 Y2.4344  
G01 X-3.4460 Y2.4332  
G01 X-3.4457 Y2.4329  
G01 X-3.4454 Y2.4327  
G01 X-3.4436 Y2.4309  
G01 X-3.4418 Y2.4292  
G01 X-3.4416 Y2.4289  
G01 X-3.3615 Y2.3488  
G01 X-3.2641 Y2.4462  
G01 X-3.2641 Y2.4641  
G01 X-3.2441 Y2.4841  
G01 X-3.2159 Y2.4841  
G01 X-3.1959 Y2.4641  
G01 X-3.1959 Y2.4453  
G01 X-3.0859 Y2.2892  
G01 X-3.0851 Y2.2884  
G01 X-3.0842 Y2.2868  
G01 X-3.0832 Y2.2854  
G01 X-3.0828 Y2.2843  
G01 X-3.0823 Y2.2833  
G01 X-3.0818 Y2.2816  
G01 X-3.0812 Y2.2799  
G01 X-3.0811 Y2.2788  
G01 X-3.0384 Y2.1121  
G01 X-3.0367 Y2.1121  
G01 X-3.0179 Y2.0933  
G01 X-3.0179 Y2.0667  
G01 X-3.0367 Y2.0479  
G01 X-3.0633 Y2.0479  
G01 X-3.0821 Y2.0667  
G01 X-3.0821 Y2.0933  
G01 X-3.0799 Y2.0956  
G01 X-3.1234 Y2.2656  
G01 X-3.2293 Y2.4159  
G01 X-3.2318 Y2.4159  
G01 X-3.3438 Y2.3039  
G01 X-3.3479 Y2.2998  
G01 X-3.4141 Y2.2336  
G01 X-3.4158 Y2.2318  
G01 X-3.4161 Y2.2316  
G01 X-3.4164 Y2.2313  
G01 X-3.4186 Y2.2300  
G01 X-3.4440 Y2.2141  
G01 X-3.4880 Y2.1012  
G01 X-3.4824 Y2.0956  
G01 X-3.4824 Y2.0644  
G01 X-3.5044 Y2.0424  
G01 X-3.5356 Y2.0424  
G00 Z0.0500  
G00 X-3.3186 Y2.0398  
G01 Z-0.0040 F10    
G01 X-3.3186 Y2.0802  F20    
G01 X-3.2902 Y2.1086  
G01 X-3.2498 Y2.1086  
G01 X-3.2214 Y2.0802  
G01 X-3.2214 Y2.0398  
G01 X-3.2498 Y2.0114  
G01 X-3.2629 Y2.0114  
G01 X-3.2688 Y1.9936  
G01 X-3.2922 Y1.9077  
G01 X-3.2879 Y1.9033  
G01 X-3.2879 Y1.8767  
G01 X-3.3067 Y1.8579  
G01 X-3.3333 Y1.8579  
G01 X-3.3521 Y1.8767  
G01 X-3.3521 Y1.9033  
G01 X-3.3345 Y1.9209  
G01 X-3.3120 Y2.0036  
G01 X-3.3119 Y2.0042  
G01 X-3.3112 Y2.0064  
G01 X-3.3106 Y2.0086  
G01 X-3.3103 Y2.0092  
G01 X-3.3047 Y2.0259  
G01 X-3.3186 Y2.0398  
G00 Z0.0500  
G00 X-3.7196 Y0.7691  
G01 Z-0.0040 F10    
G01 X-3.6909 Y0.7404  F20    
G01 X-3.6909 Y0.6996  
G01 X-3.7196 Y0.6709  
G01 X-3.7604 Y0.6709  
G01 X-3.7891 Y0.6996  
G01 X-3.7891 Y0.7404  
G01 X-3.7604 Y0.7691  
G01 X-3.7196 Y0.7691  
G00 Z0.0500  
G00 X-3.7196 Y0.6691  
G01 Z-0.0040 F10    
G01 X-3.6909 Y0.6404  F20    
G01 X-3.6909 Y0.6139  
G01 X-3.5843 Y0.5431  
G01 X-2.5898 Y0.5431  
G01 X-2.5892 Y0.5440  
G01 X-2.5840 Y0.5492  
G01 X-2.5778 Y0.5534  
G01 X-2.5710 Y0.5562  
G01 X-2.5637 Y0.5576  
G01 X-2.5563 Y0.5576  
G01 X-2.5490 Y0.5562  
G01 X-2.5422 Y0.5534  
G01 X-2.5360 Y0.5492  
G01 X-2.5308 Y0.5440  
G01 X-2.5266 Y0.5378  
G01 X-2.5238 Y0.5310  
G01 X-2.5224 Y0.5237  
G01 X-2.5224 Y0.5163  
G01 X-2.5238 Y0.5090  
G01 X-2.5266 Y0.5022  
G01 X-2.5308 Y0.4960  
G01 X-2.5360 Y0.4908  
G01 X-2.5422 Y0.4866  
G01 X-2.5490 Y0.4838  
G01 X-2.5563 Y0.4824  
G01 X-2.5637 Y0.4824  
G01 X-2.5710 Y0.4838  
G01 X-2.5778 Y0.4866  
G01 X-2.5840 Y0.4908  
G01 X-2.5892 Y0.4960  
G01 X-2.5911 Y0.4989  
G01 X-3.5888 Y0.4989  
G01 X-3.5895 Y0.4987  
G01 X-3.5917 Y0.4989  
G01 X-3.5939 Y0.4989  
G01 X-3.5946 Y0.4990  
G01 X-3.5953 Y0.4991  
G01 X-3.5974 Y0.4998  
G01 X-3.5995 Y0.5004  
G01 X-3.6002 Y0.5007  
G01 X-3.6008 Y0.5009  
G01 X-3.6027 Y0.5022  
G01 X-3.6046 Y0.5033  
G01 X-3.6051 Y0.5038  
G01 X-3.7142 Y0.5763  
G01 X-3.7196 Y0.5709  
G01 X-3.7604 Y0.5709  
G01 X-3.7891 Y0.5996  
G01 X-3.7891 Y0.6404  
G01 X-3.7604 Y0.6691  
G01 X-3.7196 Y0.6691  
G00 Z0.0500  
G00 X-0.5402 Y0.3622  
G01 Z-0.0040 F10    
G01 X-0.5422 Y0.3602  F20    
G01 X-0.5448 Y0.3591  
G01 X-0.5952 Y0.3591  
G01 X-0.5978 Y0.3602  
G01 X-0.5998 Y0.3622  
G01 X-0.6009 Y0.3648  
G01 X-0.6009 Y0.4152  
G01 X-0.5998 Y0.4178  
G01 X-0.5978 Y0.4198  
G01 X-0.5952 Y0.4209  
G01 X-0.5804 Y0.4209  
G01 X-0.5511 Y0.4796  
G01 X-0.5505 Y0.4810  
G01 X-0.5501 Y0.4817  
G01 X-0.5497 Y0.4824  
G01 X-0.5488 Y0.4835  
G01 X-0.5480 Y0.4848  
G01 X-0.5474 Y0.4853  
G01 X-0.5469 Y0.4860  
G01 X-0.5458 Y0.4870  
G01 X-0.5448 Y0.4880  
G01 X-0.5441 Y0.4884  
G01 X-0.5434 Y0.4890  
G01 X-0.5431 Y0.4892  
G01 X-0.5431 Y0.5307  
G01 X-0.5641 Y0.5517  
G01 X-0.5641 Y0.5883  
G01 X-0.5431 Y0.6093  
G01 X-0.5431 Y0.6307  
G01 X-0.5641 Y0.6517  
G01 X-0.5641 Y0.6883  
G01 X-0.5383 Y0.7141  
G01 X-0.5017 Y0.7141  
G01 X-0.4759 Y0.6883  
G01 X-0.4759 Y0.6517  
G01 X-0.4949 Y0.6327  
G01 X-0.4949 Y0.6073  
