(/Applications/pcbgcode.repo/pcb-gcode.ulp)
(Copyright 2005 - 2012 by John Johnson)
(See readme.txt for licensing terms.)
(This file generated from the board:)
(.../808_bass_drum/808_bass_drum.brd)
(Current profile is .../pcbgcode.repo/profiles/mach.pp  )
(This file generated 5/20/16 6:48 AM)
(Settings from pcb-machine.h)
(spindle on time = 0.0000)
(spindle speed = 20000.0000)
(tool change at 0.0000  0.0000  1.5000  )
(feed rate xy = F0     )
(feed rate z  = F20    )
(Z Axis Settings)
(  High     Up        Down     Drill)
(0.2500  	0.0500  	-0.0035 	-0.0750 )
(Settings from pcb-defaults.h)
(isolate min = 0.0050)
(isolate max = 0.0200)
(isolate step = 0.0010)
(Generated bottom outlines, bottom drill, )
(Unit of measure: inch)
( Tool|       Size       |  Min Sub |  Max Sub |   Count )
( T01 | 0.800mm 0.0315in | 0.0000in | 0.0000in |       0 )
( T02 | 0.813mm 0.0320in | 0.0000in | 0.0000in |       0 )
( T03 | 1.000mm 0.0394in | 0.0000in | 0.0000in |       0 )
( T04 | 1.016mm 0.0400in | 0.0000in | 0.0000in |       0 )
( T05 | 1.200mm 0.0472in | 0.0000in | 0.0000in |       0 )
( T06 | 1.300mm 0.0512in | 0.0000in | 0.0000in |       0 )
(Inch Mode)
G20
(Absolute Coordinates)
G90
S20000
G00 Z0.2500  
G00 X0.0000  Y0.0000  
M03
G04 P0.000000
M05
G00 Z1.5000  
M06 T01  ; 0.0315  
G01 Z0.0000  F20    
M06 
G00 Z0.0500  
M03
G04 P0.000000
G82 X-0.3500 Y0.9516  Z-0.0750 F20    R0.0500  P0.020000
G82 X-0.3500 Y1.1484  
G82 X-0.8000 Y1.9516  
G82 X-0.8000 Y2.1484  
G82 X-2.4900 Y1.6700  
G82 X-3.2000 Y1.6700  
M05
G00 Z1.5000  
G00 X0.0000  Y0.0000  
M06 T02  ; 0.0320  
G01 Z0.0000  F20    
M06 
G00 Z0.0500  
M03
G04 P0.000000
G82 X-0.3000 Y0.8000  Z-0.0750 F20    R0.0500  P0.020000
G82 X-0.5000 Y0.8000  
G82 X-0.6250 Y0.8500  
G82 X-0.6000 Y1.0500  
G82 X-0.5000 Y1.0500  
G82 X-0.8500 Y1.0000  
G82 X-0.9500 Y1.0000  
G82 X-0.9250 Y0.8500  
G82 X-1.1000 Y0.8000  
G82 X-1.0000 Y0.5500  
G82 X-0.9000 Y0.5500  
G82 X-1.2500 Y0.4000  
G82 X-1.4500 Y0.4000  
G82 X-1.6500 Y0.4500  
G82 X-1.6500 Y0.7500  
G82 X-1.5500 Y1.0500  
G82 X-1.4500 Y1.0500  
G82 X-1.3500 Y1.0500  
G82 X-1.2500 Y1.0500  
G82 X-1.1000 Y1.1000  
G82 X-0.9500 Y1.3000  
G82 X-0.8500 Y1.3000  
G82 X-0.8500 Y1.6000  
G82 X-0.7500 Y1.6000  
G82 X-0.7000 Y1.8000  
G82 X-0.9000 Y1.8000  
G82 X-1.2500 Y1.5500  
G82 X-1.2500 Y1.3500  
G82 X-1.3500 Y1.3500  
G82 X-1.4500 Y1.3500  
G82 X-1.5500 Y1.3500  
G82 X-1.7000 Y1.3500  
G82 X-1.8000 Y1.3500  
G82 X-1.8000 Y1.5500  
G82 X-1.7000 Y1.6500  
G82 X-1.5500 Y1.5500  
G82 X-1.5000 Y1.7000  
G82 X-1.5000 Y1.9000  
G82 X-1.3500 Y2.1000  
G82 X-1.3000 Y2.1750  
G82 X-1.2500 Y2.1000  
G82 X-1.2000 Y2.3000  
G82 X-1.1000 Y2.4000  
G82 X-1.0000 Y2.3000  
G82 X-0.9000 Y2.4000  
G82 X-1.4000 Y2.4500  
G82 X-1.5500 Y2.3500  
G82 X-1.6750 Y2.4000  
G82 X-1.7500 Y2.3500  
G82 X-1.7500 Y2.4500  
G82 X-1.9500 Y2.4750  
G82 X-1.9500 Y2.2750  
G82 X-1.7750 Y2.1500  
G82 X-1.7750 Y1.9500  
G82 X-2.0000 Y1.9500  
G82 X-2.0000 Y2.0500  
G82 X-2.1150 Y2.0600  
G82 X-2.1500 Y1.9000  
G82 X-2.2500 Y1.8000  
G82 X-2.3500 Y1.9000  
G82 X-2.3150 Y2.0600  
G82 X-2.4750 Y2.2000  
G82 X-2.5500 Y2.2500  
G82 X-2.5500 Y2.1500  
G82 X-2.6750 Y2.1500  
G82 X-2.9000 Y2.0250  
G82 X-2.8500 Y1.9500  
G82 X-2.9500 Y1.9500  
G82 X-3.0250 Y1.7750  
G82 X-3.0000 Y1.5000  
G82 X-2.8750 Y1.3750  
G82 X-2.5750 Y1.3750  
G82 X-2.5500 Y1.2000  
G82 X-2.5500 Y1.0000  
G82 X-2.7500 Y1.0750  
G82 X-2.9500 Y1.0750  
G82 X-3.2500 Y1.0500  
G82 X-3.2500 Y0.9000  
G82 X-3.2500 Y0.7000  
G82 X-3.1500 Y0.6000  
G82 X-3.1500 Y0.5000  
G82 X-2.8500 Y0.5000  
G82 X-2.8500 Y0.6000  
G82 X-2.9500 Y0.7500  
G82 X-2.6500 Y0.7500  
G82 X-2.5250 Y0.5500  
G82 X-2.4500 Y0.6000  
G82 X-2.4500 Y0.5000  
G82 X-2.0000 Y0.6500  
G82 X-2.1500 Y1.0000  
G82 X-2.0000 Y1.0500  
G82 X-1.8250 Y1.1000  
G82 X-1.7500 Y1.1500  
G82 X-1.7500 Y1.0500  
G82 X-2.0300 Y1.3850  
G82 X-2.2300 Y1.3850  
G82 X-2.3700 Y1.3000  
G82 X-2.2500 Y1.2000  
G82 X-2.0750 Y1.6000  
G82 X-1.9750 Y1.6000  
G82 X-1.9500 Y1.8000  
G82 X-2.3700 Y1.7000  
G82 X-2.6750 Y1.8500  
G82 X-2.7250 Y1.7750  
G82 X-3.3000 Y1.5000  
G82 X-3.2500 Y1.3500  
G82 X-3.5000 Y1.1000  
G82 X-3.5000 Y0.8000  
G82 X-2.4500 Y2.4000  
G82 X-2.2500 Y2.4000  
G82 X-1.5500 Y2.1500  
G82 X-1.4000 Y2.2500  
M05
G00 Z1.5000  
G00 X0.0000  Y0.0000  
M06 T03  ; 0.0394  
G01 Z0.0000  F20    
M06 
G00 Z0.0500  
M03
G04 P0.000000
G82 X-3.6500 Y1.0500  Z-0.0750 F20    R0.0500  P0.020000
G82 X-3.7500 Y1.0500  
M05
G00 Z1.5000  
G00 X0.0000  Y0.0000  
M06 T04  ; 0.0400  
G01 Z0.0000  F20    
M06 
G00 Z0.0500  
M03
G04 P0.000000
G82 X-0.3500 Y1.5500  Z-0.0750 F20    R0.0500  P0.020000
G82 X-0.3500 Y1.6500  
G82 X-0.4500 Y1.6500  
G82 X-0.4500 Y1.5500  
G82 X-0.4500 Y1.7500  
G82 X-0.3500 Y1.7500  
G82 X-0.3500 Y1.8500  
G82 X-0.3500 Y1.9500  
G82 X-0.3500 Y2.0500  
G82 X-0.4500 Y2.0500  
G82 X-0.4500 Y1.9500  
G82 X-0.4500 Y1.8500  
G82 X-0.4500 Y2.1500  
G82 X-0.3500 Y2.1500  
G82 X-0.3500 Y2.2500  
G82 X-0.4500 Y2.2500  
G82 X-0.7000 Y2.4000  
G82 X-1.1000 Y2.1000  
M05
G00 Z1.5000  
G00 X0.0000  Y0.0000  
M06 T05  ; 0.0472  
G01 Z0.0000  F20    
M06 
G00 Z0.0500  
M03
G04 P0.000000
G82 X-0.2031 Y0.1500  Z-0.0750 F20    R0.0500  P0.020000
G82 X-0.4000 Y0.1500  
G82 X-0.5969 Y0.1500  
G82 X-1.0531 Y0.1500  
G82 X-1.2500 Y0.1500  
G82 X-1.4469 Y0.1500  
G82 X-1.9031 Y0.1500  
G82 X-2.1000 Y0.1500  
G82 X-2.2969 Y0.1500  
G82 X-2.7531 Y0.1500  
G82 X-2.9500 Y0.1500  
G82 X-3.1469 Y0.1500  
M05
G00 Z1.5000  
G00 X0.0000  Y0.0000  
M06 T06  ; 0.0512  
G01 Z0.0000  F20    
M06 
G00 Z0.0500  
M03
G04 P0.000000
G82 X-3.6200 Y0.0980  Z-0.0750 F20    R0.0500  P0.020000
G82 X-3.6531 Y0.0984  
G82 X-3.6870 Y0.0980  
G82 X-3.8580 Y0.4980  
G82 X-3.8579 Y0.5315  
G82 X-3.8580 Y0.5650  
G82 X-3.6860 Y0.6180  
G82 X-3.6531 Y0.6181  
G82 X-3.6200 Y0.6180  
T01 
G00 Z0.2500  
M05
M02
