(/Applications/pcbgcode.repo/pcb-gcode.ulp)
(Copyright 2005 - 2012 by John Johnson)
(See readme.txt for licensing terms.)
(This file generated from the board:)
(.../808_bass_drum/808_bass_drum.brd)
(Current profile is .../pcbgcode.repo/profiles/mach.pp  )
(This file generated 1/10/15 9:04 PM)
(Settings from pcb-machine.h)
(spindle on time = 0.0000)
(spindle speed = 20000.0000)
(tool change at 0.0000  0.0000  3.0000  )
(feed rate xy = F0     )
(feed rate z  = F20    )
(Z Axis Settings)
(  High     Up        Down     Drill)
(1.0000  	0.0500  	-0.0040 	-0.0730 )
(Settings from pcb-defaults.h)
(isolate min = 0.0010)
(isolate max = 0.0050)
(isolate step = 0.0010)
(Generated bottom outlines, bottom drill, )
(Unit of measure: inch)
( Tool|       Size       |  Min Sub |  Max Sub |   Count )
( T01 | 0.800mm 0.0315in | 0.0000in | 0.0000in |       0 )
( T02 | 0.813mm 0.0320in | 0.0000in | 0.0000in |       0 )
( T03 | 0.914mm 0.0360in | 0.0000in | 0.0000in |       0 )
( T04 | 1.016mm 0.0400in | 0.0000in | 0.0000in |       0 )
( T05 | 1.270mm 0.0500in | 0.0000in | 0.0000in |       0 )
(Inch Mode)
G20
(Absolute Coordinates)
G90
S20000
G00 Z1.0000  
G00 X0.0000  Y0.0000  
M03
G04 P0.000000
M05
G00 Z3.0000  
M06 T01  ; 0.0315  
G01 Z0.0000  F20    
M06 
G00 Z0.0500  
M03
G04 P0.000000
G82 X-0.5700 Y0.3900  Z-0.0730 F20    R0.0500  P0.010000
G82 X-2.0900 Y1.2800  
G82 X-2.2300 Y1.3600  
G82 X-2.9900 Y1.5800  
M05
G00 Z3.0000  
G00 X0.0000  Y0.0000  
M06 T02  ; 0.0320  
G01 Z0.0000  F20    
M06 
G00 Z0.0500  
M03
G04 P0.000000
G82 X-0.4500 Y1.1700  Z-0.0730 F20    R0.0500  P0.010000
G82 X-0.4600 Y1.3200  
G82 X-0.4800 Y1.4600  
G82 X-0.5000 Y1.6500  
G82 X-0.6000 Y1.6500  
G82 X-0.7000 Y1.6500  
G82 X-0.6800 Y1.4600  
G82 X-0.6600 Y1.3200  
G82 X-0.6500 Y1.1700  
G82 X-0.6700 Y1.0400  
G82 X-0.8100 Y0.9200  
G82 X-0.8700 Y1.0400  
G82 X-1.0500 Y0.9300  
G82 X-1.1500 Y0.9300  
G82 X-1.2500 Y0.9300  
G82 X-1.4600 Y1.2200  
G82 X-1.5600 Y1.2200  
G82 X-1.6600 Y1.2200  
G82 X-1.9200 Y1.2600  
G82 X-1.9200 Y1.0600  
G82 X-1.8300 Y0.8200  
G82 X-1.9700 Y0.7600  
G82 X-1.9700 Y0.5600  
G82 X-1.7400 Y0.6300  
G82 X-1.5400 Y0.6300  
G82 X-1.6300 Y0.8200  
G82 X-2.2300 Y0.9800  
G82 X-2.3300 Y0.9800  
G82 X-2.4300 Y0.9800  
G82 X-2.5300 Y0.9800  
G82 X-2.7200 Y0.9700  
G82 X-2.8500 Y1.1000  
G82 X-2.8500 Y1.2700  
G82 X-3.0500 Y1.2700  
G82 X-3.2100 Y1.2900  
G82 X-3.3100 Y1.1600  
G82 X-3.4100 Y1.1600  
G82 X-3.4100 Y1.2900  
G82 X-3.4400 Y1.4600  
G82 X-3.5400 Y1.4600  
G82 X-3.2400 Y1.5200  
G82 X-3.1400 Y1.5200  
G82 X-3.0400 Y1.7400  
G82 X-3.1200 Y1.8900  
G82 X-3.2400 Y1.7400  
G82 X-3.3200 Y1.8900  
G82 X-3.5200 Y2.0800  
G82 X-3.6200 Y2.0800  
G82 X-3.0500 Y2.0800  
G82 X-2.8500 Y2.0800  
G82 X-2.6000 Y2.0000  
G82 X-2.6000 Y2.2000  
G82 X-2.3300 Y2.2100  
G82 X-2.3300 Y2.0100  
G82 X-2.4500 Y1.7200  
G82 X-2.4500 Y1.5200  
G82 X-2.2900 Y1.4900  
G82 X-2.3300 Y1.2800  
G82 X-2.2300 Y1.2800  
G82 X-2.4300 Y1.2800  
G82 X-2.5300 Y1.2800  
G82 X-2.6200 Y1.5500  
G82 X-2.8200 Y1.5500  
G82 X-3.0500 Y1.1000  
G82 X-3.3200 Y1.0200  
G82 X-3.3200 Y0.9200  
G82 X-3.3200 Y0.8200  
G82 X-2.7200 Y0.6700  
G82 X-2.5600 Y0.6200  
G82 X-2.5600 Y0.5200  
G82 X-2.3300 Y0.5800  
G82 X-2.3300 Y0.7800  
G82 X-1.9900 Y1.4900  
G82 X-1.8600 Y1.6600  
G82 X-1.6300 Y1.5000  
G82 X-1.4300 Y1.5000  
G82 X-1.4700 Y1.6800  
G82 X-1.3000 Y1.6700  
G82 X-1.2300 Y1.5000  
G82 X-1.2300 Y1.3000  
G82 X-1.0500 Y1.3000  
G82 X-0.8500 Y1.3000  
G82 X-0.9200 Y1.7100  
G82 X-1.0200 Y1.7100  
G82 X-1.1200 Y1.7100  
G82 X-1.0400 Y1.8800  
G82 X-1.0400 Y2.0800  
G82 X-1.2300 Y1.9900  
G82 X-1.3000 Y1.8700  
G82 X-1.4700 Y1.8800  
G82 X-1.5200 Y2.0600  
G82 X-1.5200 Y2.2600  
G82 X-1.5500 Y2.4200  
G82 X-1.3500 Y2.4200  
G82 X-1.2300 Y2.2900  
G82 X-1.7900 Y2.3800  
G82 X-1.8000 Y2.2000  
G82 X-2.0000 Y2.2000  
G82 X-1.9900 Y2.3800  
G82 X-1.9600 Y1.9800  
G82 X-1.8600 Y1.9800  
G82 X-1.7600 Y1.9800  
G82 X-2.1600 Y1.6600  
G82 X-0.7600 Y1.8800  
G82 X-0.5600 Y1.8800  
G82 X-0.5100 Y0.9200  
M05
G00 Z3.0000  
G00 X0.0000  Y0.0000  
M06 T03  ; 0.0360  
G01 Z0.0000  F20    
M06 
G00 Z0.0500  
M03
G04 P0.000000
G82 X-2.4000 Y2.3900  Z-0.0730 F20    R0.0500  P0.010000
G82 X-2.7000 Y2.3900  
G82 X-2.9300 Y2.4500  
G82 X-3.2300 Y2.4500  
M05
G00 Z3.0000  
G00 X0.0000  Y0.0000  
M06 T04  ; 0.0400  
G01 Z0.0000  F20    
M06 
G00 Z0.0500  
M03
G04 P0.000000
G82 X-0.3700 Y0.9200  Z-0.0730 F20    R0.0500  P0.010000
G82 X-0.5200 Y0.6700  
G82 X-0.6200 Y0.6700  
G82 X-0.7200 Y0.6700  
G82 X-0.8200 Y0.6700  
G82 X-0.8200 Y0.5700  
G82 X-0.7200 Y0.5700  
G82 X-0.6200 Y0.5700  
G82 X-0.5200 Y0.5700  
G82 X-0.9200 Y0.5700  
G82 X-1.0200 Y0.5700  
G82 X-1.0200 Y0.6700  
G82 X-0.9200 Y0.6700  
G82 X-1.1200 Y0.6700  
G82 X-1.2200 Y0.6700  
G82 X-1.2200 Y0.5700  
G82 X-1.1200 Y0.5700  
G82 X-1.0100 Y1.1100  
G82 X-3.2700 Y2.0600  
M05
G00 Z3.0000  
G00 X0.0000  Y0.0000  
M06 T05  ; 0.0500  
G01 Z0.0000  F20    
M06 
G00 Z0.0500  
M03
G04 P0.000000
G82 X-3.7400 Y0.5200  Z-0.0730 F20    R0.0500  P0.010000
G82 X-3.7400 Y0.6200  
G82 X-3.7400 Y0.7200  
G82 X-3.7400 Y1.4500  
G82 X-3.7400 Y1.5500  
G82 X-3.7400 Y1.6500  
G82 X-3.7400 Y2.3500  
G82 X-3.7400 Y2.4500  
G82 X-3.7400 Y2.5500  
T01 
G00 Z1.0000  
M05
M02
