(/Applications/pcbgcode.repo/pcb-gcode.ulp)
(Copyright 2005 - 2012 by John Johnson)
(See readme.txt for licensing terms.)
(This file generated from the board:)
(.../808_bass_drum/808_bass_drum.brd)
(Current profile is .../pcbgcode.repo/profiles/mach.pp  )
(This file generated 5/20/16 6:48 AM)
(Settings from pcb-machine.h)
(spindle on time = 0.0000)
(spindle speed = 15000.0000)
(milling depth = -0.0700)
(tool change at 0.0000  0.0000  1.5000  )
(feed rate xy = F10    )
(feed rate z  = F5     )
(Z Axis Settings)
(  High     Up        Down     Drill)
(0.2500  	0.0500  	-0.0035 	-0.0750 )
(Settings from pcb-defaults.h)
(isolate min = 0.0050)
(isolate max = 0.0200)
(isolate step = 0.0010)
(Generated bottom outlines, bottom drill, )
(Unit of measure: inch)
(Inch Mode)
G20
(Absolute Coordinates)
G90
S15000
G00 Z0.2500  
G00 X0.0000  Y0.0000  
M03
G04 P0.000000
G00 Z0.0500  
G00 X0.0300  Y0.0200  
G01 Z-0.0700 F5     
G01 X0.0300  Y2.6000  F10    
G01 X0.0000  Y2.6500  
G01 X-3.9000 Y2.6500  
G01 X-3.9600 Y2.6000  
G01 X-3.9600 Y0.0100  
G01 X-3.9000 Y-0.0400 
G01 X-0.0100 Y-0.0400 
G01 X0.0300  Y0.0200  
G00 Z0.0500  
G00 X-0.2300 Y0.4200  
G01 Z-0.0700 F5     
G01 X-0.2800 Y0.4200  F10    
G01 X-0.2800 Y0.4700  
G01 X-0.2300 Y0.4700  
G01 X-0.2300 Y0.4200  
G00 Z0.0500  
G00 X-0.1500 Y2.4700  
G01 Z-0.0700 F5     
G01 X-0.1500 Y2.5200  F10    
G01 X-0.1000 Y2.5200  
G01 X-0.1000 Y2.4700  
G01 X-0.1500 Y2.4700  
G00 Z0.0500  
G00 X-3.7800 Y2.4700  
G01 Z-0.0700 F5     
G01 X-3.8300 Y2.4700  F10    
G01 X-3.8300 Y2.5200  
G01 X-3.7800 Y2.5200  
G01 X-3.7800 Y2.4700  
G00 Z0.0500  
G00 X-3.6600 Y0.3700  
G01 Z-0.0700 F5     
G01 X-3.6100 Y0.3700  F10    
G01 X-3.6100 Y0.3200  
G01 X-3.6600 Y0.3200  
G01 X-3.6600 Y0.3700  
G00 Z0.2500  
M05
M02
