(/Applications/pcbgcode.repo/pcb-gcode.ulp)
(Copyright 2005 - 2012 by John Johnson)
(See readme.txt for licensing terms.)
(This file generated from the board:)
(.../808_bass_drum/808_bass_drum.brd)
(Current profile is .../pcbgcode.repo/profiles/mach.pp  )
(This file generated 5/20/16 6:46 AM)
(Settings from pcb-machine.h)
(spindle on time = 0.0000)
(  Tool Size)
(0.0030  )
(spindle speed = 30000.0000)
(tool change at 0.0000  0.0000  1.5000  )
(feed rate xy = F20    )
(feed rate z  = F10    )
(Z Axis Settings)
(  High     Up        Down     Drill)
(0.2500  	0.0500  	-0.0035 	-0.0750 )
(Settings from pcb-defaults.h)
(isolate min = 0.0050)
(isolate max = 0.0200)
(isolate step = 0.0010)
(Generated bottom outlines, bottom drill, )
(Unit of measure: inch)
(Inch Mode)
G20
(Absolute Coordinates)
G90
S30000
G00 Z0.2500  
G00 X0.0000  Y0.0000  
M03
G04 P0.000000
G00 Z0.0500  
G00 X-0.1309 Y0.0314  
G01 Z-0.0035 F10    
G01 X-0.1302 Y0.0323  F20    
G01 X-0.1294 Y0.0331  
G01 X-0.1286 Y0.0343  
G01 X-0.0302 Y0.1573  
G01 X-0.0294 Y0.1581  
G01 X-0.0286 Y0.1593  
G01 X-0.0277 Y0.1605  
G01 X-0.0272 Y0.1615  
G01 X-0.0265 Y0.1624  
G01 X-0.0260 Y0.1638  
G01 X-0.0253 Y0.1651  
G01 X-0.0250 Y0.1662  
G01 X-0.0245 Y0.1673  
G01 X-0.0242 Y0.1687  
G01 X-0.0238 Y0.1701  
G01 X-0.0237 Y0.1713  
G01 X-0.0235 Y0.1724  
G01 X-0.0235 Y0.1739  
G01 X-0.0234 Y0.1753  
G01 X-0.0235 Y0.1765  
G01 X-0.0235 Y0.6239  
G01 X-0.0234 Y0.6254  
G01 X-0.0235 Y0.6265  
G01 X-0.0235 Y0.6276  
G01 X-0.0238 Y0.6291  
G01 X-0.0240 Y0.6306  
G01 X-0.0243 Y0.6316  
G01 X-0.0245 Y0.6327  
G01 X-0.0251 Y0.6341  
G01 X-0.0256 Y0.6356  
G01 X-0.0261 Y0.6365  
G01 X-0.0265 Y0.6376  
G01 X-0.0274 Y0.6388  
G01 X-0.0281 Y0.6401  
G01 X-0.0288 Y0.6410  
G01 X-0.0294 Y0.6419  
G01 X-0.0305 Y0.6430  
G01 X-0.1577 Y0.7932  
G01 X-0.1502 Y0.8157  
G01 X-0.1495 Y0.8173  
G01 X-0.1493 Y0.8182  
G01 X-0.1490 Y0.8191  
G01 X-0.1488 Y0.8208  
G01 X-0.1485 Y0.8224  
G01 X-0.1485 Y0.8233  
G01 X-0.1484 Y0.8243  
G01 X-0.1485 Y0.8259  
G01 X-0.1485 Y1.5741  
G01 X-0.1484 Y1.5757  
G01 X-0.1485 Y1.5767  
G01 X-0.1485 Y1.5776  
G01 X-0.1488 Y1.5792  
G01 X-0.1490 Y1.5809  
G01 X-0.1493 Y1.5818  
G01 X-0.1495 Y1.5827  
G01 X-0.1502 Y1.5843  
G01 X-0.1507 Y1.5859  
G01 X-0.1512 Y1.5867  
G01 X-0.1515 Y1.5876  
G01 X-0.1524 Y1.5889  
G01 X-0.1533 Y1.5904  
G01 X-0.1539 Y1.5911  
G01 X-0.1544 Y1.5919  
G01 X-0.1556 Y1.5931  
G01 X-0.1567 Y1.5943  
G01 X-0.1574 Y1.5949  
G01 X-0.1581 Y1.5956  
G01 X-0.1595 Y1.5965  
G01 X-0.1608 Y1.5975  
G01 X-0.1617 Y1.5980  
G01 X-0.1624 Y1.5985  
G01 X-0.1640 Y1.5991  
G01 X-0.3112 Y1.6727  
G01 X-0.3235 Y1.6850  
G01 X-0.3235 Y1.7150  
G01 X-0.3065 Y1.7320  
G01 X-0.3065 Y1.7680  
G01 X-0.3235 Y1.7850  
G01 X-0.3235 Y1.8108  
G01 X-0.1875 Y1.9015  
G01 X-0.1853 Y1.9029  
G01 X-0.1831 Y1.9044  
G01 X-0.1813 Y1.9062  
G01 X-0.1794 Y1.9081  
G01 X-0.1780 Y1.9103  
G01 X-0.1765 Y1.9124  
G01 X-0.1755 Y1.9148  
G01 X-0.1745 Y1.9172  
G01 X-0.1740 Y1.9198  
G01 X-0.1735 Y1.9224  
G01 X-0.1735 Y1.9250  
G01 X-0.1735 Y1.9276  
G01 X-0.1735 Y2.2235  
G01 X-0.1734 Y2.2246  
G01 X-0.1735 Y2.2261  
G01 X-0.1735 Y2.2276  
G01 X-0.1737 Y2.2287  
G01 X-0.1738 Y2.2298  
G01 X-0.1742 Y2.2313  
G01 X-0.1745 Y2.2327  
G01 X-0.1749 Y2.2338  
G01 X-0.1753 Y2.2348  
G01 X-0.1759 Y2.2362  
G01 X-0.1765 Y2.2376  
G01 X-0.1771 Y2.2385  
G01 X-0.1777 Y2.2395  
G01 X-0.1786 Y2.2406  
G01 X-0.1794 Y2.2419  
G01 X-0.1802 Y2.2427  
G01 X-0.4536 Y2.5856  
G01 X-0.4544 Y2.5869  
G01 X-0.4552 Y2.5877  
G01 X-0.4559 Y2.5886  
G01 X-0.4570 Y2.5895  
G01 X-0.4581 Y2.5906  
G01 X-0.4590 Y2.5912  
G01 X-0.4599 Y2.5919  
G01 X-0.4612 Y2.5927  
G01 X-0.4624 Y2.5935  
G01 X-0.4635 Y2.5939  
G01 X-0.4645 Y2.5945  
G01 X-0.4659 Y2.5949  
G01 X-0.4673 Y2.5955  
G01 X-0.4684 Y2.5957  
G01 X-0.4694 Y2.5960  
G01 X-0.4709 Y2.5962  
G01 X-0.4724 Y2.5965  
G01 X-0.4735 Y2.5965  
G01 X-0.4746 Y2.5966  
G01 X-0.4761 Y2.5965  
G01 X-2.4926 Y2.5965  
G01 X-2.4928 Y2.5965  
G01 X-2.4952 Y2.5965  
G01 X-2.4976 Y2.5965  
G01 X-2.4978 Y2.5965  
G01 X-2.4980 Y2.5965  
G01 X-2.5004 Y2.5959  
G01 X-2.5027 Y2.5955  
G01 X-2.5029 Y2.5954  
G01 X-2.5031 Y2.5954  
G01 X-2.5053 Y2.5944  
G01 X-2.5076 Y2.5935  
G01 X-2.5077 Y2.5934  
G01 X-2.5079 Y2.5933  
G01 X-2.5099 Y2.5919  
G01 X-2.5119 Y2.5906  
G01 X-2.5120 Y2.5904  
G01 X-2.5750 Y2.5469  
G01 X-2.5770 Y2.5455  
G01 X-2.5772 Y2.5453  
G01 X-2.5790 Y2.5435  
G01 X-3.3188 Y1.7937  
G01 X-3.3206 Y1.7919  
G01 X-3.3207 Y1.7918  
G01 X-3.3221 Y1.7896  
G01 X-3.3235 Y1.7876  
G01 X-3.3236 Y1.7874  
G01 X-3.3245 Y1.7851  
G01 X-3.3255 Y1.7827  
G01 X-3.3255 Y1.7826  
G01 X-3.3260 Y1.7801  
G01 X-3.3265 Y1.7776  
G01 X-3.3265 Y1.7774  
G01 X-3.3265 Y1.7749  
G01 X-3.3265 Y1.5325  
G01 X-3.3292 Y1.5325  
G01 X-3.3355 Y1.5313  
G01 X-3.3414 Y1.5288  
G01 X-3.3467 Y1.5252  
G01 X-3.3512 Y1.5207  
G01 X-3.3548 Y1.5154  
G01 X-3.3573 Y1.5095  
G01 X-3.3585 Y1.5032  
G01 X-3.3585 Y1.4968  
G01 X-3.3573 Y1.4905  
G01 X-3.3548 Y1.4846  
G01 X-3.3540 Y1.4834  
G01 X-3.6419 Y1.1956  
G01 X-3.6456 Y1.1919  
G01 X-3.6485 Y1.1876  
G01 X-3.6505 Y1.1827  
G01 X-3.6515 Y1.1776  
G01 X-3.6515 Y1.1159  
G01 X-3.6536 Y1.1159  
G01 X-3.6606 Y1.1145  
G01 X-3.6671 Y1.1118  
G01 X-3.6731 Y1.1078  
G01 X-3.6781 Y1.1028  
G01 X-3.6821 Y1.0968  
G01 X-3.6848 Y1.0902  
G01 X-3.6862 Y1.0832  
G01 X-3.6862 Y1.0168  
G01 X-3.6848 Y1.0098  
G01 X-3.6821 Y1.0032  
G01 X-3.6781 Y0.9972  
G01 X-3.6731 Y0.9922  
G01 X-3.6671 Y0.9882  
G01 X-3.6606 Y0.9855  
G01 X-3.6536 Y0.9841  
G01 X-3.6464 Y0.9841  
G01 X-3.6394 Y0.9855  
G01 X-3.6329 Y0.9882  
G01 X-3.6269 Y0.9922  
G01 X-3.6219 Y0.9972  
G01 X-3.6179 Y1.0032  
G01 X-3.6173 Y1.0048  
G01 X-3.5419 Y0.9294  
G01 X-3.5376 Y0.9265  
G01 X-3.5327 Y0.9245  
G01 X-3.5276 Y0.9235  
G01 X-3.4265 Y0.9235  
G01 X-3.4265 Y0.5501  
G01 X-3.4295 Y0.1235  
G01 X-3.5529 Y0.1243  
G01 X-3.5548 Y0.1280  
G01 X-3.5601 Y0.1352  
G01 X-3.5663 Y0.1415  
G01 X-3.5735 Y0.1467  
G01 X-3.5815 Y0.1508  
G01 X-3.5899 Y0.1535  
G01 X-3.5987 Y0.1549  
G01 X-3.7076 Y0.1549  
G01 X-3.7164 Y0.1535  
G01 X-3.7248 Y0.1508  
G01 X-3.7328 Y0.1467  
G01 X-3.7400 Y0.1415  
G01 X-3.7462 Y0.1352  
G01 X-3.7515 Y0.1280  
G01 X-3.7555 Y0.1201  
G01 X-3.7583 Y0.1117  
G01 X-3.7596 Y0.1029  
G01 X-3.7596 Y0.0940  
G01 X-3.7583 Y0.0852  
G01 X-3.7555 Y0.0767  
G01 X-3.7515 Y0.0688  
G01 X-3.7462 Y0.0616  
G01 X-3.7400 Y0.0553  
G01 X-3.7328 Y0.0501  
G01 X-3.7248 Y0.0461  
G01 X-3.7164 Y0.0433  
G01 X-3.7076 Y0.0419  
G01 X-3.5987 Y0.0419  
G01 X-3.5899 Y0.0433  
G01 X-3.5815 Y0.0461  
G01 X-3.5735 Y0.0501  
G01 X-3.5663 Y0.0553  
G01 X-3.5601 Y0.0616  
G01 X-3.5548 Y0.0688  
G01 X-3.5536 Y0.0713  
G01 X-3.4033 Y0.0704  
G01 X-3.4007 Y0.0703  
G01 X-3.3982 Y0.0708  
G01 X-3.3956 Y0.0713  
G01 X-3.3932 Y0.0723  
G01 X-3.3908 Y0.0733  
G01 X-3.3886 Y0.0747  
G01 X-3.3864 Y0.0761  
G01 X-3.3845 Y0.0780  
G01 X-3.3827 Y0.0798  
G01 X-3.3812 Y0.0820  
G01 X-3.3798 Y0.0841  
G01 X-3.3787 Y0.0866  
G01 X-3.3777 Y0.0889  
G01 X-3.3772 Y0.0916  
G01 X-3.3767 Y0.0941  
G01 X-3.3767 Y0.0967  
G01 X-3.3735 Y0.5473  
G01 X-3.3735 Y0.5499  
G01 X-3.3735 Y0.5524  
G01 X-3.3735 Y0.9132  
G01 X-3.2770 Y0.8811  
G01 X-3.2635 Y0.8675  
G01 X-3.2365 Y0.8675  
G01 X-3.2175 Y0.8865  
G01 X-3.2175 Y0.9135  
G01 X-3.2235 Y0.9195  
G01 X-3.2235 Y1.0305  
G01 X-3.2175 Y1.0365  
G01 X-3.2175 Y1.0635  
G01 X-3.2365 Y1.0825  
G01 X-3.2635 Y1.0825  
G01 X-3.2825 Y1.0635  
G01 X-3.2825 Y1.0365  
G01 X-3.2765 Y1.0305  
G01 X-3.2765 Y0.9368  
G01 X-3.3907 Y0.9748  
G01 X-3.3923 Y0.9755  
G01 X-3.3932 Y0.9757  
G01 X-3.3941 Y0.9760  
G01 X-3.3958 Y0.9762  
G01 X-3.3974 Y0.9765  
G01 X-3.3983 Y0.9765  
G01 X-3.3993 Y0.9766  
G01 X-3.4009 Y0.9765  
G01 X-3.5140 Y0.9765  
G01 X-3.6011 Y1.0635  
G01 X-3.5995 Y1.0673  
G01 X-3.5985 Y1.0724  
G01 X-3.5985 Y1.1640  
G01 X-3.2950 Y1.4675  
G01 X-3.2708 Y1.4675  
G01 X-3.2645 Y1.4687  
G01 X-3.2586 Y1.4712  
G01 X-3.2533 Y1.4748  
G01 X-3.2488 Y1.4793  
G01 X-3.2452 Y1.4846  
G01 X-3.2427 Y1.4905  
G01 X-3.2415 Y1.4968  
G01 X-3.2415 Y1.5032  
G01 X-3.2427 Y1.5095  
G01 X-3.2452 Y1.5154  
G01 X-3.2488 Y1.5207  
G01 X-3.2533 Y1.5252  
G01 X-3.2586 Y1.5288  
G01 X-3.2645 Y1.5313  
G01 X-3.2708 Y1.5325  
G01 X-3.2735 Y1.5325  
G01 X-3.2735 Y1.7641  
G01 X-2.5429 Y2.5046  
G01 X-2.4867 Y2.5435  
G01 X-2.2725 Y2.5435  
G01 X-2.2725 Y2.4235  
G01 X-2.2825 Y2.4135  
G01 X-2.2825 Y2.3865  
G01 X-2.2635 Y2.3675  
G01 X-2.2365 Y2.3675  
G01 X-2.2251 Y2.3789  
G01 X-1.9649 Y2.4440  
G01 X-1.9635 Y2.4425  
G01 X-1.9490 Y2.4425  
G01 X-1.8919 Y2.4044  
G01 X-1.8449 Y2.3574  
G01 X-1.8443 Y2.3567  
G01 X-1.8431 Y2.3556  
G01 X-1.8419 Y2.3544  
G01 X-1.8411 Y2.3539  
G01 X-1.8404 Y2.3533  
G01 X-1.8389 Y2.3524  
G01 X-1.8376 Y2.3515  
G01 X-1.8367 Y2.3512  
G01 X-1.8359 Y2.3507  
G01 X-1.8343 Y2.3502  
G01 X-1.8327 Y2.3495  
G01 X-1.8318 Y2.3493  
G01 X-1.7770 Y2.3311  
G01 X-1.7635 Y2.3175  
G01 X-1.7550 Y2.3175  
G01 X-1.6166 Y2.1791  
G01 X-1.7330 Y2.1015  
G01 X-1.8140 Y2.1015  
G01 X-1.9081 Y2.1956  
G01 X-1.9124 Y2.1985  
G01 X-1.9173 Y2.2005  
G01 X-1.9224 Y2.2015  
G01 X-2.3526 Y2.2015  
G01 X-2.3577 Y2.2005  
G01 X-2.3626 Y2.1985  
G01 X-2.3669 Y2.1956  
G01 X-2.3706 Y2.1919  
G01 X-2.4814 Y2.0811  
G01 X-2.5175 Y2.1461  
G01 X-2.5175 Y2.1635  
G01 X-2.5365 Y2.1825  
G01 X-2.5635 Y2.1825  
G01 X-2.5825 Y2.1635  
G01 X-2.5825 Y2.1365  
G01 X-2.5635 Y2.1175  
G01 X-2.5623 Y2.1175  
G01 X-2.5256 Y2.0515  
G01 X-2.7244 Y2.0515  
G01 X-2.7263 Y2.0516  
G01 X-2.7270 Y2.0515  
G01 X-2.7276 Y2.0515  
G01 X-2.7295 Y2.0511  
G01 X-2.7315 Y2.0508  
G01 X-2.7321 Y2.0506  
G01 X-2.7327 Y2.0505  
G01 X-2.7345 Y2.0497  
G01 X-2.7364 Y2.0491  
G01 X-2.7370 Y2.0487  
G01 X-2.7376 Y2.0485  
G01 X-2.7392 Y2.0474  
G01 X-2.8473 Y1.9825  
G01 X-2.8635 Y1.9825  
G01 X-2.8825 Y1.9635  
G01 X-2.8825 Y1.9443  
G01 X-2.9230 Y1.8633  
G01 X-2.9235 Y1.8626  
G01 X-2.9241 Y1.8610  
G01 X-2.9249 Y1.8595  
G01 X-2.9251 Y1.8586  
G01 X-2.9255 Y1.8577  
G01 X-2.9258 Y1.8561  
G01 X-2.9262 Y1.8545  
G01 X-2.9263 Y1.8535  
G01 X-2.9265 Y1.8526  
G01 X-2.9265 Y1.8509  
G01 X-2.9266 Y1.8493  
G01 X-2.9265 Y1.8483  
G01 X-2.9265 Y1.6500  
G01 X-2.9265 Y1.6474  
G01 X-2.9260 Y1.6448  
G01 X-2.9255 Y1.6423  
G01 X-2.9245 Y1.6399  
G01 X-2.9235 Y1.6375  
G01 X-2.9221 Y1.6353  
G01 X-2.7735 Y1.4124  
G01 X-2.6496 Y1.1153  
G01 X-2.6489 Y1.1133  
G01 X-2.6486 Y1.1129  
G01 X-2.6485 Y1.1124  
G01 X-2.6473 Y1.1106  
G01 X-2.6462 Y1.1088  
G01 X-2.6458 Y1.1085  
G01 X-2.6455 Y1.1081  
G01 X-2.6440 Y1.1066  
G01 X-2.6426 Y1.1050  
G01 X-2.6422 Y1.1047  
G01 X-2.6418 Y1.1044  
G01 X-2.6401 Y1.1032  
G01 X-2.6384 Y1.1020  
G01 X-2.6379 Y1.1018  
G01 X-2.6375 Y1.1015  
G01 X-2.6355 Y1.1007  
G01 X-2.6336 Y1.0998  
G01 X-2.6331 Y1.0997  
G01 X-2.6327 Y1.0995  
G01 X-2.6306 Y1.0991  
G01 X-2.4815 Y1.0640  
G01 X-2.4815 Y0.8810  
G01 X-2.7609 Y0.8158  
G01 X-2.7634 Y0.8153  
G01 X-2.7636 Y0.8152  
G01 X-2.7659 Y0.8142  
G01 X-2.7682 Y0.8131  
G01 X-2.7683 Y0.8131  
G01 X-2.7704 Y0.8116  
G01 X-2.7724 Y0.8101  
G01 X-2.7726 Y0.8100  
G01 X-2.7743 Y0.8082  
G01 X-2.7760 Y0.8063  
G01 X-2.7761 Y0.8062  
G01 X-2.7775 Y0.8041  
G01 X-2.7788 Y0.8019  
G01 X-2.7789 Y0.8018  
G01 X-2.7798 Y0.7994  
G01 X-2.7807 Y0.7970  
G01 X-2.7807 Y0.7969  
G01 X-2.7811 Y0.7944  
G01 X-2.7816 Y0.7919  
G01 X-2.7816 Y0.7917  
G01 X-2.7815 Y0.7892  
G01 X-2.7796 Y0.7215  
G01 X-2.7796 Y0.1919  
G01 X-2.7854 Y0.1878  
G01 X-2.7909 Y0.1822  
G01 X-2.7955 Y0.1759  
G01 X-2.7990 Y0.1690  
G01 X-2.8014 Y0.1616  
G01 X-2.8026 Y0.1539  
G01 X-2.8026 Y0.1461  
G01 X-2.8014 Y0.1384  
G01 X-2.7990 Y0.1310  
G01 X-2.7955 Y0.1241  
G01 X-2.7909 Y0.1178  
G01 X-2.7854 Y0.1122  
G01 X-2.7791 Y0.1077  
G01 X-2.7722 Y0.1041  
G01 X-2.7647 Y0.1017  
G01 X-2.7570 Y0.1005  
G01 X-2.7493 Y0.1005  
G01 X-2.7416 Y0.1017  
G01 X-2.7341 Y0.1041  
G01 X-2.7272 Y0.1077  
G01 X-2.7209 Y0.1122  
G01 X-2.7154 Y0.1178  
G01 X-2.7108 Y0.1241  
G01 X-2.7073 Y0.1310  
G01 X-2.7049 Y0.1384  
G01 X-2.7036 Y0.1461  
G01 X-2.7036 Y0.1539  
G01 X-2.7049 Y0.1616  
G01 X-2.7073 Y0.1690  
G01 X-2.7108 Y0.1759  
G01 X-2.7154 Y0.1822  
G01 X-2.7209 Y0.1878  
G01 X-2.7266 Y0.1919  
G01 X-2.7266 Y0.7196  
G01 X-2.7266 Y0.7200  
G01 X-2.7266 Y0.7222  
G01 X-2.7266 Y0.7245  
G01 X-2.7267 Y0.7248  
G01 X-2.7279 Y0.7691  
G01 X-2.4906 Y0.8245  
G01 X-2.5008 Y0.7810  
G01 X-2.5180 Y0.7638  
G01 X-2.5210 Y0.7587  
G01 X-2.5225 Y0.7530  
G01 X-2.5225 Y0.6470  
G01 X-2.5210 Y0.6413  
G01 X-2.5180 Y0.6362  
G01 X-2.5138 Y0.6320  
G01 X-2.4825 Y0.6007  
G01 X-2.4825 Y0.5865  
G01 X-2.4635 Y0.5675  
G01 X-2.4365 Y0.5675  
G01 X-2.4175 Y0.5865  
G01 X-2.4175 Y0.6135  
G01 X-2.4365 Y0.6325  
G01 X-2.4507 Y0.6325  
G01 X-2.4775 Y0.6593  
G01 X-2.4775 Y0.7407  
G01 X-2.4691 Y0.7491  
G01 X-2.4682 Y0.7493  
G01 X-2.4633 Y0.7511  
G01 X-2.4588 Y0.7538  
G01 X-2.4550 Y0.7574  
G01 X-2.4520 Y0.7616  
G01 X-2.4498 Y0.7664  
G01 X-2.4297 Y0.8518  
G01 X-2.4295 Y0.8523  
G01 X-2.4294 Y0.8527  
G01 X-2.4293 Y0.8531  
G01 X-2.4290 Y0.8548  
G01 X-2.4286 Y0.8565  
G01 X-2.4286 Y0.8569  
G01 X-2.4285 Y0.8574  
G01 X-2.4285 Y0.8578  
G01 X-2.4284 Y0.8583  
G01 X-2.4285 Y0.8600  
G01 X-2.4284 Y0.8617  
G01 X-2.4285 Y0.8621  
G01 X-2.4285 Y1.0832  
G01 X-2.4284 Y1.0841  
G01 X-2.4285 Y1.0854  
G01 X-2.4284 Y1.0867  
G01 X-2.4285 Y1.0871  
G01 X-2.4285 Y1.0876  
G01 X-2.4287 Y1.0884  
G01 X-2.4467 Y1.3717  
G01 X-2.2507 Y1.3597  
G01 X-2.2435 Y1.3525  
G01 X-2.2165 Y1.3525  
G01 X-2.1975 Y1.3715  
G01 X-2.1975 Y1.3985  
G01 X-2.2165 Y1.4175  
G01 X-2.2435 Y1.4175  
G01 X-2.2483 Y1.4127  
G01 X-2.4724 Y1.4264  
G01 X-2.4741 Y1.4266  
G01 X-2.4750 Y1.4266  
G01 X-2.4760 Y1.4266  
G01 X-2.4776 Y1.4264  
G01 X-2.4793 Y1.4263  
G01 X-2.4802 Y1.4260  
G01 X-2.4812 Y1.4259  
G01 X-2.4827 Y1.4254  
G01 X-2.4843 Y1.4249  
G01 X-2.4852 Y1.4245  
G01 X-2.4861 Y1.4242  
G01 X-2.4875 Y1.4234  
G01 X-2.4890 Y1.4226  
G01 X-2.4898 Y1.4221  
G01 X-2.4906 Y1.4216  
G01 X-2.4918 Y1.4205  
G01 X-2.4932 Y1.4195  
G01 X-2.4938 Y1.4188  
G01 X-2.4945 Y1.4181  
G01 X-2.4955 Y1.4168  
G01 X-2.4966 Y1.4156  
G01 X-2.4971 Y1.4147  
G01 X-2.4977 Y1.4140  
G01 X-2.4984 Y1.4125  
G01 X-2.4992 Y1.4110  
G01 X-2.4995 Y1.4101  
G01 X-2.5000 Y1.4093  
G01 X-2.5004 Y1.4077  
G01 X-2.5009 Y1.4061  
G01 X-2.5010 Y1.4052  
G01 X-2.5013 Y1.4042  
G01 X-2.5014 Y1.4026  
G01 X-2.5016 Y1.4009  
G01 X-2.5016 Y1.4000  
G01 X-2.5016 Y1.3990  
G01 X-2.5014 Y1.3974  
G01 X-2.4837 Y1.1190  
G01 X-2.6057 Y1.1477  
G01 X-2.7255 Y1.4351  
G01 X-2.7265 Y1.4375  
G01 X-2.7280 Y1.4397  
G01 X-2.8735 Y1.6580  
G01 X-2.8735 Y1.8437  
G01 X-2.8366 Y1.9175  
G01 X-2.8175 Y1.9365  
G01 X-2.8175 Y1.9386  
G01 X-2.7177 Y1.9985  
G01 X-2.4974 Y1.9985  
G01 X-2.4923 Y1.9995  
G01 X-2.4885 Y2.0011  
G01 X-2.3825 Y1.8950  
G01 X-2.3825 Y1.8865  
G01 X-2.3635 Y1.8675  
G01 X-2.3508 Y1.8675  
G01 X-2.2955 Y1.8260  
G01 X-2.2967 Y1.8252  
G01 X-2.3012 Y1.8207  
G01 X-2.3048 Y1.8154  
G01 X-2.3073 Y1.8095  
G01 X-2.3085 Y1.8032  
G01 X-2.3085 Y1.7968  
G01 X-2.3073 Y1.7905  
G01 X-2.3048 Y1.7846  
G01 X-2.3012 Y1.7793  
G01 X-2.2967 Y1.7748  
G01 X-2.2914 Y1.7712  
G01 X-2.2855 Y1.7687  
G01 X-2.2792 Y1.7675  
G01 X-2.2208 Y1.7675  
G01 X-2.2145 Y1.7687  
G01 X-2.2086 Y1.7712  
G01 X-2.2033 Y1.7748  
G01 X-2.1988 Y1.7793  
G01 X-2.1952 Y1.7846  
G01 X-2.1927 Y1.7905  
G01 X-2.1915 Y1.7968  
G01 X-2.1915 Y1.8032  
G01 X-2.1927 Y1.8095  
G01 X-2.1952 Y1.8154  
G01 X-2.1988 Y1.8207  
G01 X-2.2033 Y1.8252  
G01 X-2.2086 Y1.8288  
G01 X-2.2145 Y1.8313  
G01 X-2.2208 Y1.8325  
G01 X-2.2245 Y1.8325  
G01 X-2.2245 Y1.8327  
G01 X-2.2252 Y1.8345  
G01 X-2.2259 Y1.8363  
G01 X-2.2262 Y1.8369  
G01 X-2.2265 Y1.8376  
G01 X-2.2276 Y1.8391  
G01 X-2.2285 Y1.8407  
G01 X-2.2290 Y1.8413  
G01 X-2.2294 Y1.8419  
G01 X-2.2308 Y1.8432  
G01 X-2.2320 Y1.8446  
G01 X-2.2326 Y1.8451  
G01 X-2.2331 Y1.8456  
G01 X-2.2347 Y1.8466  
G01 X-2.3175 Y1.9087  
G01 X-2.3175 Y1.9135  
G01 X-2.3365 Y1.9325  
G01 X-2.3450 Y1.9325  
G01 X-2.4500 Y2.0375  
G01 X-2.3390 Y2.1485  
G01 X-1.9360 Y2.1485  
G01 X-1.8456 Y2.0581  
G01 X-1.8419 Y2.0544  
G01 X-1.8376 Y2.0515  
G01 X-1.8327 Y2.0495  
G01 X-1.8276 Y2.0485  
G01 X-1.7250 Y2.0485  
G01 X-1.7224 Y2.0485  
G01 X-1.7198 Y2.0490  
G01 X-1.7173 Y2.0495  
G01 X-1.7149 Y2.0505  
G01 X-1.7125 Y2.0515  
G01 X-1.7103 Y2.0529  
G01 X-1.5825 Y2.1382  
G01 X-1.5825 Y2.1365  
G01 X-1.5635 Y2.1175  
G01 X-1.5365 Y2.1175  
G01 X-1.5175 Y2.1365  
G01 X-1.5175 Y2.1635  
G01 X-1.5365 Y2.1825  
G01 X-1.5450 Y2.1825  
G01 X-1.5562 Y2.1937  
G01 X-1.5581 Y2.1956  
G01 X-1.7175 Y2.3550  
G01 X-1.7175 Y2.3635  
G01 X-1.7365 Y2.3825  
G01 X-1.7635 Y2.3825  
G01 X-1.8107 Y2.3982  
G01 X-1.8544 Y2.4419  
G01 X-1.8563 Y2.4438  
G01 X-1.8581 Y2.4456  
G01 X-1.8603 Y2.4471  
G01 X-1.8624 Y2.4485  
G01 X-1.9175 Y2.4852  
G01 X-1.9175 Y2.4885  
G01 X-1.9365 Y2.5075  
G01 X-1.9635 Y2.5075  
G01 X-1.9749 Y2.4961  
G01 X-2.2275 Y2.4329  
G01 X-2.2275 Y2.5435  
G01 X-0.4878 Y2.5435  
G01 X-0.2265 Y2.2157  
G01 X-0.2265 Y1.9392  
G01 X-0.3172 Y1.8787  
G01 X-0.3320 Y1.8935  
G01 X-0.3680 Y1.8935  
G01 X-0.3935 Y1.8680  
G01 X-0.3935 Y1.8565  
G01 X-0.4065 Y1.8565  
G01 X-0.4065 Y1.8680  
G01 X-0.4320 Y1.8935  
G01 X-0.4680 Y1.8935  
G01 X-0.4935 Y1.8680  
G01 X-0.4935 Y1.8320  
G01 X-0.4765 Y1.8150  
G01 X-0.4765 Y1.8140  
G01 X-0.4831 Y1.8206  
G01 X-0.4874 Y1.8235  
G01 X-0.4923 Y1.8255  
G01 X-0.4974 Y1.8265  
G01 X-0.6805 Y1.8265  
G01 X-0.6865 Y1.8325  
G01 X-0.7135 Y1.8325  
G01 X-0.7325 Y1.8135  
G01 X-0.7325 Y1.7865  
G01 X-0.7135 Y1.7675  
G01 X-0.6865 Y1.7675  
G01 X-0.6805 Y1.7735  
G01 X-0.5110 Y1.7735  
G01 X-0.4935 Y1.7560  
G01 X-0.4935 Y1.7320  
G01 X-0.4765 Y1.7150  
G01 X-0.4765 Y1.6850  
G01 X-0.4935 Y1.6680  
G01 X-0.4935 Y1.6320  
G01 X-0.4680 Y1.6065  
G01 X-0.4320 Y1.6065  
G01 X-0.4065 Y1.6320  
G01 X-0.4065 Y1.6435  
G01 X-0.3935 Y1.6435  
G01 X-0.3935 Y1.6320  
G01 X-0.3680 Y1.6065  
G01 X-0.3320 Y1.6065  
G01 X-0.3204 Y1.6181  
G01 X-0.2015 Y1.5586  
G01 X-0.2015 Y0.8293  
G01 X-0.2120 Y0.7978  
G01 X-0.2123 Y0.7973  
G01 X-0.2125 Y0.7964  
G01 X-0.2425 Y0.7265  
G01 X-0.3657 Y0.7265  
G01 X-0.4675 Y0.8079  
G01 X-0.4675 Y0.8135  
G01 X-0.4865 Y0.8325  
G01 X-0.5135 Y0.8325  
G01 X-0.5195 Y0.8265  
G01 X-0.5420 Y0.8265  
G01 X-0.5925 Y0.8602  
G01 X-0.5925 Y0.8635  
G01 X-0.5752 Y0.9157  
G01 X-0.5745 Y0.9173  
G01 X-0.5743 Y0.9182  
G01 X-0.5740 Y0.9191  
G01 X-0.5738 Y0.9208  
G01 X-0.5735 Y0.9224  
G01 X-0.5735 Y0.9233  
G01 X-0.5734 Y0.9243  
G01 X-0.5735 Y0.9259  
G01 X-0.5735 Y1.0228  
G01 X-0.5705 Y1.0258  
G01 X-0.5663 Y1.0320  
G01 X-0.5635 Y1.0389  
G01 X-0.5620 Y1.0463  
G01 X-0.5620 Y1.0537  
G01 X-0.5621 Y1.0545  
G01 X-0.5620 Y1.0548  
G01 X-0.5617 Y1.0564  
G01 X-0.5613 Y1.0580  
G01 X-0.5612 Y1.0590  
G01 X-0.5610 Y1.0599  
G01 X-0.5610 Y1.0616  
G01 X-0.5609 Y1.0632  
G01 X-0.5610 Y1.0642  
G01 X-0.5610 Y1.0651  
G01 X-0.5613 Y1.0667  
G01 X-0.5615 Y1.0684  
G01 X-0.5618 Y1.0693  
G01 X-0.5620 Y1.0702  
G01 X-0.5627 Y1.0718  
G01 X-0.5735 Y1.1043  
G01 X-0.5735 Y1.4526  
G01 X-0.5745 Y1.4577  
G01 X-0.5765 Y1.4626  
G01 X-0.5794 Y1.4669  
G01 X-0.5831 Y1.4706  
G01 X-0.7120 Y1.5995  
G01 X-0.7120 Y1.6157  
G01 X-0.7343 Y1.6380  
G01 X-0.7657 Y1.6380  
G01 X-0.7880 Y1.6157  
G01 X-0.7880 Y1.5843  
G01 X-0.7657 Y1.5620  
G01 X-0.7495 Y1.5620  
G01 X-0.6265 Y1.4390  
G01 X-0.6265 Y1.1009  
G01 X-0.6266 Y1.0993  
G01 X-0.6265 Y1.0983  
G01 X-0.6265 Y1.0974  
G01 X-0.6262 Y1.0958  
G01 X-0.6260 Y1.0941  
G01 X-0.6257 Y1.0932  
G01 X-0.6255 Y1.0923  
G01 X-0.6248 Y1.0907  
G01 X-0.6217 Y1.0812  
G01 X-0.6242 Y1.0795  
G01 X-0.6295 Y1.0742  
G01 X-0.6337 Y1.0680  
G01 X-0.6365 Y1.0611  
G01 X-0.6380 Y1.0537  
G01 X-0.6380 Y1.0463  
G01 X-0.6365 Y1.0389  
G01 X-0.6337 Y1.0320  
G01 X-0.6295 Y1.0258  
G01 X-0.6265 Y1.0228  
G01 X-0.6265 Y0.9293  
G01 X-0.6439 Y0.8770  
G01 X-0.6575 Y0.8635  
G01 X-0.6575 Y0.8365  
G01 X-0.6385 Y0.8175  
G01 X-0.6240 Y0.8175  
G01 X-0.5647 Y0.7779  
G01 X-0.5626 Y0.7765  
G01 X-0.5601 Y0.7755  
G01 X-0.5577 Y0.7745  
G01 X-0.5552 Y0.7740  
G01 X-0.5526 Y0.7735  
G01 X-0.5500 Y0.7735  
G01 X-0.5195 Y0.7735  
G01 X-0.5135 Y0.7675  
G01 X-0.5018 Y0.7675  
G01 X-0.3927 Y0.6802  
G01 X-0.3919 Y0.6794  
G01 X-0.3907 Y0.6786  
G01 X-0.3895 Y0.6777  
G01 X-0.3885 Y0.6772  
G01 X-0.3876 Y0.6765  
G01 X-0.3862 Y0.6760  
G01 X-0.3849 Y0.6753  
G01 X-0.3838 Y0.6750  
G01 X-0.3827 Y0.6745  
G01 X-0.3813 Y0.6742  
G01 X-0.3799 Y0.6738  
G01 X-0.3787 Y0.6737  
G01 X-0.3776 Y0.6735  
G01 X-0.3761 Y0.6735  
G01 X-0.3747 Y0.6734  
G01 X-0.3735 Y0.6735  
G01 X-0.2252 Y0.6735  
G01 X-0.2227 Y0.6735  
G01 X-0.2226 Y0.6735  
G01 X-0.2224 Y0.6735  
G01 X-0.2200 Y0.6740  
G01 X-0.2176 Y0.6744  
G01 X-0.2174 Y0.6745  
G01 X-0.2173 Y0.6745  
G01 X-0.2150 Y0.6755  
G01 X-0.2127 Y0.6764  
G01 X-0.2126 Y0.6765  
G01 X-0.2124 Y0.6765  
G01 X-0.2104 Y0.6779  
G01 X-0.2084 Y0.6792  
G01 X-0.2082 Y0.6793  
G01 X-0.2081 Y0.6794  
G01 X-0.2064 Y0.6811  
G01 X-0.2046 Y0.6829  
G01 X-0.2045 Y0.6830  
G01 X-0.2044 Y0.6831  
G01 X-0.2031 Y0.6851  
G01 X-0.2017 Y0.6872  
G01 X-0.2016 Y0.6873  
G01 X-0.2015 Y0.6874  
G01 X-0.2006 Y0.6897  
G01 X-0.1800 Y0.7377  
G01 X-0.0765 Y0.6153  
G01 X-0.0765 Y0.1843  
G01 X-0.1627 Y0.0765  
G01 X-1.7922 Y0.0765  
G01 X-1.8548 Y0.1391  
G01 X-1.8536 Y0.1461  
G01 X-1.8536 Y0.1539  
G01 X-1.8549 Y0.1616  
G01 X-1.8573 Y0.1690  
G01 X-1.8608 Y0.1759  
G01 X-1.8654 Y0.1822  
G01 X-1.8709 Y0.1878  
G01 X-1.8760 Y0.1915  
G01 X-1.8985 Y0.5515  
G01 X-1.8987 Y0.5540  
G01 X-1.8987 Y0.5542  
G01 X-1.8987 Y0.5543  
G01 X-1.8994 Y0.5567  
G01 X-1.9000 Y0.5591  
G01 X-1.9001 Y0.5593  
G01 X-1.9012 Y0.5616  
G01 X-1.9022 Y0.5638  
G01 X-1.9023 Y0.5640  
G01 X-1.9039 Y0.5660  
G01 X-1.9675 Y0.6508  
G01 X-1.9675 Y0.6635  
G01 X-1.9865 Y0.6825  
G01 X-2.0135 Y0.6825  
G01 X-2.0325 Y0.6635  
G01 X-2.0325 Y0.6365  
G01 X-2.0135 Y0.6175  
G01 X-2.0087 Y0.6175  
G01 X-1.9510 Y0.5404  
G01 X-1.9292 Y0.1923  
G01 X-1.9354 Y0.1878  
G01 X-1.9409 Y0.1822  
G01 X-1.9455 Y0.1759  
G01 X-1.9490 Y0.1690  
G01 X-1.9514 Y0.1616  
G01 X-1.9526 Y0.1539  
G01 X-1.9526 Y0.1461  
G01 X-1.9514 Y0.1384  
G01 X-1.9490 Y0.1310  
G01 X-1.9455 Y0.1241  
G01 X-1.9409 Y0.1178  
G01 X-1.9354 Y0.1122  
G01 X-1.9291 Y0.1077  
G01 X-1.9222 Y0.1041  
G01 X-1.9147 Y0.1017  
G01 X-1.9070 Y0.1005  
G01 X-1.8993 Y0.1005  
G01 X-1.8922 Y0.1016  
G01 X-1.8200 Y0.0294  
G01 X-1.8157 Y0.0265  
G01 X-1.8109 Y0.0245  
G01 X-1.8058 Y0.0235  
G01 X-0.1511 Y0.0235  
G01 X-0.1497 Y0.0234  
G01 X-0.1485 Y0.0235  
G01 X-0.1474 Y0.0235  
G01 X-0.1459 Y0.0238  
G01 X-0.1445 Y0.0240  
G01 X-0.1434 Y0.0243  
G01 X-0.1423 Y0.0245  
G01 X-0.1409 Y0.0251  
G01 X-0.1395 Y0.0255  
G01 X-0.1385 Y0.0261  
G01 X-0.1374 Y0.0265  
G01 X-0.1362 Y0.0273  
G01 X-0.1349 Y0.0280  
G01 X-0.1341 Y0.0288  
G01 X-0.1331 Y0.0294  
G01 X-0.1321 Y0.0305  
G01 X-0.1309 Y0.0314  
G00 Z0.0500  
G00 X-0.1654 Y0.1178  
G01 Z-0.0035 F10    
G01 X-0.1608 Y0.1241  F20    
G01 X-0.1573 Y0.1310  
G01 X-0.1549 Y0.1384  
G01 X-0.1536 Y0.1461  
G01 X-0.1536 Y0.1539  
G01 X-0.1549 Y0.1616  
G01 X-0.1573 Y0.1690  
G01 X-0.1608 Y0.1759  
G01 X-0.1654 Y0.1822  
G01 X-0.1709 Y0.1878  
G01 X-0.1772 Y0.1923  
G01 X-0.1841 Y0.1959  
G01 X-0.1916 Y0.1983  
G01 X-0.1993 Y0.1995  
G01 X-0.2070 Y0.1995  
G01 X-0.2147 Y0.1983  
G01 X-0.2222 Y0.1959  
G01 X-0.2291 Y0.1923  
G01 X-0.2338 Y0.1889  
G01 X-0.2777 Y0.2297  
G01 X-0.2779 Y0.2299  
G01 X-0.2799 Y0.2317  
G01 X-0.2819 Y0.2335  
G01 X-0.2821 Y0.2336  
G01 X-0.7135 Y0.6160  
G01 X-0.7275 Y0.7615  
G01 X-0.7276 Y0.7637  
G01 X-0.7278 Y0.7644  
G01 X-0.7279 Y0.7651  
G01 X-0.7287 Y0.7672  
G01 X-0.7294 Y0.7694  
G01 X-0.7297 Y0.7700  
G01 X-0.7300 Y0.7707  
G01 X-0.7313 Y0.7725  
G01 X-0.8532 Y0.9675  
G01 X-0.8365 Y0.9675  
G01 X-0.8175 Y0.9865  
G01 X-0.8175 Y1.0135  
G01 X-0.8365 Y1.0325  
G01 X-0.8635 Y1.0325  
G01 X-0.8735 Y1.0225  
G01 X-0.8974 Y1.0225  
G01 X-0.8978 Y1.0226  
G01 X-0.9004 Y1.0225  
G01 X-0.9265 Y1.0225  
G01 X-0.9365 Y1.0325  
G01 X-0.9507 Y1.0325  
G01 X-1.0570 Y1.1388  
G01 X-1.0612 Y1.1430  
G01 X-1.0663 Y1.1460  
G01 X-1.0720 Y1.1475  
G01 X-1.3243 Y1.1475  
G01 X-1.3266 Y1.1476  
G01 X-1.3273 Y1.1475  
G01 X-1.3280 Y1.1475  
G01 X-1.3302 Y1.1469  
G01 X-1.3324 Y1.1464  
G01 X-1.3330 Y1.1461  
G01 X-1.3337 Y1.1460  
G01 X-1.3357 Y1.1448  
G01 X-1.3377 Y1.1438  
G01 X-1.3382 Y1.1433  
G01 X-1.3388 Y1.1430  
G01 X-1.3404 Y1.1414  
G01 X-1.3421 Y1.1399  
G01 X-1.3425 Y1.1393  
G01 X-1.3430 Y1.1388  
G01 X-1.3441 Y1.1368  
G01 X-1.3454 Y1.1349  
G01 X-1.3456 Y1.1343  
G01 X-1.3460 Y1.1337  
G01 X-1.3466 Y1.1315  
G01 X-1.3639 Y1.0794  
G01 X-1.3654 Y1.0788  
G01 X-1.3707 Y1.0752  
G01 X-1.3752 Y1.0707  
G01 X-1.3788 Y1.0654  
G01 X-1.3813 Y1.0595  
G01 X-1.3825 Y1.0532  
G01 X-1.3825 Y1.0468  
G01 X-1.3813 Y1.0405  
G01 X-1.3788 Y1.0346  
G01 X-1.3752 Y1.0293  
G01 X-1.3707 Y1.0248  
G01 X-1.3654 Y1.0212  
G01 X-1.3595 Y1.0187  
G01 X-1.3532 Y1.0175  
G01 X-1.3468 Y1.0175  
G01 X-1.3405 Y1.0187  
G01 X-1.3346 Y1.0212  
G01 X-1.3293 Y1.0248  
G01 X-1.3248 Y1.0293  
G01 X-1.3212 Y1.0346  
G01 X-1.3187 Y1.0405  
G01 X-1.3175 Y1.0468  
G01 X-1.3175 Y1.0532  
G01 X-1.3187 Y1.0595  
G01 X-1.3212 Y1.0653  
G01 X-1.3088 Y1.1025  
G01 X-1.1325 Y1.1025  
G01 X-1.1325 Y1.0865  
G01 X-1.1135 Y1.0675  
G01 X-1.0865 Y1.0675  
G01 X-1.0679 Y1.0861  
G01 X-0.9825 Y1.0007  
G01 X-0.9825 Y0.9865  
G01 X-0.9635 Y0.9675  
G01 X-0.9365 Y0.9675  
G01 X-0.9265 Y0.9775  
G01 X-0.9125 Y0.9775  
G01 X-0.7719 Y0.7526  
G01 X-0.7574 Y0.6032  
G01 X-0.7573 Y0.6007  
G01 X-0.7571 Y0.6003  
G01 X-0.7571 Y0.5999  
G01 X-0.7562 Y0.5975  
G01 X-0.7554 Y0.5951  
G01 X-0.7552 Y0.5947  
G01 X-0.7550 Y0.5943  
G01 X-0.7535 Y0.5923  
G01 X-0.7521 Y0.5901  
G01 X-0.7518 Y0.5899  
G01 X-0.7516 Y0.5895  
G01 X-0.7496 Y0.5879  
G01 X-0.3101 Y0.1983  
G01 X-0.2524 Y0.1448  
G01 X-0.2514 Y0.1384  
G01 X-0.2490 Y0.1310  
G01 X-0.2455 Y0.1241  
G01 X-0.2409 Y0.1178  
G01 X-0.2354 Y0.1122  
G01 X-0.2291 Y0.1077  
G01 X-0.2222 Y0.1041  
G01 X-0.2147 Y0.1017  
G01 X-0.2070 Y0.1005  
G01 X-0.1993 Y0.1005  
G01 X-0.1916 Y0.1017  
G01 X-0.1841 Y0.1041  
G01 X-0.1772 Y0.1077  
G01 X-0.1709 Y0.1122  
G01 X-0.1654 Y0.1178  
G00 Z0.0500  
G00 X-0.3622 Y0.1178  
G01 Z-0.0035 F10    
G01 X-0.3577 Y0.1241  F20    
G01 X-0.3541 Y0.1310  
G01 X-0.3517 Y0.1384  
G01 X-0.3505 Y0.1461  
G01 X-0.3505 Y0.1539  
G01 X-0.3517 Y0.1616  
G01 X-0.3541 Y0.1690  
G01 X-0.3577 Y0.1759  
G01 X-0.3622 Y0.1822  
G01 X-0.3678 Y0.1878  
G01 X-0.3741 Y0.1923  
G01 X-0.3810 Y0.1959  
G01 X-0.3884 Y0.1983  
G01 X-0.3961 Y0.1995  
G01 X-0.4039 Y0.1995  
G01 X-0.4116 Y0.1983  
G01 X-0.4153 Y0.1971  
G01 X-0.7862 Y0.5680  
G01 X-0.7913 Y0.5710  
G01 X-0.7970 Y0.5725  
G01 X-0.8693 Y0.5725  
G01 X-0.8705 Y0.5742  
G01 X-0.8758 Y0.5795  
G01 X-0.8820 Y0.5837  
G01 X-0.8889 Y0.5865  
G01 X-0.8963 Y0.5880  
G01 X-0.9037 Y0.5880  
G01 X-0.9111 Y0.5865  
G01 X-0.9180 Y0.5837  
G01 X-0.9242 Y0.5795  
G01 X-0.9295 Y0.5742  
G01 X-0.9337 Y0.5680  
G01 X-0.9365 Y0.5611  
G01 X-0.9380 Y0.5537  
G01 X-0.9380 Y0.5463  
G01 X-0.9365 Y0.5389  
G01 X-0.9337 Y0.5320  
G01 X-0.9295 Y0.5258  
G01 X-0.9242 Y0.5205  
G01 X-0.9180 Y0.5163  
G01 X-0.9111 Y0.5135  
G01 X-0.9037 Y0.5120  
G01 X-0.8963 Y0.5120  
G01 X-0.8889 Y0.5135  
G01 X-0.8820 Y0.5163  
G01 X-0.8758 Y0.5205  
G01 X-0.8705 Y0.5258  
G01 X-0.8693 Y0.5275  
G01 X-0.8093 Y0.5275  
G01 X-0.4471 Y0.1653  
G01 X-0.4483 Y0.1616  
G01 X-0.4495 Y0.1539  
G01 X-0.4495 Y0.1461  
G01 X-0.4483 Y0.1384  
G01 X-0.4459 Y0.1310  
G01 X-0.4423 Y0.1241  
G01 X-0.4378 Y0.1178  
G01 X-0.4322 Y0.1122  
G01 X-0.4259 Y0.1077  
G01 X-0.4190 Y0.1041  
G01 X-0.4116 Y0.1017  
G01 X-0.4039 Y0.1005  
G01 X-0.3961 Y0.1005  
G01 X-0.3884 Y0.1017  
G01 X-0.3810 Y0.1041  
G01 X-0.3741 Y0.1077  
G01 X-0.3678 Y0.1122  
G01 X-0.3622 Y0.1178  
G00 Z0.0500  
G00 X-0.5591 Y0.1178  
G01 Z-0.0035 F10    
G01 X-0.5545 Y0.1241  F20    
G01 X-0.5510 Y0.1310  
G01 X-0.5486 Y0.1384  
G01 X-0.5474 Y0.1461  
G01 X-0.5474 Y0.1539  
G01 X-0.5486 Y0.1616  
G01 X-0.5510 Y0.1690  
G01 X-0.5545 Y0.1759  
G01 X-0.5591 Y0.1822  
G01 X-0.5646 Y0.1878  
G01 X-0.5709 Y0.1923  
G01 X-0.5778 Y0.1959  
G01 X-0.5853 Y0.1983  
G01 X-0.5930 Y0.1995  
G01 X-0.6007 Y0.1995  
G01 X-0.6084 Y0.1983  
G01 X-0.6159 Y0.1959  
G01 X-0.6228 Y0.1923  
G01 X-0.6291 Y0.1878  
G01 X-0.6346 Y0.1822  
G01 X-0.6392 Y0.1759  
G01 X-0.6427 Y0.1690  
G01 X-0.6451 Y0.1616  
G01 X-0.6464 Y0.1539  
G01 X-0.6464 Y0.1461  
G01 X-0.6451 Y0.1384  
G01 X-0.6427 Y0.1310  
G01 X-0.6392 Y0.1241  
G01 X-0.6346 Y0.1178  
G01 X-0.6291 Y0.1122  
G01 X-0.6228 Y0.1077  
G01 X-0.6159 Y0.1041  
G01 X-0.6084 Y0.1017  
G01 X-0.6007 Y0.1005  
G01 X-0.5930 Y0.1005  
G01 X-0.5853 Y0.1017  
G01 X-0.5778 Y0.1041  
G01 X-0.5709 Y0.1077  
G01 X-0.5646 Y0.1122  
G01 X-0.5591 Y0.1178  
G00 Z0.0500  
G00 X-1.0154 Y0.1178  
G01 Z-0.0035 F10    
G01 X-1.0108 Y0.1241  F20    
G01 X-1.0073 Y0.1310  
G01 X-1.0049 Y0.1384  
G01 X-1.0036 Y0.1461  
G01 X-1.0036 Y0.1539  
G01 X-1.0049 Y0.1616  
G01 X-1.0073 Y0.1690  
G01 X-1.0108 Y0.1759  
G01 X-1.0154 Y0.1822  
G01 X-1.0209 Y0.1878  
G01 X-1.0272 Y0.1923  
G01 X-1.0341 Y0.1959  
G01 X-1.0416 Y0.1983  
G01 X-1.0493 Y0.1995  
G01 X-1.0570 Y0.1995  
G01 X-1.0647 Y0.1983  
G01 X-1.0722 Y0.1959  
G01 X-1.0791 Y0.1923  
G01 X-1.0854 Y0.1878  
G01 X-1.0909 Y0.1822  
G01 X-1.0955 Y0.1759  
G01 X-1.0972 Y0.1725  
G01 X-1.2059 Y0.1725  
G01 X-1.2077 Y0.1759  
G01 X-1.2122 Y0.1822  
G01 X-1.2178 Y0.1878  
G01 X-1.2241 Y0.1923  
G01 X-1.2275 Y0.1941  
G01 X-1.2275 Y0.3765  
G01 X-1.2175 Y0.3865  
G01 X-1.2175 Y0.4135  
G01 X-1.2275 Y0.4235  
G01 X-1.2275 Y0.4483  
G01 X-1.2273 Y0.4495  
G01 X-1.2275 Y0.4512  
G01 X-1.2275 Y0.4530  
G01 X-1.2278 Y0.4542  
G01 X-1.2280 Y0.4554  
G01 X-1.2286 Y0.4570  
G01 X-1.2290 Y0.4587  
G01 X-1.2297 Y0.4598  
G01 X-1.2301 Y0.4609  
G01 X-1.2311 Y0.4623  
G01 X-1.2320 Y0.4638  
G01 X-1.2329 Y0.4647  
G01 X-1.2336 Y0.4657  
G01 X-1.2350 Y0.4668  
G01 X-1.2362 Y0.4680  
G01 X-1.2373 Y0.4686  
G01 X-1.3350 Y0.5468  
G01 X-1.3362 Y0.5480  
G01 X-1.3373 Y0.5486  
G01 X-1.3383 Y0.5494  
G01 X-1.3398 Y0.5501  
G01 X-1.3413 Y0.5510  
G01 X-1.3425 Y0.5513  
G01 X-1.3437 Y0.5518  
G01 X-1.3454 Y0.5521  
G01 X-1.3470 Y0.5525  
G01 X-1.3483 Y0.5525  
G01 X-1.3495 Y0.5527  
G01 X-1.3512 Y0.5525  
G01 X-1.7400 Y0.5525  
G01 X-1.9317 Y0.7633  
G01 X-1.9320 Y0.7638  
G01 X-1.9337 Y0.7655  
G01 X-1.9353 Y0.7673  
G01 X-1.9358 Y0.7676  
G01 X-1.9362 Y0.7680  
G01 X-1.9383 Y0.7692  
G01 X-1.9403 Y0.7705  
G01 X-1.9408 Y0.7707  
G01 X-1.9413 Y0.7710  
G01 X-1.9437 Y0.7716  
G01 X-1.9460 Y0.7723  
G01 X-1.9465 Y0.7724  
G01 X-1.9470 Y0.7725  
G01 X-1.9495 Y0.7725  
G01 X-1.9519 Y0.7726  
G01 X-1.9524 Y0.7725  
G01 X-2.0228 Y0.7725  
G01 X-2.0235 Y0.7726  
G01 X-2.0257 Y0.7725  
G01 X-2.0280 Y0.7725  
G01 X-2.0287 Y0.7723  
G01 X-2.0294 Y0.7723  
G01 X-2.0315 Y0.7715  
G01 X-2.0337 Y0.7710  
G01 X-2.0343 Y0.7706  
G01 X-2.0350 Y0.7704  
G01 X-2.0369 Y0.7691  
G01 X-2.0388 Y0.7680  
G01 X-2.0393 Y0.7675  
G01 X-2.1119 Y0.7191  
G01 X-2.1138 Y0.7180  
G01 X-2.1143 Y0.7175  
G01 X-2.1149 Y0.7171  
G01 X-2.1164 Y0.7154  
G01 X-2.1180 Y0.7138  
G01 X-2.1184 Y0.7132  
G01 X-2.1189 Y0.7126  
G01 X-2.1198 Y0.7106  
G01 X-2.1210 Y0.7087  
G01 X-2.1212 Y0.7080  
G01 X-2.1215 Y0.7073  
G01 X-2.1219 Y0.7051  
G01 X-2.1225 Y0.7030  
G01 X-2.1225 Y0.7022  
G01 X-2.1226 Y0.7015  
G01 X-2.1225 Y0.6993  
G01 X-2.1225 Y0.5270  
G01 X-2.1227 Y0.5260  
G01 X-2.1225 Y0.5240  
G01 X-2.1225 Y0.5220  
G01 X-2.1222 Y0.5211  
G01 X-2.1222 Y0.5201  
G01 X-2.1215 Y0.5182  
G01 X-2.1210 Y0.5163  
G01 X-2.1205 Y0.5155  
G01 X-2.0225 Y0.2460  
G01 X-2.0225 Y0.1093  
G01 X-2.0593 Y0.0725  
G01 X-2.9907 Y0.0725  
G01 X-3.0275 Y0.1093  
G01 X-3.0275 Y0.5530  
G01 X-3.0290 Y0.5587  
G01 X-3.0320 Y0.5638  
G01 X-3.0820 Y0.6138  
G01 X-3.0862 Y0.6180  
G01 X-3.0913 Y0.6210  
G01 X-3.0970 Y0.6225  
G01 X-3.1188 Y0.6225  
G01 X-3.1343 Y0.6380  
G01 X-3.1562 Y0.6380  
G01 X-3.2175 Y0.6993  
G01 X-3.2175 Y0.7135  
G01 X-3.2365 Y0.7325  
G01 X-3.2635 Y0.7325  
G01 X-3.2825 Y0.7135  
G01 X-3.2825 Y0.6865  
G01 X-3.2635 Y0.6675  
G01 X-3.2493 Y0.6675  
G01 X-3.1880 Y0.6062  
G01 X-3.1880 Y0.5843  
G01 X-3.1657 Y0.5620  
G01 X-3.1343 Y0.5620  
G01 X-3.1188 Y0.5775  
G01 X-3.1093 Y0.5775  
G01 X-3.0725 Y0.5407  
G01 X-3.0725 Y0.0970  
G01 X-3.0710 Y0.0913  
G01 X-3.0680 Y0.0862  
G01 X-3.0638 Y0.0820  
G01 X-3.0138 Y0.0320  
G01 X-3.0087 Y0.0290  
G01 X-3.0030 Y0.0275  
G01 X-2.0470 Y0.0275  
G01 X-2.0413 Y0.0290  
G01 X-2.0362 Y0.0320  
G01 X-2.0320 Y0.0362  
G01 X-1.9820 Y0.0862  
G01 X-1.9790 Y0.0913  
G01 X-1.9775 Y0.0970  
G01 X-1.9775 Y0.2480  
G01 X-1.9773 Y0.2490  
G01 X-1.9775 Y0.2510  
G01 X-1.9775 Y0.2530  
G01 X-1.9778 Y0.2539  
G01 X-1.9778 Y0.2549  
G01 X-1.9785 Y0.2568  
G01 X-1.9790 Y0.2587  
G01 X-1.9795 Y0.2595  
G01 X-2.0775 Y0.5290  
G01 X-2.0775 Y0.6880  
G01 X-2.0182 Y0.7275  
G01 X-1.9600 Y0.7275  
G01 X-1.7683 Y0.5167  
G01 X-1.7680 Y0.5162  
G01 X-1.7663 Y0.5145  
G01 X-1.7647 Y0.5127  
G01 X-1.7642 Y0.5124  
G01 X-1.7638 Y0.5120  
G01 X-1.7617 Y0.5108  
G01 X-1.7597 Y0.5095  
G01 X-1.7592 Y0.5093  
G01 X-1.7587 Y0.5090  
G01 X-1.7563 Y0.5084  
G01 X-1.7540 Y0.5077  
G01 X-1.7535 Y0.5076  
G01 X-1.7530 Y0.5075  
G01 X-1.7505 Y0.5075  
G01 X-1.7481 Y0.5074  
G01 X-1.7476 Y0.5075  
G01 X-1.3579 Y0.5075  
G01 X-1.2725 Y0.4392  
G01 X-1.2725 Y0.4235  
G01 X-1.2825 Y0.4135  
G01 X-1.2825 Y0.3865  
G01 X-1.2725 Y0.3765  
G01 X-1.2725 Y0.1941  
G01 X-1.2759 Y0.1923  
G01 X-1.2822 Y0.1878  
G01 X-1.2878 Y0.1822  
G01 X-1.2923 Y0.1759  
G01 X-1.2959 Y0.1690  
G01 X-1.2983 Y0.1616  
G01 X-1.2995 Y0.1539  
G01 X-1.2995 Y0.1461  
G01 X-1.2983 Y0.1384  
G01 X-1.2959 Y0.1310  
G01 X-1.2923 Y0.1241  
G01 X-1.2878 Y0.1178  
G01 X-1.2822 Y0.1122  
G01 X-1.2759 Y0.1077  
G01 X-1.2690 Y0.1041  
G01 X-1.2616 Y0.1017  
G01 X-1.2539 Y0.1005  
G01 X-1.2461 Y0.1005  
G01 X-1.2384 Y0.1017  
G01 X-1.2310 Y0.1041  
G01 X-1.2241 Y0.1077  
G01 X-1.2178 Y0.1122  
G01 X-1.2122 Y0.1178  
G01 X-1.2077 Y0.1241  
G01 X-1.2059 Y0.1275  
G01 X-1.0972 Y0.1275  
G01 X-1.0955 Y0.1241  
G01 X-1.0909 Y0.1178  
G01 X-1.0854 Y0.1122  
G01 X-1.0791 Y0.1077  
G01 X-1.0722 Y0.1041  
G01 X-1.0647 Y0.1017  
G01 X-1.0570 Y0.1005  
G01 X-1.0493 Y0.1005  
G01 X-1.0416 Y0.1017  
G01 X-1.0341 Y0.1041  
G01 X-1.0272 Y0.1077  
G01 X-1.0209 Y0.1122  
G01 X-1.0154 Y0.1178  
G00 Z0.0500  
G00 X-1.4091 Y0.1178  
G01 Z-0.0035 F10    
G01 X-1.4045 Y0.1241  F20    
G01 X-1.4010 Y0.1310  
G01 X-1.3986 Y0.1384  
G01 X-1.3974 Y0.1461  
G01 X-1.3974 Y0.1539  
G01 X-1.3986 Y0.1616  
G01 X-1.4010 Y0.1690  
G01 X-1.4045 Y0.1759  
G01 X-1.4091 Y0.1822  
G01 X-1.4146 Y0.1878  
G01 X-1.4209 Y0.1923  
G01 X-1.4275 Y0.1957  
G01 X-1.4275 Y0.3765  
G01 X-1.4175 Y0.3865  
G01 X-1.4175 Y0.4135  
G01 X-1.4365 Y0.4325  
G01 X-1.4635 Y0.4325  
G01 X-1.4682 Y0.4277  
G01 X-1.6196 Y0.4656  
G01 X-1.6365 Y0.4825  
G01 X-1.6635 Y0.4825  
G01 X-1.6825 Y0.4635  
G01 X-1.6825 Y0.4365  
G01 X-1.6635 Y0.4175  
G01 X-1.6365 Y0.4175  
G01 X-1.6318 Y0.4223  
G01 X-1.4804 Y0.3844  
G01 X-1.4725 Y0.3765  
G01 X-1.4725 Y0.1925  
G01 X-1.4728 Y0.1923  
G01 X-1.4791 Y0.1878  
G01 X-1.4846 Y0.1822  
G01 X-1.4892 Y0.1759  
G01 X-1.4927 Y0.1690  
G01 X-1.4951 Y0.1616  
G01 X-1.4964 Y0.1539  
G01 X-1.4964 Y0.1461  
G01 X-1.4951 Y0.1384  
G01 X-1.4927 Y0.1310  
G01 X-1.4892 Y0.1241  
G01 X-1.4846 Y0.1178  
G01 X-1.4791 Y0.1122  
G01 X-1.4728 Y0.1077  
G01 X-1.4659 Y0.1041  
G01 X-1.4584 Y0.1017  
G01 X-1.4507 Y0.1005  
G01 X-1.4430 Y0.1005  
G01 X-1.4353 Y0.1017  
G01 X-1.4278 Y0.1041  
G01 X-1.4209 Y0.1077  
G01 X-1.4146 Y0.1122  
G01 X-1.4091 Y0.1178  
G00 Z0.0500  
G00 X-2.0622 Y0.1178  
G01 Z-0.0035 F10    
G01 X-2.0577 Y0.1241  F20    
G01 X-2.0541 Y0.1310  
G01 X-2.0517 Y0.1384  
G01 X-2.0505 Y0.1461  
G01 X-2.0505 Y0.1539  
G01 X-2.0517 Y0.1616  
G01 X-2.0541 Y0.1690  
G01 X-2.0577 Y0.1759  
G01 X-2.0622 Y0.1822  
G01 X-2.0678 Y0.1878  
G01 X-2.0741 Y0.1923  
G01 X-2.0810 Y0.1959  
G01 X-2.0884 Y0.1983  
G01 X-2.0961 Y0.1995  
G01 X-2.1039 Y0.1995  
G01 X-2.1116 Y0.1983  
G01 X-2.1153 Y0.1971  
G01 X-2.3960 Y0.4778  
G01 X-2.3913 Y0.4790  
G01 X-2.3862 Y0.4820  
G01 X-2.3820 Y0.4862  
G01 X-2.3320 Y0.5362  
G01 X-2.3290 Y0.5413  
G01 X-2.3275 Y0.5470  
G01 X-2.3275 Y0.6472  
G01 X-2.3275 Y0.6474  
G01 X-2.3275 Y0.6502  
G01 X-2.3275 Y0.6530  
G01 X-2.3275 Y0.6531  
G01 X-2.3276 Y0.6533  
G01 X-2.3283 Y0.6560  
G01 X-2.3290 Y0.6587  
G01 X-2.3291 Y0.6589  
G01 X-2.3292 Y0.6590  
G01 X-2.3306 Y0.6614  
G01 X-2.3320 Y0.6638  
G01 X-2.3321 Y0.6640  
G01 X-2.3574 Y0.7061  
G01 X-2.3479 Y1.2761  
G01 X-2.3375 Y1.2865  
G01 X-2.3375 Y1.3135  
G01 X-2.3565 Y1.3325  
G01 X-2.3835 Y1.3325  
G01 X-2.4025 Y1.3135  
G01 X-2.4025 Y1.2865  
G01 X-2.3929 Y1.2769  
G01 X-2.4025 Y0.7030  
G01 X-2.4025 Y0.7026  
G01 X-2.4025 Y0.7000  
G01 X-2.4025 Y0.6974  
G01 X-2.4025 Y0.6970  
G01 X-2.4024 Y0.6967  
G01 X-2.4017 Y0.6942  
G01 X-2.4011 Y0.6917  
G01 X-2.4009 Y0.6913  
G01 X-2.4008 Y0.6910  
G01 X-2.3995 Y0.6887  
G01 X-2.3982 Y0.6865  
G01 X-2.3980 Y0.6862  
G01 X-2.3725 Y0.6438  
G01 X-2.3725 Y0.5593  
G01 X-2.4093 Y0.5225  
G01 X-2.4265 Y0.5225  
G01 X-2.4365 Y0.5325  
G01 X-2.4635 Y0.5325  
G01 X-2.4825 Y0.5135  
G01 X-2.4825 Y0.4865  
G01 X-2.4635 Y0.4675  
G01 X-2.4493 Y0.4675  
G01 X-2.1471 Y0.1653  
G01 X-2.1483 Y0.1616  
G01 X-2.1495 Y0.1539  
G01 X-2.1495 Y0.1461  
G01 X-2.1483 Y0.1384  
G01 X-2.1459 Y0.1310  
G01 X-2.1423 Y0.1241  
G01 X-2.1378 Y0.1178  
G01 X-2.1322 Y0.1122  
G01 X-2.1259 Y0.1077  
G01 X-2.1190 Y0.1041  
G01 X-2.1116 Y0.1017  
G01 X-2.1039 Y0.1005  
G01 X-2.0961 Y0.1005  
G01 X-2.0884 Y0.1017  
G01 X-2.0810 Y0.1041  
G01 X-2.0741 Y0.1077  
G01 X-2.0678 Y0.1122  
G01 X-2.0622 Y0.1178  
G00 Z0.0500  
G00 X-2.2591 Y0.1178  
G01 Z-0.0035 F10    
G01 X-2.2545 Y0.1241  F20    
G01 X-2.2510 Y0.1310  
G01 X-2.2486 Y0.1384  
G01 X-2.2474 Y0.1461  
G01 X-2.2474 Y0.1539  
G01 X-2.2486 Y0.1616  
G01 X-2.2510 Y0.1690  
G01 X-2.2545 Y0.1759  
G01 X-2.2591 Y0.1822  
G01 X-2.2646 Y0.1878  
G01 X-2.2709 Y0.1923  
G01 X-2.2778 Y0.1959  
G01 X-2.2853 Y0.1983  
G01 X-2.2930 Y0.1995  
G01 X-2.3007 Y0.1995  
G01 X-2.3084 Y0.1983  
G01 X-2.3159 Y0.1959  
G01 X-2.3228 Y0.1923  
G01 X-2.3291 Y0.1878  
G01 X-2.3346 Y0.1822  
G01 X-2.3392 Y0.1759  
G01 X-2.3427 Y0.1690  
G01 X-2.3451 Y0.1616  
G01 X-2.3464 Y0.1539  
G01 X-2.3464 Y0.1461  
G01 X-2.3451 Y0.1384  
G01 X-2.3427 Y0.1310  
G01 X-2.3392 Y0.1241  
G01 X-2.3346 Y0.1178  
G01 X-2.3291 Y0.1122  
G01 X-2.3228 Y0.1077  
G01 X-2.3159 Y0.1041  
G01 X-2.3084 Y0.1017  
G01 X-2.3007 Y0.1005  
G01 X-2.2930 Y0.1005  
G01 X-2.2853 Y0.1017  
G01 X-2.2778 Y0.1041  
G01 X-2.2709 Y0.1077  
G01 X-2.2646 Y0.1122  
G01 X-2.2591 Y0.1178  
G00 Z0.0500  
G00 X-2.4925 Y0.5365  
G01 Z-0.0035 F10    
G01 X-2.4925 Y0.5635  F20    
G01 X-2.5115 Y0.5825  
G01 X-2.5385 Y0.5825  
G01 X-2.5485 Y0.5725  
G01 X-2.5594 Y0.5725  
G01 X-2.6200 Y0.7340  
G01 X-2.6175 Y0.7365  
G01 X-2.6175 Y0.7635  
G01 X-2.6365 Y0.7825  
G01 X-2.6635 Y0.7825  
G01 X-2.6825 Y0.7635  
G01 X-2.6825 Y0.7365  
G01 X-2.6635 Y0.7175  
G01 X-2.6618 Y0.7175  
G01 X-2.5965 Y0.5431  
G01 X-2.5960 Y0.5413  
G01 X-2.5954 Y0.5404  
G01 X-2.5950 Y0.5393  
G01 X-2.5939 Y0.5378  
G01 X-2.5930 Y0.5362  
G01 X-2.5922 Y0.5354  
G01 X-2.5916 Y0.5345  
G01 X-2.5901 Y0.5333  
G01 X-2.5888 Y0.5320  
G01 X-2.5879 Y0.5314  
G01 X-2.5870 Y0.5307  
G01 X-2.5853 Y0.5300  
G01 X-2.5837 Y0.5290  
G01 X-2.5826 Y0.5287  
G01 X-2.5816 Y0.5283  
G01 X-2.5798 Y0.5280  
G01 X-2.5780 Y0.5275  
G01 X-2.5769 Y0.5275  
G01 X-2.5758 Y0.5273  
G01 X-2.5739 Y0.5275  
G01 X-2.5485 Y0.5275  
G01 X-2.5385 Y0.5175  
G01 X-2.5115 Y0.5175  
G01 X-2.4925 Y0.5365  
G00 Z0.0500  
G00 X-2.8258 Y0.5295  
G01 Z-0.0035 F10    
G01 X-2.8320 Y0.5337  F20    
G01 X-2.8389 Y0.5365  
G01 X-2.8463 Y0.5380  
G01 X-2.8537 Y0.5380  
G01 X-2.8611 Y0.5365  
G01 X-2.8680 Y0.5337  
G01 X-2.8742 Y0.5295  
G01 X-2.8795 Y0.5242  
G01 X-2.8837 Y0.5180  
G01 X-2.8865 Y0.5111  
G01 X-2.8880 Y0.5037  
G01 X-2.8880 Y0.4963  
G01 X-2.8865 Y0.4889  
G01 X-2.8837 Y0.4820  
G01 X-2.8801 Y0.4766  
G01 X-2.9595 Y0.1986  
G01 X-2.9616 Y0.1983  
G01 X-2.9690 Y0.1959  
G01 X-2.9759 Y0.1923  
G01 X-2.9822 Y0.1878  
G01 X-2.9878 Y0.1822  
G01 X-2.9923 Y0.1759  
G01 X-2.9959 Y0.1690  
G01 X-2.9983 Y0.1616  
G01 X-2.9995 Y0.1539  
G01 X-2.9995 Y0.1461  
G01 X-2.9983 Y0.1384  
G01 X-2.9959 Y0.1310  
G01 X-2.9923 Y0.1241  
G01 X-2.9878 Y0.1178  
G01 X-2.9822 Y0.1122  
G01 X-2.9759 Y0.1077  
G01 X-2.9690 Y0.1041  
G01 X-2.9616 Y0.1017  
G01 X-2.9539 Y0.1005  
G01 X-2.9461 Y0.1005  
G01 X-2.9384 Y0.1017  
G01 X-2.9310 Y0.1041  
G01 X-2.9241 Y0.1077  
G01 X-2.9178 Y0.1122  
G01 X-2.9122 Y0.1178  
G01 X-2.9077 Y0.1241  
G01 X-2.9041 Y0.1310  
G01 X-2.9017 Y0.1384  
G01 X-2.9005 Y0.1461  
G01 X-2.9005 Y0.1539  
G01 X-2.9017 Y0.1616  
G01 X-2.9041 Y0.1690  
G01 X-2.9077 Y0.1759  
G01 X-2.9122 Y0.1822  
G01 X-2.9162 Y0.1862  
G01 X-2.8368 Y0.4643  
G01 X-2.8320 Y0.4663  
G01 X-2.8258 Y0.4705  
G01 X-2.8205 Y0.4758  
G01 X-2.8163 Y0.4820  
G01 X-2.8135 Y0.4889  
G01 X-2.8120 Y0.4963  
G01 X-2.8120 Y0.5037  
G01 X-2.8135 Y0.5111  
G01 X-2.8163 Y0.5180  
G01 X-2.8205 Y0.5242  
G01 X-2.8258 Y0.5295  
G00 Z0.0500  
G00 X-2.8343 Y0.5620  
G01 Z-0.0035 F10    
G01 X-2.8120 Y0.5843  F20    
G01 X-2.8120 Y0.6157  
G01 X-2.8240 Y0.6277  
G01 X-2.7990 Y0.8359  
G01 X-2.5622 Y0.9675  
G01 X-2.5365 Y0.9675  
G01 X-2.5175 Y0.9865  
G01 X-2.5175 Y1.0135  
G01 X-2.5365 Y1.0325  
G01 X-2.5635 Y1.0325  
G01 X-2.5825 Y1.0135  
G01 X-2.5825 Y1.0077  
G01 X-2.8299 Y0.8702  
G01 X-2.8316 Y0.8695  
G01 X-2.8325 Y0.8688  
G01 X-2.8335 Y0.8682  
G01 X-2.8348 Y0.8670  
G01 X-2.8362 Y0.8659  
G01 X-2.8369 Y0.8649  
G01 X-2.8378 Y0.8641  
G01 X-2.8387 Y0.8626  
G01 X-2.8398 Y0.8611  
G01 X-2.8402 Y0.8600  
G01 X-2.8408 Y0.8590  
G01 X-2.8413 Y0.8573  
G01 X-2.8420 Y0.8556  
G01 X-2.8421 Y0.8545  
G01 X-2.8424 Y0.8533  
G01 X-2.8425 Y0.8515  
G01 X-2.8684 Y0.6353  
G01 X-2.8880 Y0.6157  
G01 X-2.8880 Y0.5843  
G01 X-2.8657 Y0.5620  
G01 X-2.8343 Y0.5620  
G00 Z0.0500  
G00 X-2.9175 Y0.7365  
G01 Z-0.0035 F10    
G01 X-2.9175 Y0.7635  F20    
G01 X-2.9275 Y0.7735  
G01 X-2.9275 Y1.0515  
G01 X-2.9175 Y1.0615  
G01 X-2.9175 Y1.0885  
G01 X-2.9275 Y1.0985  
G01 X-2.9275 Y1.1722  
G01 X-2.9275 Y1.1724  
G01 X-2.9275 Y1.1752  
G01 X-2.9275 Y1.1780  
G01 X-2.9275 Y1.1781  
G01 X-2.9276 Y1.1783  
G01 X-2.9283 Y1.1810  
G01 X-2.9290 Y1.1837  
G01 X-2.9291 Y1.1839  
G01 X-2.9292 Y1.1840  
G01 X-2.9306 Y1.1864  
G01 X-2.9320 Y1.1888  
G01 X-2.9321 Y1.1890  
G01 X-3.0775 Y1.4312  
G01 X-3.0775 Y1.6907  
G01 X-3.0257 Y1.7425  
G01 X-3.0115 Y1.7425  
G01 X-2.9925 Y1.7615  
G01 X-2.9925 Y1.7885  
G01 X-2.9982 Y1.7942  
G01 X-2.9793 Y1.8889  
G01 X-2.9507 Y1.9175  
G01 X-2.9365 Y1.9175  
G01 X-2.9175 Y1.9365  
G01 X-2.9175 Y1.9635  
G01 X-2.9365 Y1.9825  
G01 X-2.9635 Y1.9825  
G01 X-2.9825 Y1.9635  
G01 X-2.9825 Y1.9493  
G01 X-3.0143 Y1.9175  
G01 X-3.0149 Y1.9171  
G01 X-3.0164 Y1.9154  
G01 X-3.0180 Y1.9138  
G01 X-3.0184 Y1.9132  
G01 X-3.0189 Y1.9126  
G01 X-3.0198 Y1.9106  
G01 X-3.0210 Y1.9087  
G01 X-3.0212 Y1.9080  
G01 X-3.0215 Y1.9073  
G01 X-3.0219 Y1.9051  
G01 X-3.0225 Y1.9030  
G01 X-3.0225 Y1.9022  
G01 X-3.0422 Y1.8038  
G01 X-3.0575 Y1.7885  
G01 X-3.0575 Y1.7743  
G01 X-3.1180 Y1.7138  
G01 X-3.1210 Y1.7087  
G01 X-3.1225 Y1.7030  
G01 X-3.1225 Y1.4278  
G01 X-3.1225 Y1.4276  
G01 X-3.1225 Y1.4248  
G01 X-3.1225 Y1.4220  
G01 X-3.1225 Y1.4219  
G01 X-3.1224 Y1.4217  
G01 X-3.1217 Y1.4190  
G01 X-3.1210 Y1.4163  
G01 X-3.1209 Y1.4161  
G01 X-3.1208 Y1.4160  
G01 X-3.1194 Y1.4136  
G01 X-3.1180 Y1.4112  
G01 X-3.1179 Y1.4110  
G01 X-2.9725 Y1.1688  
G01 X-2.9725 Y1.0985  
G01 X-2.9825 Y1.0885  
G01 X-2.9825 Y1.0615  
G01 X-2.9725 Y1.0515  
G01 X-2.9725 Y0.7735  
G01 X-2.9825 Y0.7635  
G01 X-2.9825 Y0.7365  
G01 X-2.9635 Y0.7175  
G01 X-2.9365 Y0.7175  
G01 X-2.9175 Y0.7365  
G00 Z0.0500  
G00 X-3.1258 Y0.5295  
G01 Z-0.0035 F10    
G01 X-3.1320 Y0.5337  F20    
G01 X-3.1389 Y0.5365  
G01 X-3.1463 Y0.5380  
G01 X-3.1537 Y0.5380  
G01 X-3.1611 Y0.5365  
G01 X-3.1680 Y0.5337  
G01 X-3.1742 Y0.5295  
G01 X-3.1795 Y0.5242  
G01 X-3.1837 Y0.5180  
G01 X-3.1865 Y0.5111  
G01 X-3.1880 Y0.5037  
G01 X-3.1880 Y0.4963  
G01 X-3.1865 Y0.4889  
G01 X-3.1837 Y0.4820  
G01 X-3.1795 Y0.4758  
G01 X-3.1742 Y0.4705  
G01 X-3.1725 Y0.4693  
G01 X-3.1725 Y0.1925  
G01 X-3.1728 Y0.1923  
G01 X-3.1791 Y0.1878  
G01 X-3.1846 Y0.1822  
G01 X-3.1892 Y0.1759  
G01 X-3.1927 Y0.1690  
G01 X-3.1951 Y0.1616  
G01 X-3.1964 Y0.1539  
G01 X-3.1964 Y0.1461  
G01 X-3.1951 Y0.1384  
G01 X-3.1927 Y0.1310  
G01 X-3.1892 Y0.1241  
G01 X-3.1846 Y0.1178  
G01 X-3.1791 Y0.1122  
G01 X-3.1728 Y0.1077  
G01 X-3.1659 Y0.1041  
G01 X-3.1584 Y0.1017  
G01 X-3.1507 Y0.1005  
G01 X-3.1430 Y0.1005  
G01 X-3.1353 Y0.1017  
G01 X-3.1278 Y0.1041  
G01 X-3.1209 Y0.1077  
G01 X-3.1146 Y0.1122  
G01 X-3.1091 Y0.1178  
G01 X-3.1045 Y0.1241  
G01 X-3.1010 Y0.1310  
G01 X-3.0986 Y0.1384  
G01 X-3.0974 Y0.1461  
G01 X-3.0974 Y0.1539  
G01 X-3.0986 Y0.1616  
G01 X-3.1010 Y0.1690  
G01 X-3.1045 Y0.1759  
G01 X-3.1091 Y0.1822  
G01 X-3.1146 Y0.1878  
G01 X-3.1209 Y0.1923  
G01 X-3.1275 Y0.1957  
G01 X-3.1275 Y0.4693  
G01 X-3.1258 Y0.4705  
G01 X-3.1205 Y0.4758  
G01 X-3.1163 Y0.4820  
G01 X-3.1135 Y0.4889  
G01 X-3.1120 Y0.4963  
G01 X-3.1120 Y0.5037  
G01 X-3.1135 Y0.5111  
G01 X-3.1163 Y0.5180  
G01 X-3.1205 Y0.5242  
G01 X-3.1258 Y0.5295  
G00 Z0.0500  
G00 X-3.5601 Y0.5813  
G01 Z-0.0035 F10    
G01 X-3.5548 Y0.5885  F20    
G01 X-3.5508 Y0.5964  
G01 X-3.5480 Y0.6049  
G01 X-3.5466 Y0.6137  
G01 X-3.5466 Y0.6226  
G01 X-3.5480 Y0.6313  
G01 X-3.5508 Y0.6398  
G01 X-3.5548 Y0.6477  
G01 X-3.5601 Y0.6549  
G01 X-3.5663 Y0.6612  
G01 X-3.5700 Y0.6638  
G01 X-3.5026 Y0.7312  
G01 X-3.5008 Y0.7329  
G01 X-3.5008 Y0.7330  
G01 X-3.4993 Y0.7352  
G01 X-3.4979 Y0.7372  
G01 X-3.4978 Y0.7373  
G01 X-3.4978 Y0.7374  
G01 X-3.4968 Y0.7397  
G01 X-3.4839 Y0.7701  
G01 X-3.4675 Y0.7865  
G01 X-3.4675 Y0.8135  
G01 X-3.4865 Y0.8325  
G01 X-3.5135 Y0.8325  
G01 X-3.5325 Y0.8135  
G01 X-3.5325 Y0.7913  
G01 X-3.5436 Y0.7651  
G01 X-3.6341 Y0.6746  
G01 X-3.7076 Y0.6746  
G01 X-3.7164 Y0.6732  
G01 X-3.7248 Y0.6705  
G01 X-3.7328 Y0.6664  
G01 X-3.7400 Y0.6612  
G01 X-3.7462 Y0.6549  
G01 X-3.7515 Y0.6477  
G01 X-3.7555 Y0.6398  
G01 X-3.7583 Y0.6313  
G01 X-3.7596 Y0.6226  
G01 X-3.7596 Y0.6137  
G01 X-3.7583 Y0.6049  
G01 X-3.7555 Y0.5964  
G01 X-3.7515 Y0.5885  
G01 X-3.7462 Y0.5813  
G01 X-3.7400 Y0.5750  
G01 X-3.7328 Y0.5698  
G01 X-3.7248 Y0.5657  
G01 X-3.7164 Y0.5630  
G01 X-3.7076 Y0.5616  
G01 X-3.5987 Y0.5616  
G01 X-3.5899 Y0.5630  
G01 X-3.5815 Y0.5657  
G01 X-3.5735 Y0.5698  
G01 X-3.5663 Y0.5750  
G01 X-3.5601 Y0.5813  
G00 Z0.0500  
G00 X-3.8014 Y0.5859  
G01 Z-0.0035 F10    
G01 X-3.8028 Y0.5947  F20    
G01 X-3.8055 Y0.6032  
G01 X-3.8096 Y0.6111  
G01 X-3.8148 Y0.6183  
G01 X-3.8211 Y0.6246  
G01 X-3.8283 Y0.6298  
G01 X-3.8314 Y0.6314  
G01 X-3.8314 Y0.9311  
G01 X-3.7714 Y0.9911  
G01 X-3.7671 Y0.9882  
G01 X-3.7606 Y0.9855  
G01 X-3.7536 Y0.9841  
G01 X-3.7464 Y0.9841  
G01 X-3.7394 Y0.9855  
G01 X-3.7329 Y0.9882  
G01 X-3.7269 Y0.9922  
G01 X-3.7219 Y0.9972  
G01 X-3.7179 Y1.0032  
G01 X-3.7152 Y1.0098  
G01 X-3.7138 Y1.0168  
G01 X-3.7138 Y1.0832  
G01 X-3.7152 Y1.0902  
G01 X-3.7179 Y1.0968  
G01 X-3.7219 Y1.1028  
G01 X-3.7269 Y1.1078  
G01 X-3.7329 Y1.1118  
G01 X-3.7394 Y1.1145  
G01 X-3.7464 Y1.1159  
G01 X-3.7536 Y1.1159  
G01 X-3.7606 Y1.1145  
G01 X-3.7671 Y1.1118  
G01 X-3.7731 Y1.1078  
G01 X-3.7781 Y1.1028  
G01 X-3.7821 Y1.0968  
G01 X-3.7848 Y1.0902  
G01 X-3.7862 Y1.0832  
G01 X-3.7862 Y1.0513  
G01 X-3.8785 Y0.9590  
G01 X-3.8814 Y0.9547  
G01 X-3.8834 Y0.9499  
G01 X-3.8844 Y0.9447  
G01 X-3.8844 Y0.6314  
G01 X-3.8875 Y0.6298  
G01 X-3.8947 Y0.6246  
G01 X-3.9010 Y0.6183  
G01 X-3.9062 Y0.6111  
G01 X-3.9102 Y0.6032  
G01 X-3.9130 Y0.5947  
G01 X-3.9144 Y0.5859  
G01 X-3.9144 Y0.4770  
G01 X-3.9130 Y0.4683  
G01 X-3.9102 Y0.4598  
G01 X-3.9062 Y0.4519  
G01 X-3.9010 Y0.4447  
G01 X-3.8947 Y0.4384  
G01 X-3.8875 Y0.4332  
G01 X-3.8796 Y0.4291  
G01 X-3.8711 Y0.4264  
G01 X-3.8623 Y0.4250  
G01 X-3.8534 Y0.4250  
G01 X-3.8446 Y0.4264  
G01 X-3.8362 Y0.4291  
G01 X-3.8283 Y0.4332  
G01 X-3.8211 Y0.4384  
G01 X-3.8148 Y0.4447  
G01 X-3.8096 Y0.4519  
G01 X-3.8055 Y0.4598  
G01 X-3.8028 Y0.4683  
G01 X-3.8014 Y0.4770  
G01 X-3.8014 Y0.5859  
G00 Z0.0500  
G00 X-3.5325 Y1.0865  
G01 Z-0.0035 F10    
G01 X-3.5135 Y1.0675  F20    
G01 X-3.4865 Y1.0675  
G01 X-3.4675 Y1.0865  
G01 X-3.4675 Y1.1007  
G01 X-3.2507 Y1.3175  
G01 X-3.2365 Y1.3175  
G01 X-3.2175 Y1.3365  
G01 X-3.2175 Y1.3507  
G01 X-3.1820 Y1.3862  
G01 X-3.1790 Y1.3913  
G01 X-3.1775 Y1.3970  
G01 X-3.1775 Y1.6398  
G01 X-3.1750 Y1.6398  
G01 X-3.1726 Y1.6407  
G01 X-3.1707 Y1.6426  
G01 X-3.1698 Y1.6450  
G01 X-3.1698 Y1.6950  
G01 X-3.1707 Y1.6974  
G01 X-3.1726 Y1.6993  
G01 X-3.1750 Y1.7002  
G01 X-3.2250 Y1.7002  
G01 X-3.2274 Y1.6993  
G01 X-3.2293 Y1.6974  
G01 X-3.2302 Y1.6950  
G01 X-3.2302 Y1.6450  
G01 X-3.2293 Y1.6426  
G01 X-3.2274 Y1.6407  
G01 X-3.2250 Y1.6398  
G01 X-3.2225 Y1.6398  
G01 X-3.2225 Y1.4093  
G01 X-3.2493 Y1.3825  
G01 X-3.2635 Y1.3825  
G01 X-3.2825 Y1.3635  
G01 X-3.2825 Y1.3493  
G01 X-3.4993 Y1.1325  
G01 X-3.5135 Y1.1325  
G01 X-3.5325 Y1.1135  
G01 X-3.5325 Y1.0865  
G00 Z0.0500  
G00 X-2.7825 Y1.0885  
G01 Z-0.0035 F10    
G01 X-2.7825 Y1.0615  F20    
G01 X-2.7635 Y1.0425  
G01 X-2.7365 Y1.0425  
G01 X-2.7175 Y1.0615  
G01 X-2.7175 Y1.0885  
G01 X-2.7365 Y1.1075  
G01 X-2.7392 Y1.1075  
G01 X-2.8443 Y1.3598  
G01 X-2.8425 Y1.3615  
G01 X-2.8425 Y1.3885  
G01 X-2.8615 Y1.4075  
G01 X-2.8757 Y1.4075  
G01 X-2.9482 Y1.4801  
G01 X-2.9452 Y1.4846  
G01 X-2.9427 Y1.4905  
G01 X-2.9415 Y1.4968  
G01 X-2.9415 Y1.5032  
G01 X-2.9427 Y1.5095  
G01 X-2.9452 Y1.5154  
G01 X-2.9488 Y1.5207  
G01 X-2.9533 Y1.5252  
G01 X-2.9586 Y1.5288  
G01 X-2.9645 Y1.5313  
G01 X-2.9708 Y1.5325  
G01 X-3.0292 Y1.5325  
G01 X-3.0355 Y1.5313  
G01 X-3.0414 Y1.5288  
G01 X-3.0467 Y1.5252  
G01 X-3.0512 Y1.5207  
G01 X-3.0548 Y1.5154  
G01 X-3.0573 Y1.5095  
G01 X-3.0585 Y1.5032  
G01 X-3.0585 Y1.4968  
G01 X-3.0573 Y1.4905  
G01 X-3.0548 Y1.4846  
G01 X-3.0512 Y1.4793  
G01 X-3.0467 Y1.4748  
G01 X-3.0414 Y1.4712  
G01 X-3.0355 Y1.4687  
G01 X-3.0292 Y1.4675  
G01 X-2.9993 Y1.4675  
G01 X-2.9075 Y1.3757  
G01 X-2.9075 Y1.3615  
G01 X-2.8885 Y1.3425  
G01 X-2.8858 Y1.3425  
G01 X-2.7807 Y1.0902  
G01 X-2.7825 Y1.0885  
G00 Z0.0500  
G00 X-2.5635 Y1.1675  
G01 Z-0.0035 F10    
G01 X-2.5365 Y1.1675  F20    
G01 X-2.5175 Y1.1865  
G01 X-2.5175 Y1.2135  
G01 X-2.5311 Y1.2271  
G01 X-2.5494 Y1.3547  
G01 X-2.5425 Y1.3615  
G01 X-2.5425 Y1.3885  
G01 X-2.5615 Y1.4075  
G01 X-2.5716 Y1.4075  
G01 X-2.8025 Y1.7077  
G01 X-2.8025 Y1.8157  
G01 X-2.7157 Y1.9025  
G01 X-2.5368 Y1.9025  
G01 X-2.4025 Y1.7075  
G01 X-2.4025 Y1.6865  
G01 X-2.3835 Y1.6675  
G01 X-2.3565 Y1.6675  
G01 X-2.3429 Y1.6811  
G01 X-2.2631 Y1.6925  
G01 X-1.9222 Y1.7021  
G01 X-1.8325 Y1.5594  
G01 X-1.8325 Y1.5365  
G01 X-1.8135 Y1.5175  
G01 X-1.7865 Y1.5175  
G01 X-1.7675 Y1.5365  
G01 X-1.7675 Y1.5635  
G01 X-1.7865 Y1.5825  
G01 X-1.7939 Y1.5825  
G01 X-1.8731 Y1.7086  
G01 X-1.7088 Y1.7374  
G01 X-1.7085 Y1.7374  
G01 X-1.7059 Y1.7379  
G01 X-1.7032 Y1.7383  
G01 X-1.7030 Y1.7385  
G01 X-1.7027 Y1.7385  
G01 X-1.7003 Y1.7397  
G01 X-1.6978 Y1.7408  
G01 X-1.6976 Y1.7410  
G01 X-1.6974 Y1.7411  
G01 X-1.6954 Y1.7429  
G01 X-1.6933 Y1.7446  
G01 X-1.6931 Y1.7449  
G01 X-1.5415 Y1.8775  
G01 X-1.5235 Y1.8775  
G01 X-1.5135 Y1.8675  
G01 X-1.4865 Y1.8675  
G01 X-1.4675 Y1.8865  
G01 X-1.4675 Y1.9135  
G01 X-1.4865 Y1.9325  
G01 X-1.5135 Y1.9325  
G01 X-1.5235 Y1.9225  
G01 X-1.5493 Y1.9225  
G01 X-1.5515 Y1.9226  
G01 X-1.5522 Y1.9225  
G01 X-1.5530 Y1.9225  
G01 X-1.5551 Y1.9219  
G01 X-1.5573 Y1.9215  
G01 X-1.5580 Y1.9212  
G01 X-1.5587 Y1.9210  
G01 X-1.5606 Y1.9199  
G01 X-1.5626 Y1.9189  
G01 X-1.5632 Y1.9184  
G01 X-1.5638 Y1.9180  
G01 X-1.5654 Y1.9164  
G01 X-1.7201 Y1.7811  
G01 X-1.9123 Y1.7474  
G01 X-2.2640 Y1.7375  
G01 X-2.2652 Y1.7377  
G01 X-2.2669 Y1.7375  
G01 X-2.2686 Y1.7374  
G01 X-2.2698 Y1.7370  
G01 X-2.3497 Y1.7256  
G01 X-2.3565 Y1.7325  
G01 X-2.3651 Y1.7325  
G01 X-2.5060 Y1.9370  
G01 X-2.5070 Y1.9388  
G01 X-2.5076 Y1.9395  
G01 X-2.5082 Y1.9402  
G01 X-2.5097 Y1.9415  
G01 X-2.5112 Y1.9430  
G01 X-2.5120 Y1.9435  
G01 X-2.5127 Y1.9440  
G01 X-2.5145 Y1.9449  
G01 X-2.5163 Y1.9460  
G01 X-2.5172 Y1.9462  
G01 X-2.5180 Y1.9466  
G01 X-2.5200 Y1.9470  
G01 X-2.5220 Y1.9475  
G01 X-2.5229 Y1.9475  
G01 X-2.5238 Y1.9477  
G01 X-2.5259 Y1.9475  
G01 X-2.7280 Y1.9475  
G01 X-2.7337 Y1.9460  
G01 X-2.7388 Y1.9430  
G01 X-2.7430 Y1.9388  
G01 X-2.8430 Y1.8388  
G01 X-2.8460 Y1.8337  
G01 X-2.8475 Y1.8280  
G01 X-2.8475 Y1.7015  
G01 X-2.8477 Y1.7000  
G01 X-2.8475 Y1.6985  
G01 X-2.8475 Y1.6970  
G01 X-2.8471 Y1.6956  
G01 X-2.8469 Y1.6941  
G01 X-2.8463 Y1.6927  
G01 X-2.8460 Y1.6913  
G01 X-2.8452 Y1.6900  
G01 X-2.8446 Y1.6886  
G01 X-2.8437 Y1.6875  
G01 X-2.8430 Y1.6862  
G01 X-2.8419 Y1.6851  
G01 X-2.6075 Y1.3803  
G01 X-2.6075 Y1.3615  
G01 X-2.5939 Y1.3479  
G01 X-2.5756 Y1.2203  
G01 X-2.5825 Y1.2135  
G01 X-2.5825 Y1.1865  
G01 X-2.5635 Y1.1675  
G00 Z0.0500  
G00 X-2.3230 Y1.1238  
G01 Z-0.0035 F10    
G01 X-2.3235 Y1.1230  F20    
G01 X-2.3241 Y1.1223  
G01 X-2.3250 Y1.1204  
G01 X-2.3260 Y1.1187  
G01 X-2.3262 Y1.1178  
G01 X-2.3266 Y1.1169  
G01 X-2.3270 Y1.1149  
G01 X-2.3275 Y1.1130  
G01 X-2.3275 Y1.1120  
G01 X-2.3277 Y1.1111  
G01 X-2.3275 Y1.1091  
G01 X-2.3275 Y0.8625  
G01 X-2.3276 Y0.8621  
G01 X-2.3275 Y0.8596  
G01 X-2.3275 Y0.8570  
G01 X-2.3274 Y0.8566  
G01 X-2.3274 Y0.8561  
G01 X-2.3266 Y0.8537  
G01 X-2.3260 Y0.8513  
G01 X-2.3257 Y0.8509  
G01 X-2.3256 Y0.8505  
G01 X-2.3243 Y0.8484  
G01 X-2.3230 Y0.8462  
G01 X-2.3227 Y0.8459  
G01 X-2.3224 Y0.8455  
G01 X-2.3206 Y0.8438  
G01 X-2.3188 Y0.8420  
G01 X-2.3184 Y0.8418  
G01 X-2.3181 Y0.8415  
G01 X-2.3159 Y0.8403  
G01 X-2.3137 Y0.8390  
G01 X-2.3132 Y0.8389  
G01 X-2.3128 Y0.8387  
G01 X-2.3104 Y0.8382  
G01 X-2.3080 Y0.8375  
G01 X-2.3075 Y0.8375  
G01 X-2.1554 Y0.8032  
G01 X-2.1530 Y0.8025  
G01 X-2.1525 Y0.8025  
G01 X-2.1521 Y0.8024  
G01 X-2.1496 Y0.8025  
G01 X-1.9346 Y0.8025  
G01 X-1.7331 Y0.5914  
G01 X-1.7330 Y0.5912  
G01 X-1.7311 Y0.5893  
G01 X-1.7292 Y0.5873  
G01 X-1.7290 Y0.5872  
G01 X-1.7288 Y0.5870  
G01 X-1.7265 Y0.5856  
G01 X-1.7242 Y0.5842  
G01 X-1.7239 Y0.5842  
G01 X-1.7237 Y0.5840  
G01 X-1.7211 Y0.5833  
G01 X-1.7185 Y0.5826  
G01 X-1.7182 Y0.5826  
G01 X-1.7180 Y0.5825  
G01 X-1.7153 Y0.5825  
G01 X-1.7126 Y0.5824  
G01 X-1.7123 Y0.5825  
G01 X-1.0732 Y0.5825  
G01 X-1.0380 Y0.5527  
G01 X-1.0380 Y0.5343  
G01 X-1.0157 Y0.5120  
G01 X-0.9843 Y0.5120  
G01 X-0.9620 Y0.5343  
G01 X-0.9620 Y0.5657  
G01 X-0.9843 Y0.5880  
G01 X-1.0101 Y0.5880  
G01 X-1.0487 Y0.6207  
G01 X-1.0775 Y0.6577  
G01 X-1.0775 Y0.6989  
G01 X-1.0773 Y0.7008  
G01 X-1.0775 Y0.7019  
G01 X-1.0775 Y0.7765  
G01 X-1.0675 Y0.7865  
G01 X-1.0675 Y0.8135  
G01 X-1.0865 Y0.8325  
G01 X-1.1135 Y0.8325  
G01 X-1.1325 Y0.8135  
G01 X-1.1325 Y0.7865  
G01 X-1.1225 Y0.7765  
G01 X-1.1225 Y0.7437  
G01 X-1.4275 Y0.9616  
G01 X-1.4275 Y1.0265  
G01 X-1.4248 Y1.0293  
G01 X-1.4212 Y1.0346  
G01 X-1.4187 Y1.0405  
G01 X-1.4175 Y1.0468  
G01 X-1.4175 Y1.0532  
G01 X-1.4187 Y1.0595  
G01 X-1.4212 Y1.0654  
G01 X-1.4248 Y1.0707  
G01 X-1.4293 Y1.0752  
G01 X-1.4346 Y1.0788  
G01 X-1.4405 Y1.0813  
G01 X-1.4468 Y1.0825  
G01 X-1.4532 Y1.0825  
G01 X-1.4595 Y1.0813  
G01 X-1.4654 Y1.0788  
G01 X-1.4707 Y1.0752  
G01 X-1.4752 Y1.0707  
G01 X-1.4788 Y1.0654  
G01 X-1.4813 Y1.0595  
G01 X-1.4825 Y1.0532  
G01 X-1.4825 Y1.0468  
G01 X-1.4813 Y1.0405  
G01 X-1.4788 Y1.0346  
G01 X-1.4752 Y1.0293  
G01 X-1.4725 Y1.0265  
G01 X-1.4725 Y0.9511  
G01 X-1.4727 Y0.9492  
G01 X-1.4725 Y0.9481  
G01 X-1.4725 Y0.9470  
G01 X-1.4720 Y0.9452  
G01 X-1.4717 Y0.9434  
G01 X-1.4713 Y0.9424  
G01 X-1.4710 Y0.9413  
G01 X-1.4700 Y0.9397  
G01 X-1.4693 Y0.9380  
G01 X-1.4686 Y0.9371  
G01 X-1.4680 Y0.9362  
G01 X-1.4667 Y0.9349  
G01 X-1.4655 Y0.9334  
G01 X-1.4646 Y0.9328  
G01 X-1.4638 Y0.9320  
G01 X-1.4622 Y0.9311  
G01 X-1.1225 Y0.6884  
G01 X-1.1225 Y0.6514  
G01 X-1.1227 Y0.6499  
G01 X-1.1225 Y0.6485  
G01 X-1.1225 Y0.6470  
G01 X-1.1221 Y0.6455  
G01 X-1.1219 Y0.6440  
G01 X-1.1213 Y0.6427  
G01 X-1.1210 Y0.6413  
G01 X-1.1202 Y0.6400  
G01 X-1.1196 Y0.6385  
G01 X-1.1187 Y0.6374  
G01 X-1.1180 Y0.6362  
G01 X-1.1169 Y0.6351  
G01 X-1.1110 Y0.6275  
G01 X-1.7054 Y0.6275  
G01 X-1.9069 Y0.8386  
G01 X-1.9070 Y0.8388  
G01 X-1.9089 Y0.8407  
G01 X-1.9108 Y0.8427  
G01 X-1.9110 Y0.8428  
G01 X-1.9112 Y0.8430  
G01 X-1.9135 Y0.8444  
G01 X-1.9158 Y0.8458  
G01 X-1.9161 Y0.8458  
G01 X-1.9163 Y0.8460  
G01 X-1.9189 Y0.8467  
G01 X-1.9215 Y0.8474  
G01 X-1.9218 Y0.8474  
G01 X-1.9220 Y0.8475  
G01 X-1.9247 Y0.8475  
G01 X-1.9274 Y0.8476  
G01 X-1.9277 Y0.8475  
G01 X-2.1475 Y0.8475  
G01 X-2.2825 Y0.8780  
G01 X-2.2825 Y1.1018  
G01 X-2.2334 Y1.1598  
G01 X-2.2320 Y1.1612  
G01 X-2.2315 Y1.1620  
G01 X-2.2309 Y1.1627  
G01 X-2.2300 Y1.1646  
G01 X-2.2290 Y1.1663  
G01 X-2.2288 Y1.1672  
G01 X-2.2284 Y1.1681  
G01 X-2.2280 Y1.1701  
G01 X-2.2275 Y1.1720  
G01 X-2.2275 Y1.1730  
G01 X-2.2273 Y1.1739  
G01 X-2.2275 Y1.1759  
G01 X-2.2275 Y1.1765  
G01 X-2.2175 Y1.1865  
G01 X-2.2175 Y1.2135  
G01 X-2.2365 Y1.2325  
G01 X-2.2635 Y1.2325  
G01 X-2.2825 Y1.2135  
G01 X-2.2825 Y1.1865  
G01 X-2.2756 Y1.1796  
G01 X-2.3216 Y1.1252  
G01 X-2.3230 Y1.1238  
G00 Z0.0500  
G00 X-2.1975 Y1.1310  
G01 Z-0.0035 F10    
G01 X-2.2480 Y1.0438  F20    
G01 X-2.2495 Y1.0412  
G01 X-2.2510 Y1.0387  
G01 X-2.2517 Y1.0358  
G01 X-2.2525 Y1.0330  
G01 X-2.2525 Y1.0300  
G01 X-2.2525 Y1.0271  
G01 X-2.2525 Y0.9310  
G01 X-2.2527 Y0.9291  
G01 X-2.2525 Y0.9281  
G01 X-2.2525 Y0.9270  
G01 X-2.2520 Y0.9252  
G01 X-2.2517 Y0.9232  
G01 X-2.2512 Y0.9223  
G01 X-2.2510 Y0.9213  
G01 X-2.2500 Y0.9196  
G01 X-2.2492 Y0.9179  
G01 X-2.2485 Y0.9171  
G01 X-2.2480 Y0.9162  
G01 X-2.2466 Y0.9148  
G01 X-2.2454 Y0.9133  
G01 X-2.2445 Y0.9127  
G01 X-2.2438 Y0.9120  
G01 X-2.2421 Y0.9110  
G01 X-2.2405 Y0.9099  
G01 X-2.2396 Y0.9095  
G01 X-2.2387 Y0.9090  
G01 X-2.2368 Y0.9085  
G01 X-2.2350 Y0.9079  
G01 X-2.2340 Y0.9078  
G01 X-2.2330 Y0.9075  
G01 X-2.2310 Y0.9075  
G01 X-2.1790 Y0.9028  
G01 X-2.1780 Y0.9025  
G01 X-2.1760 Y0.9025  
G01 X-2.1741 Y0.9023  
G01 X-2.1731 Y0.9025  
G01 X-1.7725 Y0.9025  
G01 X-1.7725 Y0.7522  
G01 X-1.7726 Y0.7515  
G01 X-1.7725 Y0.7493  
G01 X-1.7725 Y0.7470  
G01 X-1.7723 Y0.7463  
G01 X-1.7723 Y0.7456  
G01 X-1.7715 Y0.7435  
G01 X-1.7710 Y0.7413  
G01 X-1.7706 Y0.7407  
G01 X-1.7704 Y0.7400  
G01 X-1.7691 Y0.7381  
G01 X-1.7680 Y0.7362  
G01 X-1.7675 Y0.7357  
G01 X-1.7191 Y0.6631  
G01 X-1.7180 Y0.6612  
G01 X-1.7175 Y0.6607  
G01 X-1.7171 Y0.6601  
G01 X-1.7154 Y0.6586  
G01 X-1.7138 Y0.6570  
G01 X-1.7132 Y0.6566  
G01 X-1.7126 Y0.6561  
G01 X-1.7106 Y0.6552  
G01 X-1.7087 Y0.6540  
G01 X-1.7080 Y0.6538  
G01 X-1.7073 Y0.6535  
G01 X-1.7051 Y0.6531  
G01 X-1.7030 Y0.6525  
G01 X-1.7022 Y0.6525  
G01 X-1.7015 Y0.6524  
G01 X-1.6993 Y0.6525  
G01 X-1.6007 Y0.6525  
G01 X-1.5985 Y0.6524  
G01 X-1.5978 Y0.6525  
G01 X-1.5970 Y0.6525  
G01 X-1.5949 Y0.6531  
G01 X-1.5927 Y0.6535  
G01 X-1.5920 Y0.6538  
G01 X-1.5913 Y0.6540  
G01 X-1.5894 Y0.6552  
G01 X-1.5874 Y0.6561  
G01 X-1.5868 Y0.6566  
G01 X-1.5862 Y0.6570  
G01 X-1.5846 Y0.6586  
G01 X-1.5829 Y0.6601  
G01 X-1.5825 Y0.6607  
G01 X-1.5820 Y0.6612  
G01 X-1.5809 Y0.6631  
G01 X-1.5325 Y0.7357  
G01 X-1.5320 Y0.7362  
G01 X-1.5309 Y0.7381  
G01 X-1.5296 Y0.7400  
G01 X-1.5294 Y0.7407  
G01 X-1.5290 Y0.7413  
G01 X-1.5285 Y0.7435  
G01 X-1.5277 Y0.7456  
G01 X-1.5277 Y0.7463  
G01 X-1.5275 Y0.7470  
G01 X-1.5275 Y0.7493  
G01 X-1.5274 Y0.7515  
G01 X-1.5275 Y0.7522  
G01 X-1.5275 Y1.0265  
G01 X-1.5248 Y1.0293  
G01 X-1.5212 Y1.0346  
G01 X-1.5187 Y1.0405  
G01 X-1.5175 Y1.0468  
G01 X-1.5175 Y1.0532  
G01 X-1.5187 Y1.0595  
G01 X-1.5194 Y1.0610  
G01 X-1.4611 Y1.1775  
G01 X-0.8254 Y1.1775  
G01 X-0.8228 Y1.1774  
G01 X-0.8224 Y1.1775  
G01 X-0.8220 Y1.1775  
G01 X-0.8195 Y1.1782  
G01 X-0.8170 Y1.1788  
G01 X-0.8167 Y1.1789  
G01 X-0.8163 Y1.1790  
G01 X-0.8141 Y1.1803  
G01 X-0.8118 Y1.1816  
G01 X-0.8115 Y1.1818  
G01 X-0.8112 Y1.1820  
G01 X-0.8093 Y1.1838  
G01 X-0.7315 Y1.2568  
G01 X-0.7312 Y1.2570  
G01 X-0.7293 Y1.2588  
G01 X-0.7275 Y1.2606  
G01 X-0.7273 Y1.2609  
G01 X-0.7270 Y1.2612  
G01 X-0.7257 Y1.2634  
G01 X-0.7243 Y1.2656  
G01 X-0.7242 Y1.2660  
G01 X-0.7240 Y1.2663  
G01 X-0.7234 Y1.2688  
G01 X-0.7226 Y1.2713  
G01 X-0.7226 Y1.2717  
G01 X-0.7225 Y1.2720  
G01 X-0.7225 Y1.2746  
G01 X-0.7224 Y1.2772  
G01 X-0.7225 Y1.2776  
G01 X-0.7225 Y1.3939  
G01 X-0.7223 Y1.3958  
G01 X-0.7225 Y1.3969  
G01 X-0.7225 Y1.3980  
G01 X-0.7230 Y1.3998  
G01 X-0.7233 Y1.4016  
G01 X-0.7237 Y1.4026  
G01 X-0.7240 Y1.4037  
G01 X-0.7250 Y1.4053  
G01 X-0.7257 Y1.4070  
G01 X-0.7264 Y1.4079  
G01 X-0.7270 Y1.4088  
G01 X-0.7283 Y1.4101  
G01 X-0.7295 Y1.4116  
G01 X-0.7304 Y1.4122  
G01 X-0.7312 Y1.4130  
G01 X-0.7328 Y1.4139  
G01 X-0.8275 Y1.4816  
G01 X-0.8275 Y1.5693  
G01 X-0.8258 Y1.5705  
G01 X-0.8205 Y1.5758  
G01 X-0.8163 Y1.5820  
G01 X-0.8135 Y1.5889  
G01 X-0.8120 Y1.5963  
G01 X-0.8120 Y1.6037  
G01 X-0.8135 Y1.6111  
G01 X-0.8163 Y1.6180  
G01 X-0.8205 Y1.6242  
G01 X-0.8258 Y1.6295  
G01 X-0.8275 Y1.6307  
G01 X-0.8275 Y1.8907  
G01 X-0.8101 Y1.9081  
G01 X-0.8035 Y1.9071  
G01 X-0.7965 Y1.9071  
G01 X-0.7896 Y1.9082  
G01 X-0.7829 Y1.9103  
G01 X-0.7767 Y1.9135  
G01 X-0.7710 Y1.9176  
G01 X-0.7661 Y1.9226  
G01 X-0.7619 Y1.9283  
G01 X-0.7588 Y1.9345  
G01 X-0.7566 Y1.9412  
G01 X-0.7555 Y1.9481  
G01 X-0.7555 Y1.9551  
G01 X-0.7566 Y1.9620  
G01 X-0.7588 Y1.9687  
G01 X-0.7619 Y1.9749  
G01 X-0.7661 Y1.9806  
G01 X-0.7710 Y1.9855  
G01 X-0.7767 Y1.9896  
G01 X-0.7829 Y1.9928  
G01 X-0.7896 Y1.9950  
G01 X-0.7965 Y1.9961  
G01 X-0.8035 Y1.9961  
G01 X-0.8104 Y1.9950  
G01 X-0.8171 Y1.9928  
G01 X-0.8233 Y1.9896  
G01 X-0.8290 Y1.9855  
G01 X-0.8339 Y1.9806  
G01 X-0.8381 Y1.9749  
G01 X-0.8412 Y1.9687  
G01 X-0.8434 Y1.9620  
G01 X-0.8445 Y1.9551  
G01 X-0.8445 Y1.9481  
G01 X-0.8434 Y1.9412  
G01 X-0.8427 Y1.9391  
G01 X-0.8638 Y1.9180  
G01 X-0.8680 Y1.9138  
G01 X-0.9180 Y1.8638  
G01 X-0.9210 Y1.8587  
G01 X-0.9225 Y1.8530  
G01 X-0.9225 Y1.8235  
G01 X-0.9325 Y1.8135  
G01 X-0.9325 Y1.7865  
G01 X-0.9135 Y1.7675  
G01 X-0.8865 Y1.7675  
G01 X-0.8725 Y1.7815  
G01 X-0.8725 Y1.6307  
G01 X-0.8742 Y1.6295  
G01 X-0.8795 Y1.6242  
G01 X-0.8837 Y1.6180  
G01 X-0.8865 Y1.6111  
G01 X-0.8880 Y1.6037  
G01 X-0.8880 Y1.5963  
G01 X-0.8865 Y1.5889  
G01 X-0.8837 Y1.5820  
G01 X-0.8795 Y1.5758  
G01 X-0.8742 Y1.5705  
G01 X-0.8725 Y1.5693  
G01 X-0.8725 Y1.4711  
G01 X-0.8727 Y1.4692  
G01 X-0.8725 Y1.4681  
G01 X-0.8725 Y1.4670  
G01 X-0.8720 Y1.4652  
G01 X-0.8717 Y1.4634  
G01 X-0.8713 Y1.4624  
G01 X-0.8710 Y1.4613  
G01 X-0.8700 Y1.4597  
G01 X-0.8693 Y1.4580  
G01 X-0.8686 Y1.4571  
G01 X-0.8680 Y1.4562  
G01 X-0.8667 Y1.4549  
G01 X-0.8655 Y1.4534  
G01 X-0.8646 Y1.4528  
G01 X-0.8638 Y1.4520  
G01 X-0.8622 Y1.4511  
G01 X-0.7675 Y1.3834  
G01 X-0.7675 Y1.2847  
G01 X-0.8339 Y1.2225  
G01 X-1.4727 Y1.2225  
G01 X-1.4734 Y1.2226  
G01 X-1.4757 Y1.2225  
G01 X-1.4780 Y1.2225  
G01 X-1.4786 Y1.2223  
G01 X-1.4793 Y1.2223  
G01 X-1.4815 Y1.2216  
G01 X-1.4837 Y1.2210  
G01 X-1.4843 Y1.2206  
G01 X-1.4849 Y1.2204  
G01 X-1.4868 Y1.2191  
G01 X-1.4888 Y1.2180  
G01 X-1.4893 Y1.2175  
G01 X-1.4899 Y1.2171  
G01 X-1.4914 Y1.2154  
G01 X-1.4930 Y1.2138  
G01 X-1.4933 Y1.2132  
G01 X-1.4938 Y1.2127  
G01 X-1.4948 Y1.2107  
G01 X-1.4960 Y1.2087  
G01 X-1.4961 Y1.2080  
G01 X-1.5595 Y1.0812  
G01 X-1.5654 Y1.0788  
G01 X-1.5707 Y1.0752  
G01 X-1.5752 Y1.0707  
G01 X-1.5788 Y1.0654  
G01 X-1.5813 Y1.0595  
G01 X-1.5825 Y1.0532  
G01 X-1.5825 Y1.0468  
G01 X-1.5813 Y1.0405  
G01 X-1.5788 Y1.0346  
G01 X-1.5752 Y1.0293  
G01 X-1.5725 Y1.0265  
G01 X-1.5725 Y0.7568  
G01 X-1.6120 Y0.6975  
G01 X-1.6880 Y0.6975  
G01 X-1.7275 Y0.7568  
G01 X-1.7275 Y1.0265  
G01 X-1.7175 Y1.0365  
G01 X-1.7175 Y1.0635  
G01 X-1.7365 Y1.0825  
G01 X-1.7635 Y1.0825  
G01 X-1.7825 Y1.0635  
G01 X-1.7825 Y1.0365  
G01 X-1.7725 Y1.0265  
G01 X-1.7725 Y0.9475  
G01 X-2.1740 Y0.9475  
G01 X-2.2075 Y0.9505  
G01 X-2.2075 Y1.0240  
G01 X-2.1570 Y1.1112  
G01 X-2.1555 Y1.1138  
G01 X-2.1540 Y1.1163  
G01 X-2.1533 Y1.1192  
G01 X-2.1525 Y1.1220  
G01 X-2.1525 Y1.1250  
G01 X-2.1525 Y1.1279  
G01 X-2.1525 Y1.2207  
G01 X-2.1047 Y1.3401  
G01 X-2.1040 Y1.3413  
G01 X-2.1036 Y1.3429  
G01 X-2.1030 Y1.3444  
G01 X-2.1028 Y1.3457  
G01 X-2.1025 Y1.3470  
G01 X-2.1025 Y1.3487  
G01 X-2.1023 Y1.3503  
G01 X-2.1025 Y1.3516  
G01 X-2.1025 Y1.5030  
G01 X-2.1040 Y1.5087  
G01 X-2.1070 Y1.5138  
G01 X-2.1112 Y1.5180  
G01 X-2.1163 Y1.5210  
G01 X-2.1220 Y1.5225  
G01 X-2.5121 Y1.5225  
G01 X-2.6744 Y1.8008  
G01 X-2.6661 Y1.8175  
G01 X-2.6615 Y1.8175  
G01 X-2.6425 Y1.8365  
G01 X-2.6425 Y1.8635  
G01 X-2.6615 Y1.8825  
G01 X-2.6885 Y1.8825  
G01 X-2.7075 Y1.8635  
G01 X-2.7075 Y1.8365  
G01 X-2.7071 Y1.8361  
G01 X-2.7185 Y1.8133  
G01 X-2.7243 Y1.8075  
G01 X-2.7385 Y1.8075  
G01 X-2.7575 Y1.7885  
G01 X-2.7575 Y1.7615  
G01 X-2.7385 Y1.7425  
G01 X-2.7115 Y1.7425  
G01 X-2.6995 Y1.7545  
G01 X-2.5445 Y1.4887  
G01 X-2.5430 Y1.4862  
G01 X-2.5409 Y1.4841  
G01 X-2.5388 Y1.4820  
G01 X-2.5362 Y1.4805  
G01 X-2.5337 Y1.4790  
G01 X-2.5308 Y1.4783  
G01 X-2.5280 Y1.4775  
G01 X-2.5279 Y1.4775  
G01 X-2.5250 Y1.4775  
G01 X-2.1475 Y1.4775  
G01 X-2.1475 Y1.3543  
G01 X-2.1953 Y1.2349  
G01 X-2.1960 Y1.2337  
G01 X-2.1964 Y1.2321  
G01 X-2.1970 Y1.2306  
G01 X-2.1972 Y1.2293  
G01 X-2.1975 Y1.2280  
G01 X-2.1975 Y1.2263  
G01 X-2.1977 Y1.2247  
G01 X-2.1975 Y1.2234  
G01 X-2.1975 Y1.1310  
G00 Z0.0500  
G00 X-2.1825 Y1.0135  
G01 Z-0.0035 F10    
G01 X-2.1825 Y0.9865  F20    
G01 X-2.1635 Y0.9675  
G01 X-2.1365 Y0.9675  
G01 X-2.1175 Y0.9865  
G01 X-2.1175 Y1.0007  
G01 X-2.0907 Y1.0275  
G01 X-2.0235 Y1.0275  
G01 X-2.0135 Y1.0175  
G01 X-1.9865 Y1.0175  
G01 X-1.9675 Y1.0365  
G01 X-1.9675 Y1.0507  
G01 X-1.9407 Y1.0775  
G01 X-1.8485 Y1.0775  
G01 X-1.8385 Y1.0675  
G01 X-1.8115 Y1.0675  
G01 X-1.7925 Y1.0865  
G01 X-1.7925 Y1.1135  
G01 X-1.8115 Y1.1325  
G01 X-1.8385 Y1.1325  
G01 X-1.8485 Y1.1225  
G01 X-1.9530 Y1.1225  
G01 X-1.9587 Y1.1210  
G01 X-1.9638 Y1.1180  
G01 X-1.9993 Y1.0825  
G01 X-2.0135 Y1.0825  
G01 X-2.0235 Y1.0725  
G01 X-2.1030 Y1.0725  
G01 X-2.1087 Y1.0710  
G01 X-2.1138 Y1.0680  
G01 X-2.1493 Y1.0325  
G01 X-2.1635 Y1.0325  
G01 X-2.1825 Y1.0135  
G00 Z0.0500  
G00 X-1.9138 Y1.1820  
G01 Z-0.0035 F10    
G01 X-1.9087 Y1.1790  F20    
G01 X-1.9030 Y1.1775  
G01 X-1.8093 Y1.1775  
G01 X-1.7825 Y1.1507  
G01 X-1.7825 Y1.1365  
G01 X-1.7635 Y1.1175  
G01 X-1.7365 Y1.1175  
G01 X-1.7175 Y1.1365  
G01 X-1.7175 Y1.1635  
G01 X-1.7365 Y1.1825  
G01 X-1.7507 Y1.1825  
G01 X-1.7820 Y1.2138  
G01 X-1.7862 Y1.2180  
G01 X-1.7913 Y1.2210  
G01 X-1.7970 Y1.2225  
G01 X-1.8775 Y1.2225  
G01 X-1.8775 Y1.4275  
G01 X-1.7970 Y1.4275  
G01 X-1.7913 Y1.4290  
G01 X-1.7862 Y1.4320  
G01 X-1.7820 Y1.4362  
G01 X-1.6907 Y1.5275  
G01 X-1.5735 Y1.5275  
G01 X-1.5635 Y1.5175  
G01 X-1.5365 Y1.5175  
G01 X-1.5175 Y1.5365  
G01 X-1.5175 Y1.5635  
G01 X-1.5365 Y1.5825  
G01 X-1.5635 Y1.5825  
G01 X-1.5735 Y1.5725  
G01 X-1.7030 Y1.5725  
G01 X-1.7087 Y1.5710  
G01 X-1.7138 Y1.5680  
G01 X-1.8093 Y1.4725  
G01 X-1.8993 Y1.4725  
G01 X-1.9016 Y1.4726  
G01 X-1.9023 Y1.4725  
G01 X-1.9030 Y1.4725  
G01 X-1.9052 Y1.4719  
G01 X-1.9074 Y1.4714  
G01 X-1.9080 Y1.4711  
G01 X-1.9087 Y1.4710  
G01 X-1.9107 Y1.4698  
G01 X-1.9525 Y1.4489  
G01 X-1.9525 Y1.5693  
G01 X-1.9508 Y1.5705  
G01 X-1.9455 Y1.5758  
G01 X-1.9413 Y1.5820  
G01 X-1.9385 Y1.5889  
G01 X-1.9370 Y1.5963  
G01 X-1.9370 Y1.6037  
G01 X-1.9385 Y1.6111  
G01 X-1.9413 Y1.6180  
G01 X-1.9455 Y1.6242  
G01 X-1.9508 Y1.6295  
G01 X-1.9570 Y1.6337  
G01 X-1.9639 Y1.6365  
G01 X-1.9713 Y1.6380  
G01 X-1.9787 Y1.6380  
G01 X-1.9861 Y1.6365  
G01 X-1.9930 Y1.6337  
G01 X-1.9992 Y1.6295  
G01 X-2.0045 Y1.6242  
G01 X-2.0087 Y1.6180  
G01 X-2.0115 Y1.6111  
G01 X-2.0130 Y1.6037  
G01 X-2.0130 Y1.5963  
G01 X-2.0115 Y1.5889  
G01 X-2.0087 Y1.5820  
G01 X-2.0045 Y1.5758  
G01 X-1.9992 Y1.5705  
G01 X-1.9975 Y1.5693  
G01 X-1.9975 Y1.4493  
G01 X-2.0293 Y1.4175  
G01 X-2.0435 Y1.4175  
G01 X-2.0625 Y1.3985  
G01 X-2.0625 Y1.3715  
G01 X-2.0435 Y1.3525  
G01 X-2.0165 Y1.3525  
G01 X-1.9975 Y1.3715  
G01 X-1.9975 Y1.3761  
G01 X-1.9225 Y1.4136  
G01 X-1.9225 Y1.1970  
G01 X-1.9210 Y1.1913  
G01 X-1.9180 Y1.1862  
G01 X-1.9138 Y1.1820  
G00 Z0.0500  
G00 X-1.8135 Y1.3175  
G01 Z-0.0035 F10    
G01 X-1.7865 Y1.3175  F20    
G01 X-1.7765 Y1.3275  
G01 X-1.7235 Y1.3275  
G01 X-1.7135 Y1.3175  
G01 X-1.6865 Y1.3175  
G01 X-1.6765 Y1.3275  
G01 X-1.6725 Y1.3275  
G01 X-1.6725 Y0.7735  
G01 X-1.6825 Y0.7635  
G01 X-1.6825 Y0.7365  
G01 X-1.6635 Y0.7175  
G01 X-1.6365 Y0.7175  
G01 X-1.6175 Y0.7365  
G01 X-1.6175 Y0.7635  
G01 X-1.6275 Y0.7735  
G01 X-1.6275 Y1.2525  
G01 X-1.0720 Y1.2525  
G01 X-1.0663 Y1.2540  
G01 X-1.0612 Y1.2570  
G01 X-1.0570 Y1.2612  
G01 X-1.0407 Y1.2775  
G01 X-0.9735 Y1.2775  
G01 X-0.9635 Y1.2675  
G01 X-0.9365 Y1.2675  
G01 X-0.9265 Y1.2775  
G01 X-0.8735 Y1.2775  
G01 X-0.8635 Y1.2675  
G01 X-0.8365 Y1.2675  
G01 X-0.8175 Y1.2865  
G01 X-0.8175 Y1.3135  
G01 X-0.8365 Y1.3325  
G01 X-0.8635 Y1.3325  
G01 X-0.8735 Y1.3225  
G01 X-0.9265 Y1.3225  
G01 X-0.9365 Y1.3325  
G01 X-0.9635 Y1.3325  
G01 X-0.9735 Y1.3225  
G01 X-1.0530 Y1.3225  
G01 X-1.0587 Y1.3210  
G01 X-1.0638 Y1.3180  
G01 X-1.0843 Y1.2975  
G01 X-1.6275 Y1.2975  
G01 X-1.6275 Y1.3275  
G01 X-1.5735 Y1.3275  
G01 X-1.5707 Y1.3248  
G01 X-1.5654 Y1.3212  
G01 X-1.5595 Y1.3187  
G01 X-1.5532 Y1.3175  
G01 X-1.5468 Y1.3175  
G01 X-1.5405 Y1.3187  
G01 X-1.5346 Y1.3212  
G01 X-1.5293 Y1.3248  
G01 X-1.5248 Y1.3293  
G01 X-1.5212 Y1.3346  
G01 X-1.5187 Y1.3405  
G01 X-1.5175 Y1.3468  
G01 X-1.5175 Y1.3532  
G01 X-1.5187 Y1.3595  
G01 X-1.5212 Y1.3654  
G01 X-1.5248 Y1.3707  
G01 X-1.5293 Y1.3752  
G01 X-1.5346 Y1.3788  
G01 X-1.5405 Y1.3813  
G01 X-1.5468 Y1.3825  
G01 X-1.5532 Y1.3825  
G01 X-1.5595 Y1.3813  
G01 X-1.5654 Y1.3788  
G01 X-1.5707 Y1.3752  
G01 X-1.5735 Y1.3725  
G01 X-1.6765 Y1.3725  
G01 X-1.6865 Y1.3825  
G01 X-1.7135 Y1.3825  
G01 X-1.7235 Y1.3725  
G01 X-1.7765 Y1.3725  
G01 X-1.7865 Y1.3825  
G01 X-1.8135 Y1.3825  
G01 X-1.8325 Y1.3635  
G01 X-1.8325 Y1.3365  
G01 X-1.8135 Y1.3175  
G00 Z0.0500  
G00 X-1.4707 Y1.3248  
G01 Z-0.0035 F10    
G01 X-1.4654 Y1.3212  F20    
G01 X-1.4595 Y1.3187  
G01 X-1.4532 Y1.3175  
G01 X-1.4468 Y1.3175  
G01 X-1.4405 Y1.3187  
G01 X-1.4346 Y1.3212  
G01 X-1.4293 Y1.3248  
G01 X-1.4248 Y1.3293  
G01 X-1.4212 Y1.3346  
G01 X-1.4187 Y1.3405  
G01 X-1.4175 Y1.3468  
G01 X-1.4175 Y1.3532  
G01 X-1.4187 Y1.3595  
G01 X-1.4212 Y1.3654  
G01 X-1.4248 Y1.3707  
G01 X-1.4275 Y1.3735  
G01 X-1.4275 Y1.6030  
G01 X-1.4290 Y1.6087  
G01 X-1.4320 Y1.6138  
G01 X-1.4362 Y1.6180  
G01 X-1.4775 Y1.6593  
G01 X-1.4775 Y1.6765  
G01 X-1.4675 Y1.6865  
G01 X-1.4675 Y1.7135  
G01 X-1.4865 Y1.7325  
G01 X-1.5135 Y1.7325  
G01 X-1.5235 Y1.7225  
G01 X-1.6530 Y1.7225  
G01 X-1.6587 Y1.7210  
G01 X-1.6638 Y1.7180  
G01 X-1.6993 Y1.6825  
G01 X-1.7135 Y1.6825  
G01 X-1.7325 Y1.6635  
G01 X-1.7325 Y1.6365  
G01 X-1.7135 Y1.6175  
G01 X-1.6865 Y1.6175  
G01 X-1.6675 Y1.6365  
G01 X-1.6675 Y1.6507  
G01 X-1.6407 Y1.6775  
G01 X-1.5235 Y1.6775  
G01 X-1.5225 Y1.6765  
G01 X-1.5225 Y1.6470  
G01 X-1.5210 Y1.6413  
G01 X-1.5180 Y1.6362  
G01 X-1.4725 Y1.5907  
G01 X-1.4725 Y1.3735  
G01 X-1.4752 Y1.3707  
G01 X-1.4788 Y1.3654  
G01 X-1.4813 Y1.3595  
G01 X-1.4825 Y1.3532  
G01 X-1.4825 Y1.3468  
G01 X-1.4813 Y1.3405  
G01 X-1.4788 Y1.3346  
G01 X-1.4752 Y1.3293  
G01 X-1.4707 Y1.3248  
G00 Z0.0500  
G00 X-1.3707 Y1.3248  
G01 Z-0.0035 F10    
G01 X-1.3654 Y1.3212  F20    
G01 X-1.3595 Y1.3187  
G01 X-1.3532 Y1.3175  
G01 X-1.3468 Y1.3175  
G01 X-1.3405 Y1.3187  
G01 X-1.3346 Y1.3212  
G01 X-1.3293 Y1.3248  
G01 X-1.3248 Y1.3293  
G01 X-1.3212 Y1.3346  
G01 X-1.3187 Y1.3405  
G01 X-1.3175 Y1.3468  
G01 X-1.3175 Y1.3532  
G01 X-1.3187 Y1.3595  
G01 X-1.3212 Y1.3654  
G01 X-1.3248 Y1.3707  
G01 X-1.3275 Y1.3735  
G01 X-1.3275 Y1.9243  
G01 X-1.3274 Y1.9265  
G01 X-1.3275 Y1.9272  
G01 X-1.3275 Y1.9280  
G01 X-1.3281 Y1.9301  
G01 X-1.3285 Y1.9323  
G01 X-1.3288 Y1.9330  
G01 X-1.3290 Y1.9337  
G01 X-1.3302 Y1.9356  
G01 X-1.3311 Y1.9376  
G01 X-1.3316 Y1.9382  
G01 X-1.3320 Y1.9388  
G01 X-1.3336 Y1.9404  
G01 X-1.3351 Y1.9421  
G01 X-1.3357 Y1.9425  
G01 X-1.3362 Y1.9430  
G01 X-1.3381 Y1.9441  
G01 X-1.4107 Y1.9925  
G01 X-1.4112 Y1.9930  
G01 X-1.4131 Y1.9941  
G01 X-1.4150 Y1.9954  
G01 X-1.4157 Y1.9956  
G01 X-1.4163 Y1.9960  
G01 X-1.4185 Y1.9965  
G01 X-1.4206 Y1.9973  
G01 X-1.4213 Y1.9973  
G01 X-1.4220 Y1.9975  
G01 X-1.4243 Y1.9975  
G01 X-1.4265 Y1.9976  
G01 X-1.4272 Y1.9975  
G01 X-1.5728 Y1.9975  
G01 X-1.5735 Y1.9976  
G01 X-1.5757 Y1.9975  
G01 X-1.5780 Y1.9975  
G01 X-1.5787 Y1.9973  
G01 X-1.5794 Y1.9973  
G01 X-1.5815 Y1.9965  
G01 X-1.5837 Y1.9960  
G01 X-1.5843 Y1.9956  
G01 X-1.5850 Y1.9954  
G01 X-1.5869 Y1.9941  
G01 X-1.5888 Y1.9930  
G01 X-1.5893 Y1.9925  
G01 X-1.7863 Y1.8612  
G01 X-1.9675 Y1.9581  
G01 X-1.9675 Y1.9635  
G01 X-1.9865 Y1.9825  
G01 X-2.0135 Y1.9825  
G01 X-2.0325 Y1.9635  
G01 X-2.0325 Y1.9365  
G01 X-2.0135 Y1.9175  
G01 X-1.9869 Y1.9175  
G01 X-1.8499 Y1.8442  
G01 X-1.9134 Y1.8308  
G01 X-1.9145 Y1.8313  
G01 X-1.9208 Y1.8325  
G01 X-1.9647 Y1.8325  
G01 X-2.1175 Y1.9089  
G01 X-2.1175 Y1.9135  
G01 X-2.1365 Y1.9325  
G01 X-2.1512 Y1.9325  
G01 X-2.2825 Y2.0598  
G01 X-2.2825 Y2.0735  
G01 X-2.3015 Y2.0925  
G01 X-2.3285 Y2.0925  
G01 X-2.3475 Y2.0735  
G01 X-2.3475 Y2.0465  
G01 X-2.3285 Y2.0275  
G01 X-2.3138 Y2.0275  
G01 X-2.1825 Y1.9002  
G01 X-2.1825 Y1.8865  
G01 X-2.1635 Y1.8675  
G01 X-2.1365 Y1.8675  
G01 X-2.1361 Y1.8679  
G01 X-2.0083 Y1.8040  
G01 X-2.0085 Y1.8032  
G01 X-2.0085 Y1.7968  
G01 X-2.0073 Y1.7905  
G01 X-2.0048 Y1.7846  
G01 X-2.0012 Y1.7793  
G01 X-1.9967 Y1.7748  
G01 X-1.9914 Y1.7712  
G01 X-1.9855 Y1.7687  
G01 X-1.9792 Y1.7675  
G01 X-1.9208 Y1.7675  
G01 X-1.9145 Y1.7687  
G01 X-1.9086 Y1.7712  
G01 X-1.9033 Y1.7748  
G01 X-1.8988 Y1.7793  
G01 X-1.8952 Y1.7846  
G01 X-1.8934 Y1.7890  
G01 X-1.7823 Y1.8126  
G01 X-1.7813 Y1.8126  
G01 X-1.7810 Y1.8127  
G01 X-1.7806 Y1.8127  
G01 X-1.7790 Y1.8133  
G01 X-1.7774 Y1.8136  
G01 X-1.7766 Y1.8140  
G01 X-1.7756 Y1.8143  
G01 X-1.7753 Y1.8145  
G01 X-1.7750 Y1.8146  
G01 X-1.7736 Y1.8155  
G01 X-1.7722 Y1.8163  
G01 X-1.7714 Y1.8169  
G01 X-1.7706 Y1.8175  
G01 X-1.7704 Y1.8177  
G01 X-1.5682 Y1.9525  
G01 X-1.4318 Y1.9525  
G01 X-1.3725 Y1.9130  
G01 X-1.3725 Y1.3735  
G01 X-1.3752 Y1.3707  
G01 X-1.3788 Y1.3654  
G01 X-1.3813 Y1.3595  
G01 X-1.3825 Y1.3532  
G01 X-1.3825 Y1.3468  
G01 X-1.3813 Y1.3405  
G01 X-1.3788 Y1.3346  
G01 X-1.3752 Y1.3293  
G01 X-1.3707 Y1.3248  
G00 Z0.0500  
G00 X-1.2707 Y1.3248  
G01 Z-0.0035 F10    
G01 X-1.2654 Y1.3212  F20    
G01 X-1.2595 Y1.3187  
G01 X-1.2532 Y1.3175  
G01 X-1.2468 Y1.3175  
G01 X-1.2405 Y1.3187  
G01 X-1.2346 Y1.3212  
G01 X-1.2293 Y1.3248  
G01 X-1.2248 Y1.3293  
G01 X-1.2212 Y1.3346  
G01 X-1.2187 Y1.3405  
G01 X-1.2175 Y1.3468  
G01 X-1.2175 Y1.3532  
G01 X-1.2187 Y1.3595  
G01 X-1.2212 Y1.3654  
G01 X-1.2248 Y1.3707  
G01 X-1.2275 Y1.3735  
G01 X-1.2275 Y1.5265  
G01 X-1.2175 Y1.5365  
G01 X-1.2175 Y1.5635  
G01 X-1.2196 Y1.5655  
G01 X-1.1808 Y1.6624  
G01 X-0.8407 Y2.0025  
G01 X-0.7593 Y2.0025  
G01 X-0.7475 Y1.9907  
G01 X-0.7475 Y1.8843  
G01 X-0.7888 Y1.8430  
G01 X-0.7930 Y1.8388  
G01 X-0.7960 Y1.8337  
G01 X-0.7975 Y1.8280  
G01 X-0.7975 Y1.7220  
G01 X-0.7960 Y1.7163  
G01 X-0.7930 Y1.7112  
G01 X-0.4975 Y1.4157  
G01 X-0.4975 Y1.0880  
G01 X-0.5157 Y1.0880  
G01 X-0.5380 Y1.0657  
G01 X-0.5380 Y1.0343  
G01 X-0.5157 Y1.0120  
G01 X-0.5062 Y1.0120  
G01 X-0.4961 Y0.9920  
G01 X-0.4960 Y0.9913  
G01 X-0.4948 Y0.9893  
G01 X-0.4938 Y0.9873  
G01 X-0.4933 Y0.9868  
G01 X-0.4930 Y0.9862  
G01 X-0.4914 Y0.9846  
G01 X-0.4899 Y0.9829  
G01 X-0.4893 Y0.9825  
G01 X-0.4888 Y0.9820  
G01 X-0.4868 Y0.9809  
G01 X-0.4849 Y0.9796  
G01 X-0.4843 Y0.9794  
G01 X-0.4837 Y0.9790  
G01 X-0.4815 Y0.9784  
G01 X-0.4793 Y0.9777  
G01 X-0.4786 Y0.9777  
G01 X-0.4780 Y0.9775  
G01 X-0.4757 Y0.9775  
G01 X-0.4734 Y0.9774  
G01 X-0.4727 Y0.9775  
G01 X-0.3862 Y0.9775  
G01 X-0.3881 Y0.9749  
G01 X-0.3912 Y0.9687  
G01 X-0.3934 Y0.9620  
G01 X-0.3945 Y0.9551  
G01 X-0.3945 Y0.9481  
G01 X-0.3934 Y0.9412  
G01 X-0.3912 Y0.9345  
G01 X-0.3881 Y0.9283  
G01 X-0.3839 Y0.9226  
G01 X-0.3790 Y0.9176  
G01 X-0.3733 Y0.9135  
G01 X-0.3671 Y0.9103  
G01 X-0.3604 Y0.9082  
G01 X-0.3535 Y0.9071  
G01 X-0.3465 Y0.9071  
G01 X-0.3399 Y0.9081  
G01 X-0.3225 Y0.8907  
G01 X-0.3225 Y0.8235  
G01 X-0.3325 Y0.8135  
G01 X-0.3325 Y0.7865  
G01 X-0.3135 Y0.7675  
G01 X-0.2865 Y0.7675  
G01 X-0.2675 Y0.7865  
G01 X-0.2675 Y0.8135  
G01 X-0.2775 Y0.8235  
G01 X-0.2775 Y0.9030  
G01 X-0.2790 Y0.9087  
G01 X-0.2820 Y0.9138  
G01 X-0.3073 Y0.9391  
G01 X-0.3066 Y0.9412  
G01 X-0.3055 Y0.9481  
G01 X-0.3055 Y0.9551  
G01 X-0.3066 Y0.9620  
G01 X-0.3088 Y0.9687  
G01 X-0.3119 Y0.9749  
G01 X-0.3161 Y0.9806  
G01 X-0.3210 Y0.9855  
G01 X-0.3267 Y0.9896  
G01 X-0.3329 Y0.9928  
G01 X-0.3375 Y0.9943  
G01 X-0.3612 Y1.0180  
G01 X-0.3663 Y1.0210  
G01 X-0.3720 Y1.0225  
G01 X-0.4525 Y1.0225  
G01 X-0.4525 Y1.4280  
G01 X-0.4540 Y1.4337  
G01 X-0.4570 Y1.4388  
G01 X-0.4612 Y1.4430  
G01 X-0.7525 Y1.7343  
G01 X-0.7525 Y1.8157  
G01 X-0.7070 Y1.8612  
G01 X-0.7040 Y1.8663  
G01 X-0.7025 Y1.8720  
G01 X-0.7025 Y2.0030  
G01 X-0.7040 Y2.0087  
G01 X-0.7070 Y2.0138  
G01 X-0.7112 Y2.0180  
G01 X-0.7362 Y2.0430  
G01 X-0.7413 Y2.0460  
G01 X-0.7470 Y2.0475  
G01 X-0.8530 Y2.0475  
G01 X-0.8587 Y2.0460  
G01 X-0.8638 Y2.0430  
G01 X-0.8680 Y2.0388  
G01 X-1.2150 Y1.6919  
G01 X-1.2162 Y1.6909  
G01 X-1.2170 Y1.6898  
G01 X-1.2180 Y1.6888  
G01 X-1.2188 Y1.6874  
G01 X-1.2198 Y1.6861  
G01 X-1.2203 Y1.6849  
G01 X-1.2210 Y1.6837  
G01 X-1.2214 Y1.6821  
G01 X-1.2612 Y1.5825  
G01 X-1.2635 Y1.5825  
G01 X-1.2825 Y1.5635  
G01 X-1.2825 Y1.5365  
G01 X-1.2725 Y1.5265  
G01 X-1.2725 Y1.3735  
G01 X-1.2752 Y1.3707  
G01 X-1.2788 Y1.3654  
G01 X-1.2813 Y1.3595  
G01 X-1.2825 Y1.3532  
G01 X-1.2825 Y1.3468  
G01 X-1.2813 Y1.3405  
G01 X-1.2788 Y1.3346  
G01 X-1.2752 Y1.3293  
G01 X-1.2707 Y1.3248  
G00 Z0.0500  
G00 X-1.2707 Y1.0752  
G01 Z-0.0035 F10    
G01 X-1.2752 Y1.0707  F20    
G01 X-1.2788 Y1.0654  
G01 X-1.2813 Y1.0595  
G01 X-1.2825 Y1.0532  
G01 X-1.2825 Y1.0468  
G01 X-1.2813 Y1.0405  
G01 X-1.2788 Y1.0346  
G01 X-1.2752 Y1.0293  
G01 X-1.2707 Y1.0248  
G01 X-1.2654 Y1.0212  
G01 X-1.2595 Y1.0187  
G01 X-1.2532 Y1.0175  
G01 X-1.2468 Y1.0175  
G01 X-1.2405 Y1.0187  
G01 X-1.2346 Y1.0212  
G01 X-1.2293 Y1.0248  
G01 X-1.2265 Y1.0275  
G01 X-1.2093 Y1.0275  
G01 X-1.0138 Y0.8320  
G01 X-1.0087 Y0.8290  
G01 X-1.0030 Y0.8275  
G01 X-0.9485 Y0.8275  
G01 X-0.9385 Y0.8175  
G01 X-0.9115 Y0.8175  
G01 X-0.8925 Y0.8365  
G01 X-0.8925 Y0.8635  
G01 X-0.9115 Y0.8825  
G01 X-0.9385 Y0.8825  
G01 X-0.9485 Y0.8725  
G01 X-0.9907 Y0.8725  
G01 X-1.1820 Y1.0638  
G01 X-1.1862 Y1.0680  
G01 X-1.1913 Y1.0710  
G01 X-1.1970 Y1.0725  
G01 X-1.2265 Y1.0725  
G01 X-1.2293 Y1.0752  
G01 X-1.2346 Y1.0788  
G01 X-1.2405 Y1.0813  
G01 X-1.2468 Y1.0825  
G01 X-1.2532 Y1.0825  
G01 X-1.2595 Y1.0813  
G01 X-1.2654 Y1.0788  
G01 X-1.2707 Y1.0752  
G00 Z0.0500  
G00 X-0.3790 Y1.1145  
G01 Z-0.0035 F10    
G01 X-0.3733 Y1.1104  F20    
G01 X-0.3671 Y1.1072  
G01 X-0.3604 Y1.1050  
G01 X-0.3535 Y1.1039  
G01 X-0.3465 Y1.1039  
G01 X-0.3396 Y1.1050  
G01 X-0.3329 Y1.1072  
G01 X-0.3267 Y1.1104  
G01 X-0.3210 Y1.1145  
G01 X-0.3161 Y1.1194  
G01 X-0.3119 Y1.1251  
G01 X-0.3088 Y1.1313  
G01 X-0.3066 Y1.1380  
G01 X-0.3055 Y1.1449  
G01 X-0.3055 Y1.1519  
G01 X-0.3066 Y1.1588  
G01 X-0.3088 Y1.1655  
G01 X-0.3119 Y1.1717  
G01 X-0.3161 Y1.1774  
G01 X-0.3210 Y1.1824  
G01 X-0.3267 Y1.1865  
G01 X-0.3275 Y1.1869  
G01 X-0.3275 Y1.5110  
G01 X-0.3065 Y1.5320  
G01 X-0.3065 Y1.5680  
G01 X-0.3320 Y1.5935  
G01 X-0.3680 Y1.5935  
G01 X-0.3890 Y1.5725  
G01 X-0.4110 Y1.5725  
G01 X-0.4320 Y1.5935  
G01 X-0.4680 Y1.5935  
G01 X-0.4935 Y1.5680  
G01 X-0.4935 Y1.5320  
G01 X-0.4680 Y1.5065  
G01 X-0.4320 Y1.5065  
G01 X-0.4110 Y1.5275  
G01 X-0.3890 Y1.5275  
G01 X-0.3725 Y1.5110  
G01 X-0.3725 Y1.1869  
G01 X-0.3733 Y1.1865  
G01 X-0.3790 Y1.1824  
G01 X-0.3839 Y1.1774  
G01 X-0.3881 Y1.1717  
G01 X-0.3912 Y1.1655  
G01 X-0.3934 Y1.1588  
G01 X-0.3945 Y1.1519  
G01 X-0.3945 Y1.1449  
G01 X-0.3934 Y1.1380  
G01 X-0.3912 Y1.1313  
G01 X-0.3881 Y1.1251  
G01 X-0.3839 Y1.1194  
G01 X-0.3790 Y1.1145  
G00 Z0.0500  
G00 X-0.3680 Y1.9065  
G01 Z-0.0035 F10    
G01 X-0.3320 Y1.9065  F20    
G01 X-0.3065 Y1.9320  
G01 X-0.3065 Y1.9680  
G01 X-0.3320 Y1.9935  
G01 X-0.3680 Y1.9935  
G01 X-0.3890 Y1.9725  
G01 X-0.4110 Y1.9725  
G01 X-0.4320 Y1.9935  
G01 X-0.4680 Y1.9935  
G01 X-0.4807 Y1.9808  
G01 X-0.6858 Y2.1176  
G01 X-0.6865 Y2.1182  
G01 X-0.6883 Y2.1192  
G01 X-0.6900 Y2.1204  
G01 X-0.6909 Y2.1207  
G01 X-0.6917 Y2.1211  
G01 X-0.6937 Y2.1216  
G01 X-0.6956 Y2.1223  
G01 X-0.6965 Y2.1223  
G01 X-0.7568 Y2.1374  
G01 X-0.7566 Y2.1380  
G01 X-0.7555 Y2.1449  
G01 X-0.7555 Y2.1519  
G01 X-0.7566 Y2.1588  
G01 X-0.7588 Y2.1655  
G01 X-0.7619 Y2.1717  
G01 X-0.7661 Y2.1774  
G01 X-0.7710 Y2.1824  
G01 X-0.7767 Y2.1865  
G01 X-0.7829 Y2.1897  
G01 X-0.7896 Y2.1918  
G01 X-0.7965 Y2.1929  
G01 X-0.8035 Y2.1929  
G01 X-0.8104 Y2.1918  
G01 X-0.8171 Y2.1897  
G01 X-0.8233 Y2.1865  
G01 X-0.8290 Y2.1824  
G01 X-0.8339 Y2.1774  
G01 X-0.8381 Y2.1717  
G01 X-0.8412 Y2.1655  
G01 X-0.8434 Y2.1588  
G01 X-0.8445 Y2.1519  
G01 X-0.8445 Y2.1449  
G01 X-0.8434 Y2.1380  
G01 X-0.8412 Y2.1313  
G01 X-0.8381 Y2.1251  
G01 X-0.8339 Y2.1194  
G01 X-0.8290 Y2.1145  
G01 X-0.8233 Y2.1104  
G01 X-0.8171 Y2.1072  
G01 X-0.8104 Y2.1050  
G01 X-0.8087 Y2.1040  
G01 X-0.8085 Y2.1040  
G01 X-0.8083 Y2.1039  
G01 X-0.8056 Y2.1032  
G01 X-0.8030 Y2.1025  
G01 X-0.8028 Y2.1025  
G01 X-0.7092 Y2.0791  
G01 X-0.4935 Y1.9353  
G01 X-0.4935 Y1.9320  
G01 X-0.4680 Y1.9065  
G01 X-0.4320 Y1.9065  
G01 X-0.4110 Y1.9275  
G01 X-0.3890 Y1.9275  
G01 X-0.3680 Y1.9065  
G00 Z0.0500  
G00 X-0.3680 Y2.0065  
G01 Z-0.0035 F10    
G01 X-0.3320 Y2.0065  F20    
G01 X-0.3065 Y2.0320  
G01 X-0.3065 Y2.0680  
G01 X-0.3320 Y2.0935  
G01 X-0.3680 Y2.0935  
G01 X-0.3935 Y2.0680  
G01 X-0.3935 Y2.0320  
G01 X-0.3680 Y2.0065  
G00 Z0.0500  
G00 X-0.4065 Y2.0320  
G01 Z-0.0035 F10    
G01 X-0.4065 Y2.0680  F20    
G01 X-0.4320 Y2.0935  
G01 X-0.4680 Y2.0935  
G01 X-0.4935 Y2.0680  
G01 X-0.4935 Y2.0320  
G01 X-0.4680 Y2.0065  
G01 X-0.4320 Y2.0065  
G01 X-0.4065 Y2.0320  
G00 Z0.0500  
G00 X-0.4110 Y2.1275  
G01 Z-0.0035 F10    
G01 X-0.3890 Y2.1275  F20    
G01 X-0.3680 Y2.1065  
G01 X-0.3320 Y2.1065  
G01 X-0.3065 Y2.1320  
G01 X-0.3065 Y2.1680  
G01 X-0.3320 Y2.1935  
G01 X-0.3680 Y2.1935  
G01 X-0.3890 Y2.1725  
G01 X-0.4110 Y2.1725  
G01 X-0.4320 Y2.1935  
G01 X-0.4680 Y2.1935  
G01 X-0.4890 Y2.1725  
G01 X-0.5907 Y2.1725  
G01 X-0.7320 Y2.3138  
G01 X-0.7362 Y2.3180  
G01 X-0.7413 Y2.3210  
G01 X-0.7470 Y2.3225  
G01 X-0.9765 Y2.3225  
G01 X-0.9865 Y2.3325  
G01 X-1.0135 Y2.3325  
G01 X-1.0325 Y2.3135  
G01 X-1.0325 Y2.2865  
G01 X-1.0321 Y2.2861  
G01 X-1.1007 Y2.1490  
G01 X-1.1203 Y2.1490  
G01 X-1.1468 Y2.1225  
G01 X-1.2265 Y2.1225  
G01 X-1.2365 Y2.1325  
G01 X-1.2635 Y2.1325  
G01 X-1.2825 Y2.1135  
G01 X-1.2825 Y2.0865  
G01 X-1.2635 Y2.0675  
G01 X-1.2365 Y2.0675  
G01 X-1.2265 Y2.0775  
G01 X-1.1468 Y2.0775  
G01 X-1.1203 Y2.0510  
G01 X-1.0797 Y2.0510  
G01 X-1.0510 Y2.0797  
G01 X-1.0510 Y2.1203  
G01 X-1.0601 Y2.1294  
G01 X-0.9911 Y2.2675  
G01 X-0.9865 Y2.2675  
G01 X-0.9765 Y2.2775  
G01 X-0.7593 Y2.2775  
G01 X-0.6138 Y2.1320  
G01 X-0.6087 Y2.1290  
G01 X-0.6030 Y2.1275  
G01 X-0.4890 Y2.1275  
G01 X-0.4680 Y2.1065  
G01 X-0.4320 Y2.1065  
G01 X-0.4110 Y2.1275  
G00 Z0.0500  
G00 X-0.4110 Y2.2275  
G01 Z-0.0035 F10    
G01 X-0.3890 Y2.2275  F20    
G01 X-0.3680 Y2.2065  
G01 X-0.3320 Y2.2065  
G01 X-0.3065 Y2.2320  
G01 X-0.3065 Y2.2680  
G01 X-0.3320 Y2.2935  
G01 X-0.3680 Y2.2935  
G01 X-0.3890 Y2.2725  
G01 X-0.4110 Y2.2725  
G01 X-0.4320 Y2.2935  
G01 X-0.4680 Y2.2935  
G01 X-0.4890 Y2.2725  
G01 X-0.5407 Y2.2725  
G01 X-0.6510 Y2.3828  
G01 X-0.6510 Y2.4203  
G01 X-0.6797 Y2.4490  
G01 X-0.7203 Y2.4490  
G01 X-0.7468 Y2.4225  
G01 X-0.8765 Y2.4225  
G01 X-0.8865 Y2.4325  
G01 X-0.9135 Y2.4325  
G01 X-0.9235 Y2.4225  
G01 X-0.9530 Y2.4225  
G01 X-0.9587 Y2.4210  
G01 X-0.9638 Y2.4180  
G01 X-0.9680 Y2.4138  
G01 X-0.9710 Y2.4087  
G01 X-0.9725 Y2.4030  
G01 X-0.9725 Y2.3970  
G01 X-0.9710 Y2.3913  
G01 X-0.9680 Y2.3862  
G01 X-0.9638 Y2.3820  
G01 X-0.9587 Y2.3790  
G01 X-0.9530 Y2.3775  
G01 X-0.9235 Y2.3775  
G01 X-0.9135 Y2.3675  
G01 X-0.8865 Y2.3675  
G01 X-0.8765 Y2.3775  
G01 X-0.7468 Y2.3775  
G01 X-0.7203 Y2.3510  
G01 X-0.6828 Y2.3510  
G01 X-0.5638 Y2.2320  
G01 X-0.5587 Y2.2290  
G01 X-0.5530 Y2.2275  
G01 X-0.4890 Y2.2275  
G01 X-0.4680 Y2.2065  
G01 X-0.4320 Y2.2065  
G01 X-0.4110 Y2.2275  
G00 Z0.0500  
G00 X-1.0675 Y2.3865  
G01 Z-0.0035 F10    
G01 X-1.0675 Y2.4135  F20    
G01 X-1.0865 Y2.4325  
G01 X-1.1135 Y2.4325  
G01 X-1.1235 Y2.4225  
G01 X-1.3530 Y2.4225  
G01 X-1.3587 Y2.4210  
G01 X-1.3638 Y2.4180  
G01 X-1.4093 Y2.3725  
G01 X-1.5265 Y2.3725  
G01 X-1.5365 Y2.3825  
G01 X-1.5507 Y2.3825  
G01 X-1.5862 Y2.4180  
G01 X-1.5913 Y2.4210  
G01 X-1.5970 Y2.4225  
G01 X-1.6515 Y2.4225  
G01 X-1.6615 Y2.4325  
G01 X-1.6885 Y2.4325  
G01 X-1.7075 Y2.4135  
G01 X-1.7075 Y2.3865  
G01 X-1.6885 Y2.3675  
G01 X-1.6615 Y2.3675  
G01 X-1.6515 Y2.3775  
G01 X-1.6093 Y2.3775  
G01 X-1.5825 Y2.3507  
G01 X-1.5825 Y2.3365  
G01 X-1.5635 Y2.3175  
G01 X-1.5365 Y2.3175  
G01 X-1.5265 Y2.3275  
G01 X-1.3970 Y2.3275  
G01 X-1.3913 Y2.3290  
G01 X-1.3862 Y2.3320  
G01 X-1.3820 Y2.3362  
G01 X-1.3407 Y2.3775  
G01 X-1.1235 Y2.3775  
G01 X-1.1135 Y2.3675  
G01 X-1.0865 Y2.3675  
G01 X-1.0675 Y2.3865  
G00 Z0.0500  
G00 X-1.1865 Y2.3325  
G01 Z-0.0035 F10    
G01 X-1.2135 Y2.3325  F20    
G01 X-1.2325 Y2.3135  
G01 X-1.2325 Y2.2993  
G01 X-1.3093 Y2.2225  
G01 X-1.3157 Y2.2225  
G01 X-1.3570 Y2.2638  
G01 X-1.3612 Y2.2680  
G01 X-1.3663 Y2.2710  
G01 X-1.3720 Y2.2725  
G01 X-1.3765 Y2.2725  
G01 X-1.3865 Y2.2825  
G01 X-1.4135 Y2.2825  
G01 X-1.4325 Y2.2635  
G01 X-1.4325 Y2.2365  
G01 X-1.4135 Y2.2175  
G01 X-1.3865 Y2.2175  
G01 X-1.3804 Y2.2236  
G01 X-1.3430 Y2.1862  
G01 X-1.3388 Y2.1820  
G01 X-1.3325 Y2.1757  
G01 X-1.3325 Y2.1615  
G01 X-1.3135 Y2.1425  
G01 X-1.2865 Y2.1425  
G01 X-1.2675 Y2.1615  
G01 X-1.2675 Y2.1885  
G01 X-1.2736 Y2.1946  
G01 X-1.2007 Y2.2675  
G01 X-1.1865 Y2.2675  
G01 X-1.1675 Y2.2865  
G01 X-1.1675 Y2.3135  
G01 X-1.1865 Y2.3325  
G00 Z0.0500  
G00 X-1.3675 Y2.4365  
G01 Z-0.0035 F10    
G01 X-1.3675 Y2.4635  F20    
G01 X-1.3865 Y2.4825  
G01 X-1.4135 Y2.4825  
G01 X-1.4235 Y2.4725  
G01 X-1.5157 Y2.4725  
G01 X-1.5320 Y2.4888  
G01 X-1.5362 Y2.4930  
G01 X-1.5413 Y2.4960  
G01 X-1.5470 Y2.4975  
G01 X-1.7280 Y2.4975  
G01 X-1.7337 Y2.4960  
G01 X-1.7388 Y2.4930  
G01 X-1.7493 Y2.4825  
G01 X-1.7635 Y2.4825  
G01 X-1.7825 Y2.4635  
G01 X-1.7825 Y2.4365  
G01 X-1.7635 Y2.4175  
G01 X-1.7365 Y2.4175  
G01 X-1.7175 Y2.4365  
G01 X-1.7175 Y2.4507  
G01 X-1.7157 Y2.4525  
G01 X-1.5593 Y2.4525  
G01 X-1.5388 Y2.4320  
G01 X-1.5337 Y2.4290  
G01 X-1.5280 Y2.4275  
G01 X-1.4235 Y2.4275  
G01 X-1.4135 Y2.4175  
G01 X-1.3865 Y2.4175  
G01 X-1.3675 Y2.4365  
G00 Z0.0500  
G00 X-1.3635 Y2.1325  
G01 Z-0.0035 F10    
G01 X-1.3735 Y2.1225  F20    
G01 X-1.4227 Y2.1225  
G01 X-1.4234 Y2.1226  
G01 X-1.4257 Y2.1225  
G01 X-1.4280 Y2.1225  
G01 X-1.4286 Y2.1223  
G01 X-1.4293 Y2.1223  
G01 X-1.4315 Y2.1216  
G01 X-1.4337 Y2.1210  
G01 X-1.4343 Y2.1206  
G01 X-1.4349 Y2.1204  
G01 X-1.4368 Y2.1191  
G01 X-1.4388 Y2.1180  
G01 X-1.4393 Y2.1175  
G01 X-1.4399 Y2.1171  
G01 X-1.4414 Y2.1154  
G01 X-1.4430 Y2.1138  
G01 X-1.4433 Y2.1132  
G01 X-1.4438 Y2.1127  
G01 X-1.4448 Y2.1107  
G01 X-1.4460 Y2.1087  
G01 X-1.4461 Y2.1080  
G01 X-1.4639 Y2.0725  
G01 X-1.6228 Y2.0725  
G01 X-1.6235 Y2.0726  
G01 X-1.6257 Y2.0725  
G01 X-1.6280 Y2.0725  
G01 X-1.6287 Y2.0723  
G01 X-1.6294 Y2.0723  
G01 X-1.6315 Y2.0715  
G01 X-1.6337 Y2.0710  
G01 X-1.6343 Y2.0706  
G01 X-1.6350 Y2.0704  
G01 X-1.6369 Y2.0691  
G01 X-1.6388 Y2.0680  
G01 X-1.6393 Y2.0675  
G01 X-1.7668 Y1.9825  
G01 X-1.7885 Y1.9825  
G01 X-1.7929 Y1.9781  
G01 X-1.8417 Y1.9911  
G01 X-1.9675 Y2.0582  
G01 X-1.9675 Y2.0635  
G01 X-1.9865 Y2.0825  
G01 X-2.0135 Y2.0825  
G01 X-2.0215 Y2.0745  
G01 X-2.0894 Y2.0804  
G01 X-2.1015 Y2.0925  
G01 X-2.1285 Y2.0925  
G01 X-2.1475 Y2.0735  
G01 X-2.1475 Y2.0465  
G01 X-2.1285 Y2.0275  
G01 X-2.1015 Y2.0275  
G01 X-2.0935 Y2.0355  
G01 X-2.0256 Y2.0296  
G01 X-2.0135 Y2.0175  
G01 X-1.9869 Y2.0175  
G01 X-1.8609 Y1.9503  
G01 X-1.8587 Y1.9490  
G01 X-1.8583 Y1.9489  
G01 X-1.8580 Y1.9488  
G01 X-1.8554 Y1.9482  
G01 X-1.8059 Y1.9350  
G01 X-1.7885 Y1.9175  
G01 X-1.7615 Y1.9175  
G01 X-1.7425 Y1.9365  
G01 X-1.7425 Y1.9446  
G01 X-1.6182 Y2.0275  
G01 X-1.4523 Y2.0275  
G01 X-1.4516 Y2.0274  
G01 X-1.4493 Y2.0275  
G01 X-1.4470 Y2.0275  
G01 X-1.4464 Y2.0277  
G01 X-1.4457 Y2.0277  
G01 X-1.4435 Y2.0284  
G01 X-1.4413 Y2.0290  
G01 X-1.4407 Y2.0294  
G01 X-1.4401 Y2.0296  
G01 X-1.4382 Y2.0309  
G01 X-1.4362 Y2.0320  
G01 X-1.4357 Y2.0325  
G01 X-1.4351 Y2.0329  
G01 X-1.4336 Y2.0346  
G01 X-1.4320 Y2.0362  
G01 X-1.4317 Y2.0368  
G01 X-1.4312 Y2.0373  
G01 X-1.4302 Y2.0393  
G01 X-1.4290 Y2.0413  
G01 X-1.4289 Y2.0420  
G01 X-1.4111 Y2.0775  
G01 X-1.3735 Y2.0775  
G01 X-1.3635 Y2.0675  
G01 X-1.3365 Y2.0675  
G01 X-1.3175 Y2.0865  
G01 X-1.3175 Y2.1135  
G01 X-1.3365 Y2.1325  
G01 X-1.3635 Y2.1325  
G00 Z0.0500  
G00 X-1.7425 Y2.1365  
G01 Z-0.0035 F10    
G01 X-1.7425 Y2.1635  F20    
G01 X-1.7615 Y2.1825  
G01 X-1.7621 Y2.1825  
G01 X-1.7782 Y2.2308  
G01 X-1.7786 Y2.2324  
G01 X-1.7792 Y2.2336  
G01 X-1.7796 Y2.2349  
G01 X-1.7805 Y2.2363  
G01 X-1.7812 Y2.2377  
G01 X-1.7821 Y2.2387  
G01 X-1.7829 Y2.2399  
G01 X-1.7841 Y2.2409  
G01 X-1.7851 Y2.2421  
G01 X-1.7863 Y2.2429  
G01 X-1.7873 Y2.2438  
G01 X-1.7887 Y2.2445  
G01 X-1.7901 Y2.2454  
G01 X-1.7914 Y2.2458  
G01 X-1.7926 Y2.2464  
G01 X-1.7942 Y2.2468  
G01 X-1.9175 Y2.2879  
G01 X-1.9175 Y2.2885  
G01 X-1.9365 Y2.3075  
G01 X-1.9635 Y2.3075  
G01 X-1.9735 Y2.2975  
G01 X-2.3734 Y2.2975  
G01 X-2.3748 Y2.2977  
G01 X-2.3764 Y2.2975  
G01 X-2.3780 Y2.2975  
G01 X-2.3793 Y2.2971  
G01 X-2.3806 Y2.2970  
G01 X-2.3821 Y2.2964  
G01 X-2.3837 Y2.2960  
G01 X-2.3849 Y2.2953  
G01 X-2.3861 Y2.2948  
G01 X-2.3874 Y2.2938  
G01 X-2.3888 Y2.2930  
G01 X-2.3898 Y2.2920  
G01 X-2.4692 Y2.2325  
G01 X-2.4885 Y2.2325  
G01 X-2.5075 Y2.2135  
G01 X-2.5075 Y2.1865  
G01 X-2.4885 Y2.1675  
G01 X-2.4615 Y2.1675  
G01 X-2.4425 Y2.1865  
G01 X-2.4425 Y2.1963  
G01 X-2.3675 Y2.2525  
G01 X-1.9735 Y2.2525  
G01 X-1.9635 Y2.2425  
G01 X-1.9365 Y2.2425  
G01 X-1.9333 Y2.2457  
G01 X-1.8178 Y2.2072  
G01 X-1.8043 Y2.1667  
G01 X-1.8075 Y2.1635  
G01 X-1.8075 Y2.1365  
G01 X-1.7885 Y2.1175  
G01 X-1.7615 Y2.1175  
G01 X-1.7425 Y2.1365  
G00 Z0.0500  
G00 X-2.0593 Y1.6380  
G01 Z-0.0035 F10    
G01 X-2.0907 Y1.6380  F20    
G01 X-2.1062 Y1.6225  
G01 X-2.4432 Y1.6225  
G01 X-2.4598 Y1.6336  
G01 X-2.4614 Y1.6419  
G01 X-2.4607 Y1.6426  
G01 X-2.4598 Y1.6450  
G01 X-2.4598 Y1.6950  
G01 X-2.4607 Y1.6974  
G01 X-2.4626 Y1.6993  
G01 X-2.4650 Y1.7002  
G01 X-2.5150 Y1.7002  
G01 X-2.5174 Y1.6993  
G01 X-2.5193 Y1.6974  
G01 X-2.5202 Y1.6950  
G01 X-2.5202 Y1.6450  
G01 X-2.5193 Y1.6426  
G01 X-2.5174 Y1.6407  
G01 X-2.5150 Y1.6398  
G01 X-2.5069 Y1.6398  
G01 X-2.5015 Y1.6127  
G01 X-2.4989 Y1.6074  
G01 X-2.4949 Y1.6029  
G01 X-2.4900 Y1.5996  
G01 X-2.4643 Y1.5825  
G01 X-2.4638 Y1.5820  
G01 X-2.4619 Y1.5809  
G01 X-2.4600 Y1.5796  
G01 X-2.4593 Y1.5794  
G01 X-2.4587 Y1.5790  
G01 X-2.4565 Y1.5785  
G01 X-2.4544 Y1.5777  
G01 X-2.4537 Y1.5777  
G01 X-2.4530 Y1.5775  
G01 X-2.4507 Y1.5775  
G01 X-2.4485 Y1.5774  
G01 X-2.4478 Y1.5775  
G01 X-2.1062 Y1.5775  
G01 X-2.0907 Y1.5620  
G01 X-2.0593 Y1.5620  
G01 X-2.0370 Y1.5843  
G01 X-2.0370 Y1.6157  
G01 X-2.0593 Y1.6380  
G00 Z0.0500  
G00 X-2.5175 Y2.2365  
G01 Z-0.0035 F10    
G01 X-2.5175 Y2.2582  F20    
G01 X-2.4446 Y2.3675  
G01 X-2.4365 Y2.3675  
G01 X-2.4175 Y2.3865  
G01 X-2.4175 Y2.4135  
G01 X-2.4365 Y2.4325  
G01 X-2.4635 Y2.4325  
G01 X-2.4825 Y2.4135  
G01 X-2.4825 Y2.3918  
G01 X-2.5554 Y2.2825  
G01 X-2.5635 Y2.2825  
G01 X-2.5825 Y2.2635  
G01 X-2.5825 Y2.2528  
G01 X-2.6704 Y2.1825  
G01 X-2.6885 Y2.1825  
G01 X-2.7075 Y2.1635  
G01 X-2.7075 Y2.1589  
G01 X-2.7832 Y2.1211  
G01 X-2.7840 Y2.1208  
G01 X-2.7858 Y2.1197  
G01 X-2.7877 Y2.1188  
G01 X-2.7884 Y2.1182  
G01 X-2.8896 Y2.0575  
G01 X-2.9135 Y2.0575  
G01 X-2.9325 Y2.0385  
G01 X-2.9325 Y2.0115  
G01 X-2.9135 Y1.9925  
G01 X-2.8865 Y1.9925  
G01 X-2.8675 Y2.0115  
G01 X-2.8675 Y2.0183  
G01 X-2.7642 Y2.0803  
G01 X-2.6889 Y2.1179  
G01 X-2.6885 Y2.1175  
G01 X-2.6615 Y2.1175  
G01 X-2.6425 Y2.1365  
G01 X-2.6425 Y2.1472  
G01 X-2.5546 Y2.2175  
G01 X-2.5365 Y2.2175  
G01 X-2.5175 Y2.2365  
G00 Z0.0500  
G00 X-0.8725 Y1.8457  
G01 Z-0.0035 F10    
G01 X-0.8725 Y1.8185  F20    
G01 X-0.8775 Y1.8235  
G01 X-0.8775 Y1.8407  
G01 X-0.8725 Y1.8457  
G00 Z0.0500  
G00 X-0.1302 Y0.0307  
G01 Z-0.0035 F10    
G01 X-0.1295 Y0.0316  F20    
G01 X-0.1286 Y0.0325  
G01 X-0.1278 Y0.0337  
G01 X-0.0295 Y0.1566  
G01 X-0.0286 Y0.1575  
G01 X-0.0278 Y0.1587  
G01 X-0.0268 Y0.1599  
G01 X-0.0263 Y0.1610  
G01 X-0.0256 Y0.1620  
G01 X-0.0250 Y0.1634  
G01 X-0.0243 Y0.1647  
G01 X-0.0240 Y0.1659  
G01 X-0.0236 Y0.1670  
G01 X-0.0233 Y0.1685  
G01 X-0.0228 Y0.1699  
G01 X-0.0227 Y0.1711  
G01 X-0.0225 Y0.1723  
G01 X-0.0225 Y0.1738  
G01 X-0.0224 Y0.1753  
G01 X-0.0225 Y0.1765  
G01 X-0.0225 Y0.6239  
G01 X-0.0224 Y0.6254  
G01 X-0.0225 Y0.6266  
G01 X-0.0225 Y0.6277  
G01 X-0.0228 Y0.6292  
G01 X-0.0230 Y0.6308  
G01 X-0.0233 Y0.6319  
G01 X-0.0236 Y0.6330  
G01 X-0.0242 Y0.6345  
G01 X-0.0246 Y0.6360  
G01 X-0.0252 Y0.6370  
G01 X-0.0256 Y0.6380  
G01 X-0.0265 Y0.6393  
G01 X-0.0273 Y0.6407  
G01 X-0.0280 Y0.6416  
G01 X-0.0286 Y0.6425  
G01 X-0.0297 Y0.6436  
G01 X-0.1565 Y0.7935  
G01 X-0.1492 Y0.8154  
G01 X-0.1486 Y0.8170  
G01 X-0.1484 Y0.8179  
G01 X-0.1481 Y0.8189  
G01 X-0.1478 Y0.8206  
G01 X-0.1475 Y0.8223  
G01 X-0.1475 Y0.8233  
G01 X-0.1474 Y0.8242  
G01 X-0.1475 Y0.8260  
G01 X-0.1475 Y1.5740  
G01 X-0.1474 Y1.5758  
G01 X-0.1475 Y1.5767  
G01 X-0.1475 Y1.5777  
G01 X-0.1478 Y1.5794  
G01 X-0.1481 Y1.5811  
G01 X-0.1484 Y1.5821  
G01 X-0.1486 Y1.5830  
G01 X-0.1492 Y1.5846  
G01 X-0.1498 Y1.5863  
G01 X-0.1503 Y1.5871  
G01 X-0.1506 Y1.5880  
G01 X-0.1516 Y1.5895  
G01 X-0.1525 Y1.5910  
G01 X-0.1531 Y1.5917  
G01 X-0.1536 Y1.5925  
G01 X-0.1549 Y1.5938  
G01 X-0.1560 Y1.5951  
G01 X-0.1568 Y1.5957  
G01 X-0.1575 Y1.5964  
G01 X-0.1589 Y1.5973  
G01 X-0.1603 Y1.5984  
G01 X-0.1612 Y1.5988  
G01 X-0.1620 Y1.5994  
G01 X-0.1636 Y1.6000  
G01 X-0.3106 Y1.6736  
G01 X-0.3225 Y1.6854  
G01 X-0.3225 Y1.7146  
G01 X-0.3055 Y1.7316  
G01 X-0.3055 Y1.7684  
G01 X-0.3225 Y1.7854  
G01 X-0.3225 Y1.8103  
G01 X-0.1870 Y1.9006  
G01 X-0.1847 Y1.9022  
G01 X-0.1825 Y1.9036  
G01 X-0.1805 Y1.9056  
G01 X-0.1787 Y1.9074  
G01 X-0.1771 Y1.9097  
G01 X-0.1756 Y1.9119  
G01 X-0.1746 Y1.9145  
G01 X-0.1736 Y1.9170  
G01 X-0.1730 Y1.9196  
G01 X-0.1725 Y1.9223  
G01 X-0.1725 Y1.9250  
G01 X-0.1725 Y1.9277  
G01 X-0.1725 Y2.2235  
G01 X-0.1724 Y2.2246  
G01 X-0.1725 Y2.2262  
G01 X-0.1725 Y2.2277  
G01 X-0.1727 Y2.2288  
G01 X-0.1728 Y2.2300  
G01 X-0.1733 Y2.2315  
G01 X-0.1736 Y2.2330  
G01 X-0.1740 Y2.2341  
G01 X-0.1743 Y2.2352  
G01 X-0.1750 Y2.2366  
G01 X-0.1756 Y2.2380  
G01 X-0.1763 Y2.2390  
G01 X-0.1768 Y2.2400  
G01 X-0.1778 Y2.2412  
G01 X-0.1786 Y2.2425  
G01 X-0.1795 Y2.2434  
G01 X-0.4528 Y2.5862  
G01 X-0.4536 Y2.5875  
G01 X-0.4545 Y2.5884  
G01 X-0.4552 Y2.5893  
G01 X-0.4564 Y2.5903  
G01 X-0.4575 Y2.5914  
G01 X-0.4584 Y2.5920  
G01 X-0.4593 Y2.5928  
G01 X-0.4607 Y2.5935  
G01 X-0.4620 Y2.5944  
G01 X-0.4630 Y2.5948  
G01 X-0.4641 Y2.5954  
G01 X-0.4655 Y2.5958  
G01 X-0.4670 Y2.5964  
G01 X-0.4681 Y2.5967  
G01 X-0.4692 Y2.5970  
G01 X-0.4708 Y2.5972  
G01 X-0.4723 Y2.5975  
G01 X-0.4735 Y2.5975  
G01 X-0.4746 Y2.5976  
G01 X-0.4762 Y2.5975  
G01 X-2.4925 Y2.5975  
G01 X-2.4927 Y2.5975  
G01 X-2.4952 Y2.5975  
G01 X-2.4977 Y2.5975  
G01 X-2.4979 Y2.5975  
G01 X-2.4982 Y2.5975  
G01 X-2.5006 Y2.5969  
G01 X-2.5030 Y2.5964  
G01 X-2.5032 Y2.5964  
G01 X-2.5035 Y2.5963  
G01 X-2.5057 Y2.5953  
G01 X-2.5080 Y2.5944  
G01 X-2.5082 Y2.5942  
G01 X-2.5084 Y2.5942  
G01 X-2.5105 Y2.5927  
G01 X-2.5125 Y2.5914  
G01 X-2.5127 Y2.5912  
G01 X-2.5755 Y2.5477  
G01 X-2.5777 Y2.5462  
G01 X-2.5779 Y2.5461  
G01 X-2.5797 Y2.5442  
G01 X-3.3195 Y1.7944  
G01 X-3.3214 Y1.7925  
G01 X-3.3215 Y1.7924  
G01 X-3.3229 Y1.7902  
G01 X-3.3244 Y1.7880  
G01 X-3.3245 Y1.7879  
G01 X-3.3254 Y1.7854  
G01 X-3.3264 Y1.7830  
G01 X-3.3265 Y1.7828  
G01 X-3.3270 Y1.7803  
G01 X-3.3275 Y1.7777  
G01 X-3.3275 Y1.7775  
G01 X-3.3275 Y1.7749  
G01 X-3.3275 Y1.5335  
G01 X-3.3293 Y1.5335  
G01 X-3.3358 Y1.5322  
G01 X-3.3419 Y1.5297  
G01 X-3.3474 Y1.5260  
G01 X-3.3520 Y1.5214  
G01 X-3.3557 Y1.5159  
G01 X-3.3582 Y1.5098  
G01 X-3.3595 Y1.5033  
G01 X-3.3595 Y1.4967  
G01 X-3.3582 Y1.4902  
G01 X-3.3557 Y1.4841  
G01 X-3.3553 Y1.4836  
G01 X-3.6425 Y1.1964  
G01 X-3.6464 Y1.1925  
G01 X-3.6494 Y1.1880  
G01 X-3.6514 Y1.1830  
G01 X-3.6525 Y1.1777  
G01 X-3.6525 Y1.1169  
G01 X-3.6537 Y1.1169  
G01 X-3.6608 Y1.1154  
G01 X-3.6676 Y1.1126  
G01 X-3.6737 Y1.1086  
G01 X-3.6789 Y1.1034  
G01 X-3.6830 Y1.0973  
G01 X-3.6858 Y1.0905  
G01 X-3.6872 Y1.0833  
G01 X-3.6872 Y1.0167  
G01 X-3.6858 Y1.0095  
G01 X-3.6830 Y1.0027  
G01 X-3.6789 Y0.9966  
G01 X-3.6737 Y0.9914  
G01 X-3.6676 Y0.9874  
G01 X-3.6608 Y0.9846  
G01 X-3.6537 Y0.9831  
G01 X-3.6463 Y0.9831  
G01 X-3.6392 Y0.9846  
G01 X-3.6324 Y0.9874  
G01 X-3.6263 Y0.9914  
G01 X-3.6211 Y0.9966  
G01 X-3.6170 Y1.0027  
G01 X-3.6169 Y1.0030  
G01 X-3.5425 Y0.9286  
G01 X-3.5380 Y0.9256  
G01 X-3.5330 Y0.9236  
G01 X-3.5277 Y0.9225  
G01 X-3.4275 Y0.9225  
G01 X-3.4275 Y0.5501  
G01 X-3.4305 Y0.1245  
G01 X-3.5523 Y0.1253  
G01 X-3.5540 Y0.1286  
G01 X-3.5593 Y0.1359  
G01 X-3.5657 Y0.1423  
G01 X-3.5730 Y0.1476  
G01 X-3.5811 Y0.1517  
G01 X-3.5897 Y0.1545  
G01 X-3.5986 Y0.1559  
G01 X-3.7077 Y0.1559  
G01 X-3.7166 Y0.1545  
G01 X-3.7252 Y0.1517  
G01 X-3.7333 Y0.1476  
G01 X-3.7406 Y0.1423  
G01 X-3.7470 Y0.1359  
G01 X-3.7523 Y0.1286  
G01 X-3.7564 Y0.1205  
G01 X-3.7592 Y0.1119  
G01 X-3.7606 Y0.1030  
G01 X-3.7606 Y0.0939  
G01 X-3.7592 Y0.0850  
G01 X-3.7564 Y0.0764  
G01 X-3.7523 Y0.0683  
G01 X-3.7470 Y0.0610  
G01 X-3.7406 Y0.0546  
G01 X-3.7333 Y0.0492  
G01 X-3.7252 Y0.0451  
G01 X-3.7166 Y0.0423  
G01 X-3.7077 Y0.0409  
G01 X-3.5986 Y0.0409  
G01 X-3.5897 Y0.0423  
G01 X-3.5811 Y0.0451  
G01 X-3.5730 Y0.0492  
G01 X-3.5657 Y0.0546  
G01 X-3.5593 Y0.0610  
G01 X-3.5540 Y0.0683  
G01 X-3.5529 Y0.0703  
G01 X-3.4035 Y0.0694  
G01 X-3.4006 Y0.0693  
G01 X-3.3980 Y0.0698  
G01 X-3.3953 Y0.0704  
G01 X-3.3928 Y0.0714  
G01 X-3.3903 Y0.0724  
G01 X-3.3880 Y0.0739  
G01 X-3.3858 Y0.0754  
G01 X-3.3838 Y0.0773  
G01 X-3.3819 Y0.0792  
G01 X-3.3803 Y0.0815  
G01 X-3.3789 Y0.0837  
G01 X-3.3778 Y0.0862  
G01 X-3.3768 Y0.0886  
G01 X-3.3762 Y0.0912  
G01 X-3.3757 Y0.0940  
G01 X-3.3757 Y0.0966  
G01 X-3.3725 Y0.5472  
G01 X-3.3725 Y0.5499  
G01 X-3.3725 Y0.5525  
G01 X-3.3725 Y0.9118  
G01 X-3.2776 Y0.8802  
G01 X-3.2639 Y0.8665  
G01 X-3.2361 Y0.8665  
G01 X-3.2165 Y0.8861  
G01 X-3.2165 Y0.9139  
