( Made using CamBam - http://www.cambam.co.uk )
( 808_bd_panel 5/21/2016 11:11:03 AM )
( T3 : 3.175 )
G21 G90 G64 G40
G0 Z3.0
( T3 : 3.175 )
T3 M6
( holes )
G17
M3 S1000
G0 X5.7616 Y2.9881
G0 Z3.0
G0 X5.7741 Y2.9881
G1 F1000.0 Z0.0
G2 F2000.0 X5.7553 Y2.9773 Z-0.0333 I-0.0125 J0.0
G2 Y2.9989 Z-0.0667 I0.0062 J0.0108
G2 X5.7741 Y2.9881 Z-0.1 I0.0063 J-0.0108
G2 X5.7553 Y2.9773 Z-0.1333 I-0.0125 J0.0
G2 Y2.9989 Z-0.1667 I0.0062 J0.0108
G2 X5.7741 Y2.9881 Z-0.2 I0.0063 J-0.0108
G2 X5.7553 Y2.9773 Z-0.2333 I-0.0125 J0.0
G2 Y2.9989 Z-0.2667 I0.0062 J0.0108
G2 X5.7741 Y2.9881 Z-0.3 I0.0063 J-0.0108
G2 X5.7553 Y2.9773 Z-0.3333 I-0.0125 J0.0
G2 Y2.9989 Z-0.3667 I0.0063 J0.0108
G2 X5.7741 Y2.9881 Z-0.4 I0.0062 J-0.0108
G2 X5.7553 Y2.9773 Z-0.4333 I-0.0125 J0.0
G2 Y2.9989 Z-0.4667 I0.0063 J0.0108
G2 X5.7741 Y2.9881 Z-0.5 I0.0062 J-0.0108
G2 X5.7553 Y2.9773 Z-0.5333 I-0.0125 J0.0
G2 Y2.9989 Z-0.5667 I0.0063 J0.0108
G2 X5.7741 Y2.9881 Z-0.6 I0.0062 J-0.0108
G2 X5.7553 Y2.9773 Z-0.6333 I-0.0125 J0.0
G2 Y2.9989 Z-0.6667 I0.0062 J0.0108
G2 X5.7741 Y2.9881 Z-0.7 I0.0063 J-0.0108
G2 X5.7553 Y2.9773 Z-0.7333 I-0.0125 J0.0
G2 Y2.9989 Z-0.7667 I0.0062 J0.0108
G2 X5.7741 Y2.9881 Z-0.8 I0.0063 J-0.0108
G2 X5.7553 Y2.9773 Z-0.8333 I-0.0125 J0.0
G2 Y2.9989 Z-0.8667 I0.0062 J0.0108
G2 X5.7741 Y2.9881 Z-0.9 I0.0063 J-0.0108
G2 X5.7553 Y2.9773 Z-0.9333 I-0.0125 J0.0
G2 Y2.9989 Z-0.9667 I0.0062 J0.0108
G2 X5.7741 Y2.9881 Z-1.0 I0.0063 J-0.0108
G2 X5.7553 Y2.9773 Z-1.0333 I-0.0125 J0.0
G2 Y2.9989 Z-1.0667 I0.0062 J0.0108
G2 X5.7741 Y2.9881 Z-1.1 I0.0063 J-0.0108
G2 X5.7553 Y2.9773 Z-1.1333 I-0.0125 J0.0
G2 Y2.9989 Z-1.1667 I0.0062 J0.0108
G2 X5.7741 Y2.9881 Z-1.2 I0.0063 J-0.0108
G2 X5.7553 Y2.9773 Z-1.2333 I-0.0125 J0.0
G2 Y2.9989 Z-1.2667 I0.0062 J0.0108
G2 X5.7741 Y2.9881 Z-1.3 I0.0063 J-0.0108
G2 X5.7553 Y2.9773 Z-1.3333 I-0.0125 J0.0
G2 Y2.9989 Z-1.3667 I0.0062 J0.0108
G2 X5.7741 Y2.9881 Z-1.4 I0.0063 J-0.0108
G2 X5.7553 Y2.9773 Z-1.4333 I-0.0125 J0.0
G2 Y2.9989 Z-1.4667 I0.0062 J0.0108
G2 X5.7741 Y2.9881 Z-1.5 I0.0063 J-0.0108
G2 X5.7553 Y2.9773 Z-1.5333 I-0.0125 J0.0
G2 Y2.9989 Z-1.5667 I0.0062 J0.0108
G2 X5.7741 Y2.9881 Z-1.6 I0.0063 J-0.0108
G2 X5.7553 Y2.9773 Z-1.6333 I-0.0125 J0.0
G2 Y2.9989 Z-1.6667 I0.0062 J0.0108
G2 X5.7741 Y2.9881 Z-1.7 I0.0063 J-0.0108
G2 X5.7553 Y2.9773 Z-1.7333 I-0.0125 J0.0
G2 Y2.9989 Z-1.7667 I0.0062 J0.0108
G2 X5.7741 Y2.9881 Z-1.8 I0.0063 J-0.0108
G2 X5.7553 Y2.9773 Z-1.8333 I-0.0125 J0.0
G2 Y2.9989 Z-1.8667 I0.0062 J0.0108
G2 X5.7741 Y2.9881 Z-1.9 I0.0063 J-0.0108
G2 X5.7553 Y2.9773 Z-1.9333 I-0.0125 J0.0
G2 Y2.9989 Z-1.9667 I0.0062 J0.0108
G2 X5.7741 Y2.9881 Z-2.0 I0.0063 J-0.0108
G2 X5.7553 Y2.9773 Z-2.0333 I-0.0125 J0.0
G2 Y2.9989 Z-2.0667 I0.0062 J0.0108
G2 X5.7741 Y2.9881 Z-2.1 I0.0063 J-0.0108
G2 X5.7553 Y2.9773 Z-2.1333 I-0.0125 J0.0
G2 Y2.9989 Z-2.1667 I0.0062 J0.0108
G2 X5.7741 Y2.9881 Z-2.2 I0.0063 J-0.0108
G2 X5.7553 Y2.9773 Z-2.2333 I-0.0125 J0.0
G2 Y2.9989 Z-2.2667 I0.0062 J0.0108
G2 X5.7741 Y2.9881 Z-2.3 I0.0063 J-0.0108
G2 X5.7553 Y2.9773 Z-2.3333 I-0.0125 J0.0
G2 Y2.9989 Z-2.3667 I0.0063 J0.0108
G2 X5.7741 Y2.9881 Z-2.4 I0.0062 J-0.0108
G2 X5.7553 Y2.9773 Z-2.4333 I-0.0125 J0.0
G2 Y2.9989 Z-2.4667 I0.0063 J0.0108
G2 X5.7741 Y2.9881 Z-2.5 I0.0062 J-0.0108
G2 X5.7553 Y2.9773 Z-2.5333 I-0.0125 J0.0
G2 Y2.9989 Z-2.5667 I0.0063 J0.0108
G2 X5.7741 Y2.9881 Z-2.6 I0.0062 J-0.0108
G2 X5.7553 Y2.9773 Z-2.6333 I-0.0125 J0.0
G2 Y2.9989 Z-2.6667 I0.0063 J0.0108
G2 X5.7741 Y2.9881 Z-2.7 I0.0062 J-0.0108
G2 X5.7553 Y2.9773 Z-2.7333 I-0.0125 J0.0
G2 Y2.9989 Z-2.7667 I0.0063 J0.0108
G2 X5.7741 Y2.9881 Z-2.8 I0.0062 J-0.0108
G2 X5.7553 Y2.9773 Z-2.8333 I-0.0125 J0.0
G2 Y2.9989 Z-2.8667 I0.0063 J0.0108
G2 X5.7741 Y2.9881 Z-2.9 I0.0062 J-0.0108
G2 X5.7553 Y2.9773 Z-2.9333 I-0.0125 J0.0
G2 Y2.9989 Z-2.9667 I0.0063 J0.0108
G2 X5.7741 Y2.9881 Z-3.0 I0.0062 J-0.0108
G2 X5.7553 Y2.9773 Z-3.0333 I-0.0125 J0.0
G2 Y2.9989 Z-3.0667 I0.0063 J0.0108
G2 X5.7741 Y2.9881 Z-3.1 I0.0062 J-0.0108
G2 X5.7553 Y2.9773 Z-3.1333 I-0.0125 J0.0
G2 Y2.9989 Z-3.1667 I0.0063 J0.0108
G2 X5.7741 Y2.9881 Z-3.2 I0.0062 J-0.0108
G2 X5.7553 Y2.9773 I-0.0125 J0.0
G2 Y2.9989 I0.0063 J0.0108
G2 X5.7741 Y2.9881 I0.0062 J-0.0108
G0 Z3.0
G0 X9.7102 Y20.5079
G1 F1000.0 Z0.0
G2 F2000.0 X9.6915 Y20.4971 Z-0.0333 I-0.0125 J0.0
G2 Y20.5187 Z-0.0667 I0.0062 J0.0108
G2 X9.7102 Y20.5079 Z-0.1 I0.0063 J-0.0108
G2 X9.6915 Y20.4971 Z-0.1333 I-0.0125 J0.0
G2 Y20.5187 Z-0.1667 I0.0062 J0.0108
G2 X9.7102 Y20.5079 Z-0.2 I0.0063 J-0.0108
G2 X9.6915 Y20.4971 Z-0.2333 I-0.0125 J0.0
G2 Y20.5187 Z-0.2667 I0.0062 J0.0108
G2 X9.7102 Y20.5079 Z-0.3 I0.0063 J-0.0108
G2 X9.6915 Y20.4971 Z-0.3333 I-0.0125 J0.0
G2 Y20.5187 Z-0.3667 I0.0062 J0.0108
G2 X9.7102 Y20.5079 Z-0.4 I0.0063 J-0.0108
G2 X9.6915 Y20.4971 Z-0.4333 I-0.0125 J0.0
G2 Y20.5187 Z-0.4667 I0.0062 J0.0108
G2 X9.7102 Y20.5079 Z-0.5 I0.0063 J-0.0108
G2 X9.6915 Y20.4971 Z-0.5333 I-0.0125 J0.0
G2 Y20.5187 Z-0.5667 I0.0062 J0.0108
G2 X9.7102 Y20.5079 Z-0.6 I0.0063 J-0.0108
G2 X9.6915 Y20.4971 Z-0.6333 I-0.0125 J0.0
G2 Y20.5187 Z-0.6667 I0.0062 J0.0108
G2 X9.7102 Y20.5079 Z-0.7 I0.0063 J-0.0108
G2 X9.6915 Y20.4971 Z-0.7333 I-0.0125 J0.0
G2 Y20.5187 Z-0.7667 I0.0062 J0.0108
G2 X9.7102 Y20.5079 Z-0.8 I0.0063 J-0.0108
G2 X9.6915 Y20.4971 Z-0.8333 I-0.0125 J0.0
G2 Y20.5187 Z-0.8667 I0.0062 J0.0108
G2 X9.7102 Y20.5079 Z-0.9 I0.0063 J-0.0108
G2 X9.6915 Y20.4971 Z-0.9333 I-0.0125 J0.0
G2 Y20.5187 Z-0.9667 I0.0062 J0.0108
G2 X9.7102 Y20.5079 Z-1.0 I0.0063 J-0.0108
G2 X9.6915 Y20.4971 Z-1.0333 I-0.0125 J0.0
G2 Y20.5187 Z-1.0667 I0.0062 J0.0108
G2 X9.7102 Y20.5079 Z-1.1 I0.0063 J-0.0108
G2 X9.6915 Y20.4971 Z-1.1333 I-0.0125 J0.0
G2 Y20.5187 Z-1.1667 I0.0062 J0.0108
G2 X9.7102 Y20.5079 Z-1.2 I0.0063 J-0.0108
G2 X9.6915 Y20.4971 Z-1.2333 I-0.0125 J0.0
G2 Y20.5187 Z-1.2667 I0.0062 J0.0108
G2 X9.7102 Y20.5079 Z-1.3 I0.0063 J-0.0108
G2 X9.6915 Y20.4971 Z-1.3333 I-0.0125 J0.0
G2 Y20.5187 Z-1.3667 I0.0062 J0.0108
G2 X9.7102 Y20.5079 Z-1.4 I0.0063 J-0.0108
G2 X9.6915 Y20.4971 Z-1.4333 I-0.0125 J0.0
G2 Y20.5187 Z-1.4667 I0.0062 J0.0108
G2 X9.7102 Y20.5079 Z-1.5 I0.0063 J-0.0108
G2 X9.6915 Y20.4971 Z-1.5333 I-0.0125 J0.0
G2 Y20.5187 Z-1.5667 I0.0062 J0.0108
G2 X9.7102 Y20.5079 Z-1.6 I0.0063 J-0.0108
G2 X9.6915 Y20.4971 Z-1.6333 I-0.0125 J0.0
G2 Y20.5187 Z-1.6667 I0.0062 J0.0108
G2 X9.7102 Y20.5079 Z-1.7 I0.0063 J-0.0108
G2 X9.6915 Y20.4971 Z-1.7333 I-0.0125 J0.0
G2 Y20.5187 Z-1.7667 I0.0062 J0.0108
G2 X9.7102 Y20.5079 Z-1.8 I0.0063 J-0.0108
G2 X9.6915 Y20.4971 Z-1.8333 I-0.0125 J0.0
G2 Y20.5187 Z-1.8667 I0.0062 J0.0108
G2 X9.7102 Y20.5079 Z-1.9 I0.0063 J-0.0108
G2 X9.6915 Y20.4971 Z-1.9333 I-0.0125 J0.0
G2 Y20.5187 Z-1.9667 I0.0062 J0.0108
G2 X9.7102 Y20.5079 Z-2.0 I0.0063 J-0.0108
G2 X9.6915 Y20.4971 Z-2.0333 I-0.0125 J0.0
G2 Y20.5187 Z-2.0667 I0.0062 J0.0108
G2 X9.7102 Y20.5079 Z-2.1 I0.0063 J-0.0108
G2 X9.6915 Y20.4971 Z-2.1333 I-0.0125 J0.0
G2 Y20.5187 Z-2.1667 I0.0062 J0.0108
G2 X9.7102 Y20.5079 Z-2.2 I0.0063 J-0.0108
G2 X9.6915 Y20.4971 Z-2.2333 I-0.0125 J0.0
G2 Y20.5187 Z-2.2667 I0.0062 J0.0108
G2 X9.7102 Y20.5079 Z-2.3 I0.0063 J-0.0108
G2 X9.6915 Y20.4971 Z-2.3333 I-0.0125 J0.0
G2 Y20.5187 Z-2.3667 I0.0062 J0.0108
G2 X9.7102 Y20.5079 Z-2.4 I0.0063 J-0.0108
G2 X9.6915 Y20.4971 Z-2.4333 I-0.0125 J0.0
G2 Y20.5187 Z-2.4667 I0.0062 J0.0108
G2 X9.7102 Y20.5079 Z-2.5 I0.0063 J-0.0108
G2 X9.6915 Y20.4971 Z-2.5333 I-0.0125 J0.0
G2 Y20.5187 Z-2.5667 I0.0062 J0.0108
G2 X9.7102 Y20.5079 Z-2.6 I0.0063 J-0.0108
G2 X9.6915 Y20.4971 Z-2.6333 I-0.0125 J0.0
G2 Y20.5187 Z-2.6667 I0.0063 J0.0108
G2 X9.7102 Y20.5079 Z-2.7 I0.0062 J-0.0108
G2 X9.6915 Y20.4971 Z-2.7333 I-0.0125 J0.0
G2 Y20.5187 Z-2.7667 I0.0063 J0.0108
G2 X9.7102 Y20.5079 Z-2.8 I0.0062 J-0.0108
G2 X9.6915 Y20.4971 Z-2.8333 I-0.0125 J0.0
G2 Y20.5187 Z-2.8667 I0.0063 J0.0108
G2 X9.7102 Y20.5079 Z-2.9 I0.0062 J-0.0108
G2 X9.6915 Y20.4971 Z-2.9333 I-0.0125 J0.0
G2 Y20.5187 Z-2.9667 I0.0063 J0.0108
G2 X9.7102 Y20.5079 Z-3.0 I0.0062 J-0.0108
G2 X9.6915 Y20.4971 Z-3.0333 I-0.0125 J0.0
G2 Y20.5187 Z-3.0667 I0.0063 J0.0108
G2 X9.7102 Y20.5079 Z-3.1 I0.0062 J-0.0108
G2 X9.6915 Y20.4971 Z-3.1333 I-0.0125 J0.0
G2 Y20.5187 Z-3.1667 I0.0063 J0.0108
G2 X9.7102 Y20.5079 Z-3.2 I0.0062 J-0.0108
G2 X9.6915 Y20.4971 I-0.0125 J0.0
G2 Y20.5187 I0.0063 J0.0108
G2 X9.7102 Y20.5079 I0.0062 J-0.0108
G0 Z3.0
G0 X16.3887 Y37.7799
G1 F1000.0 Z0.0
G2 F2000.0 X16.37 Y37.7691 Z-0.0333 I-0.0125 J0.0
G2 Y37.7908 Z-0.0667 I0.0063 J0.0108
G2 X16.3887 Y37.7799 Z-0.1 I0.0062 J-0.0108
G2 X16.37 Y37.7691 Z-0.1333 I-0.0125 J0.0
G2 Y37.7908 Z-0.1667 I0.0063 J0.0108
G2 X16.3887 Y37.7799 Z-0.2 I0.0062 J-0.0108
G2 X16.37 Y37.7691 Z-0.2333 I-0.0125 J0.0
G2 Y37.7908 Z-0.2667 I0.0063 J0.0108
G2 X16.3887 Y37.7799 Z-0.3 I0.0062 J-0.0108
G2 X16.37 Y37.7691 Z-0.3333 I-0.0125 J0.0
G2 Y37.7908 Z-0.3667 I0.0063 J0.0108
G2 X16.3887 Y37.7799 Z-0.4 I0.0062 J-0.0108
G2 X16.37 Y37.7691 Z-0.4333 I-0.0125 J0.0
G2 Y37.7908 Z-0.4667 I0.0063 J0.0108
G2 X16.3887 Y37.7799 Z-0.5 I0.0062 J-0.0108
G2 X16.37 Y37.7691 Z-0.5333 I-0.0125 J0.0
G2 Y37.7908 Z-0.5667 I0.0063 J0.0108
G2 X16.3887 Y37.7799 Z-0.6 I0.0062 J-0.0108
G2 X16.37 Y37.7691 Z-0.6333 I-0.0125 J0.0
G2 Y37.7908 Z-0.6667 I0.0063 J0.0108
G2 X16.3887 Y37.7799 Z-0.7 I0.0062 J-0.0108
G2 X16.37 Y37.7691 Z-0.7333 I-0.0125 J0.0
G2 Y37.7908 Z-0.7667 I0.0063 J0.0108
G2 X16.3887 Y37.7799 Z-0.8 I0.0062 J-0.0108
G2 X16.37 Y37.7691 Z-0.8333 I-0.0125 J0.0
G2 Y37.7908 Z-0.8667 I0.0063 J0.0108
G2 X16.3887 Y37.7799 Z-0.9 I0.0062 J-0.0108
G2 X16.37 Y37.7691 Z-0.9333 I-0.0125 J0.0
G2 Y37.7908 Z-0.9667 I0.0063 J0.0108
G2 X16.3887 Y37.7799 Z-1.0 I0.0062 J-0.0108
G2 X16.37 Y37.7691 Z-1.0333 I-0.0125 J0.0
G2 Y37.7908 Z-1.0667 I0.0063 J0.0108
G2 X16.3887 Y37.7799 Z-1.1 I0.0062 J-0.0108
G2 X16.37 Y37.7691 Z-1.1333 I-0.0125 J0.0
G2 Y37.7908 Z-1.1667 I0.0063 J0.0108
G2 X16.3887 Y37.7799 Z-1.2 I0.0062 J-0.0108
G2 X16.37 Y37.7691 Z-1.2333 I-0.0125 J0.0
G2 Y37.7908 Z-1.2667 I0.0063 J0.0108
G2 X16.3887 Y37.7799 Z-1.3 I0.0062 J-0.0108
G2 X16.37 Y37.7691 Z-1.3333 I-0.0125 J0.0
G2 Y37.7908 Z-1.3667 I0.0063 J0.0108
G2 X16.3887 Y37.7799 Z-1.4 I0.0062 J-0.0108
G2 X16.37 Y37.7691 Z-1.4333 I-0.0125 J0.0
G2 Y37.7908 Z-1.4667 I0.0063 J0.0108
G2 X16.3887 Y37.7799 Z-1.5 I0.0062 J-0.0108
G2 X16.37 Y37.7691 Z-1.5333 I-0.0125 J0.0
G2 Y37.7908 Z-1.5667 I0.0063 J0.0108
G2 X16.3887 Y37.7799 Z-1.6 I0.0062 J-0.0108
G2 X16.37 Y37.7691 Z-1.6333 I-0.0125 J0.0
G2 Y37.7908 Z-1.6667 I0.0063 J0.0108
G2 X16.3887 Y37.7799 Z-1.7 I0.0062 J-0.0108
G2 X16.37 Y37.7691 Z-1.7333 I-0.0125 J0.0
G2 Y37.7908 Z-1.7667 I0.0063 J0.0108
G2 X16.3887 Y37.7799 Z-1.8 I0.0062 J-0.0108
G2 X16.37 Y37.7691 Z-1.8333 I-0.0125 J0.0
G2 Y37.7908 Z-1.8667 I0.0063 J0.0108
G2 X16.3887 Y37.7799 Z-1.9 I0.0062 J-0.0108
G2 X16.37 Y37.7691 Z-1.9333 I-0.0125 J0.0
G2 Y37.7908 Z-1.9667 I0.0063 J0.0108
G2 X16.3887 Y37.7799 Z-2.0 I0.0062 J-0.0108
G2 X16.37 Y37.7691 Z-2.0333 I-0.0125 J0.0
G2 Y37.7908 Z-2.0667 I0.0063 J0.0108
G2 X16.3887 Y37.7799 Z-2.1 I0.0062 J-0.0108
G2 X16.37 Y37.7691 Z-2.1333 I-0.0125 J0.0
G2 Y37.7908 Z-2.1667 I0.0063 J0.0108
G2 X16.3887 Y37.7799 Z-2.2 I0.0062 J-0.0108
G2 X16.37 Y37.7691 Z-2.2333 I-0.0125 J0.0
G2 Y37.7908 Z-2.2667 I0.0063 J0.0108
G2 X16.3887 Y37.7799 Z-2.3 I0.0062 J-0.0108
G2 X16.37 Y37.7691 Z-2.3333 I-0.0125 J0.0
G2 Y37.7908 Z-2.3667 I0.0063 J0.0108
G2 X16.3887 Y37.7799 Z-2.4 I0.0062 J-0.0108
G2 X16.37 Y37.7691 Z-2.4333 I-0.0125 J0.0
G2 Y37.7908 Z-2.4667 I0.0063 J0.0108
G2 X16.3887 Y37.7799 Z-2.5 I0.0062 J-0.0108
G2 X16.37 Y37.7691 Z-2.5333 I-0.0125 J0.0
G2 Y37.7908 Z-2.5667 I0.0063 J0.0108
G2 X16.3887 Y37.7799 Z-2.6 I0.0062 J-0.0108
G2 X16.37 Y37.7691 Z-2.6333 I-0.0125 J0.0
G2 Y37.7908 Z-2.6667 I0.0063 J0.0108
G2 X16.3887 Y37.7799 Z-2.7 I0.0062 J-0.0108
G2 X16.37 Y37.7691 Z-2.7333 I-0.0125 J0.0
G2 Y37.7908 Z-2.7667 I0.0063 J0.0108
G2 X16.3887 Y37.7799 Z-2.8 I0.0062 J-0.0108
G2 X16.37 Y37.7691 Z-2.8333 I-0.0125 J0.0
G2 Y37.7908 Z-2.8667 I0.0063 J0.0108
G2 X16.3887 Y37.7799 Z-2.9 I0.0062 J-0.0108
G2 X16.37 Y37.7691 Z-2.9333 I-0.0125 J0.0
G2 Y37.7908 Z-2.9667 I0.0063 J0.0108
G2 X16.3887 Y37.7799 Z-3.0 I0.0062 J-0.0108
G2 X16.37 Y37.7691 Z-3.0333 I-0.0125 J0.0
G2 Y37.7908 Z-3.0667 I0.0063 J0.0108
G2 X16.3887 Y37.7799 Z-3.1 I0.0062 J-0.0108
G2 X16.37 Y37.7691 Z-3.1333 I-0.0125 J0.0
G2 Y37.7908 Z-3.1667 I0.0063 J0.0108
G2 X16.3887 Y37.7799 Z-3.2 I0.0062 J-0.0108
G2 X16.37 Y37.7691 I-0.0125 J0.0
G2 Y37.7908 I0.0063 J0.0108
G2 X16.3887 Y37.7799 I0.0062 J-0.0108
G0 Z3.0
G0 Y58.5781
G1 F1000.0 Z0.0
G2 F2000.0 X16.37 Y58.5673 Z-0.0333 I-0.0125 J0.0
G2 Y58.589 Z-0.0667 I0.0063 J0.0108
G2 X16.3887 Y58.5781 Z-0.1 I0.0062 J-0.0108
G2 X16.37 Y58.5673 Z-0.1333 I-0.0125 J0.0
G2 Y58.589 Z-0.1667 I0.0063 J0.0108
G2 X16.3887 Y58.5781 Z-0.2 I0.0062 J-0.0108
G2 X16.37 Y58.5673 Z-0.2333 I-0.0125 J0.0
G2 Y58.589 Z-0.2667 I0.0063 J0.0108
G2 X16.3887 Y58.5781 Z-0.3 I0.0062 J-0.0108
G2 X16.37 Y58.5673 Z-0.3333 I-0.0125 J0.0
G2 Y58.589 Z-0.3667 I0.0063 J0.0108
G2 X16.3887 Y58.5781 Z-0.4 I0.0062 J-0.0108
G2 X16.37 Y58.5673 Z-0.4333 I-0.0125 J0.0
G2 Y58.589 Z-0.4667 I0.0063 J0.0108
G2 X16.3887 Y58.5781 Z-0.5 I0.0062 J-0.0108
G2 X16.37 Y58.5673 Z-0.5333 I-0.0125 J0.0
G2 Y58.589 Z-0.5667 I0.0063 J0.0108
G2 X16.3887 Y58.5781 Z-0.6 I0.0062 J-0.0108
G2 X16.37 Y58.5673 Z-0.6333 I-0.0125 J0.0
G2 Y58.589 Z-0.6667 I0.0063 J0.0108
G2 X16.3887 Y58.5781 Z-0.7 I0.0062 J-0.0108
G2 X16.37 Y58.5673 Z-0.7333 I-0.0125 J0.0
G2 Y58.589 Z-0.7667 I0.0063 J0.0108
G2 X16.3887 Y58.5781 Z-0.8 I0.0062 J-0.0108
G2 X16.37 Y58.5673 Z-0.8333 I-0.0125 J0.0
G2 Y58.589 Z-0.8667 I0.0063 J0.0108
G2 X16.3887 Y58.5781 Z-0.9 I0.0062 J-0.0108
G2 X16.37 Y58.5673 Z-0.9333 I-0.0125 J0.0
G2 Y58.589 Z-0.9667 I0.0063 J0.0108
G2 X16.3887 Y58.5781 Z-1.0 I0.0062 J-0.0108
G2 X16.37 Y58.5673 Z-1.0333 I-0.0125 J0.0
G2 Y58.589 Z-1.0667 I0.0063 J0.0108
G2 X16.3887 Y58.5781 Z-1.1 I0.0062 J-0.0108
G2 X16.37 Y58.5673 Z-1.1333 I-0.0125 J0.0
G2 Y58.589 Z-1.1667 I0.0063 J0.0108
G2 X16.3887 Y58.5781 Z-1.2 I0.0062 J-0.0108
G2 X16.37 Y58.5673 Z-1.2333 I-0.0125 J0.0
G2 Y58.589 Z-1.2667 I0.0063 J0.0108
G2 X16.3887 Y58.5781 Z-1.3 I0.0062 J-0.0108
G2 X16.37 Y58.5673 Z-1.3333 I-0.0125 J0.0
G2 Y58.589 Z-1.3667 I0.0063 J0.0108
G2 X16.3887 Y58.5781 Z-1.4 I0.0062 J-0.0108
G2 X16.37 Y58.5673 Z-1.4333 I-0.0125 J0.0
G2 Y58.589 Z-1.4667 I0.0063 J0.0108
G2 X16.3887 Y58.5781 Z-1.5 I0.0062 J-0.0108
G2 X16.37 Y58.5673 Z-1.5333 I-0.0125 J0.0
G2 Y58.589 Z-1.5667 I0.0063 J0.0108
G2 X16.3887 Y58.5781 Z-1.6 I0.0062 J-0.0108
G2 X16.37 Y58.5673 Z-1.6333 I-0.0125 J0.0
G2 Y58.589 Z-1.6667 I0.0063 J0.0108
G2 X16.3887 Y58.5781 Z-1.7 I0.0062 J-0.0108
G2 X16.37 Y58.5673 Z-1.7333 I-0.0125 J0.0
G2 Y58.589 Z-1.7667 I0.0063 J0.0108
G2 X16.3887 Y58.5781 Z-1.8 I0.0062 J-0.0108
G2 X16.37 Y58.5673 Z-1.8333 I-0.0125 J0.0
G2 Y58.589 Z-1.8667 I0.0063 J0.0108
G2 X16.3887 Y58.5781 Z-1.9 I0.0062 J-0.0108
G2 X16.37 Y58.5673 Z-1.9333 I-0.0125 J0.0
G2 Y58.589 Z-1.9667 I0.0063 J0.0108
G2 X16.3887 Y58.5781 Z-2.0 I0.0062 J-0.0108
G2 X16.37 Y58.5673 Z-2.0333 I-0.0125 J0.0
G2 Y58.589 Z-2.0667 I0.0063 J0.0108
G2 X16.3887 Y58.5781 Z-2.1 I0.0062 J-0.0108
G2 X16.37 Y58.5673 Z-2.1333 I-0.0125 J0.0
G2 Y58.589 Z-2.1667 I0.0063 J0.0108
G2 X16.3887 Y58.5781 Z-2.2 I0.0062 J-0.0108
G2 X16.37 Y58.5673 Z-2.2333 I-0.0125 J0.0
G2 Y58.589 Z-2.2667 I0.0063 J0.0108
G2 X16.3887 Y58.5781 Z-2.3 I0.0062 J-0.0108
G2 X16.37 Y58.5673 Z-2.3333 I-0.0125 J0.0
G2 Y58.589 Z-2.3667 I0.0063 J0.0108
G2 X16.3887 Y58.5781 Z-2.4 I0.0062 J-0.0108
G2 X16.37 Y58.5673 Z-2.4333 I-0.0125 J0.0
G2 Y58.589 Z-2.4667 I0.0063 J0.0108
G2 X16.3887 Y58.5781 Z-2.5 I0.0062 J-0.0108
G2 X16.37 Y58.5673 Z-2.5333 I-0.0125 J0.0
G2 Y58.589 Z-2.5667 I0.0063 J0.0108
G2 X16.3887 Y58.5781 Z-2.6 I0.0062 J-0.0108
G2 X16.37 Y58.5673 Z-2.6333 I-0.0125 J0.0
G2 Y58.589 Z-2.6667 I0.0063 J0.0108
G2 X16.3887 Y58.5781 Z-2.7 I0.0062 J-0.0108
G2 X16.37 Y58.5673 Z-2.7333 I-0.0125 J0.0
G2 Y58.589 Z-2.7667 I0.0063 J0.0108
G2 X16.3887 Y58.5781 Z-2.8 I0.0062 J-0.0108
G2 X16.37 Y58.5673 Z-2.8333 I-0.0125 J0.0
G2 Y58.589 Z-2.8667 I0.0063 J0.0108
G2 X16.3887 Y58.5781 Z-2.9 I0.0062 J-0.0108
G2 X16.37 Y58.5673 Z-2.9333 I-0.0125 J0.0
G2 Y58.589 Z-2.9667 I0.0063 J0.0108
G2 X16.3887 Y58.5781 Z-3.0 I0.0062 J-0.0108
G2 X16.37 Y58.5673 Z-3.0333 I-0.0125 J0.0
G2 Y58.589 Z-3.0667 I0.0063 J0.0108
G2 X16.3887 Y58.5781 Z-3.1 I0.0062 J-0.0108
G2 X16.37 Y58.5673 Z-3.1333 I-0.0125 J0.0
G2 Y58.589 Z-3.1667 I0.0063 J0.0108
G2 X16.3887 Y58.5781 Z-3.2 I0.0062 J-0.0108
G2 X16.37 Y58.5673 I-0.0125 J0.0
G2 Y58.589 I0.0063 J0.0108
G2 X16.3887 Y58.5781 I0.0062 J-0.0108
G0 Z3.0
G0 X16.4996 Y79.3624
G1 F1000.0 Z0.0
G2 F2000.0 X16.4808 Y79.3516 Z-0.0333 I-0.0125 J0.0
G2 Y79.3733 Z-0.0667 I0.0062 J0.0108
G2 X16.4996 Y79.3624 Z-0.1 I0.0063 J-0.0108
G2 X16.4808 Y79.3516 Z-0.1333 I-0.0125 J0.0
G2 Y79.3733 Z-0.1667 I0.0062 J0.0108
G2 X16.4996 Y79.3624 Z-0.2 I0.0063 J-0.0108
G2 X16.4808 Y79.3516 Z-0.2333 I-0.0125 J0.0
G2 Y79.3733 Z-0.2667 I0.0062 J0.0108
G2 X16.4996 Y79.3624 Z-0.3 I0.0063 J-0.0108
G2 X16.4808 Y79.3516 Z-0.3333 I-0.0125 J0.0
G2 Y79.3733 Z-0.3667 I0.0062 J0.0108
G2 X16.4996 Y79.3624 Z-0.4 I0.0063 J-0.0108
G2 X16.4808 Y79.3516 Z-0.4333 I-0.0125 J0.0
G2 Y79.3733 Z-0.4667 I0.0062 J0.0108
G2 X16.4996 Y79.3624 Z-0.5 I0.0063 J-0.0108
G2 X16.4808 Y79.3516 Z-0.5333 I-0.0125 J0.0
G2 Y79.3733 Z-0.5667 I0.0062 J0.0108
G2 X16.4996 Y79.3624 Z-0.6 I0.0063 J-0.0108
G2 X16.4808 Y79.3516 Z-0.6333 I-0.0125 J0.0
G2 Y79.3733 Z-0.6667 I0.0062 J0.0108
G2 X16.4996 Y79.3624 Z-0.7 I0.0063 J-0.0108
G2 X16.4808 Y79.3516 Z-0.7333 I-0.0125 J0.0
G2 Y79.3733 Z-0.7667 I0.0062 J0.0108
G2 X16.4996 Y79.3624 Z-0.8 I0.0063 J-0.0108
G2 X16.4808 Y79.3516 Z-0.8333 I-0.0125 J0.0
G2 Y79.3733 Z-0.8667 I0.0062 J0.0108
G2 X16.4996 Y79.3624 Z-0.9 I0.0063 J-0.0108
G2 X16.4808 Y79.3516 Z-0.9333 I-0.0125 J0.0
G2 Y79.3733 Z-0.9667 I0.0062 J0.0108
G2 X16.4996 Y79.3624 Z-1.0 I0.0063 J-0.0108
G2 X16.4808 Y79.3516 Z-1.0333 I-0.0125 J0.0
G2 Y79.3733 Z-1.0667 I0.0062 J0.0108
G2 X16.4996 Y79.3624 Z-1.1 I0.0063 J-0.0108
G2 X16.4808 Y79.3516 Z-1.1333 I-0.0125 J0.0
G2 Y79.3733 Z-1.1667 I0.0062 J0.0108
G2 X16.4996 Y79.3624 Z-1.2 I0.0063 J-0.0108
G2 X16.4808 Y79.3516 Z-1.2333 I-0.0125 J0.0
G2 Y79.3733 Z-1.2667 I0.0062 J0.0108
G2 X16.4996 Y79.3624 Z-1.3 I0.0063 J-0.0108
G2 X16.4808 Y79.3516 Z-1.3333 I-0.0125 J0.0
G2 Y79.3733 Z-1.3667 I0.0062 J0.0108
G2 X16.4996 Y79.3624 Z-1.4 I0.0063 J-0.0108
G2 X16.4808 Y79.3516 Z-1.4333 I-0.0125 J0.0
G2 Y79.3733 Z-1.4667 I0.0062 J0.0108
G2 X16.4996 Y79.3624 Z-1.5 I0.0063 J-0.0108
G2 X16.4808 Y79.3516 Z-1.5333 I-0.0125 J0.0
G2 Y79.3733 Z-1.5667 I0.0062 J0.0108
G2 X16.4996 Y79.3624 Z-1.6 I0.0063 J-0.0108
G2 X16.4808 Y79.3516 Z-1.6333 I-0.0125 J0.0
G2 Y79.3733 Z-1.6667 I0.0062 J0.0108
G2 X16.4996 Y79.3624 Z-1.7 I0.0063 J-0.0108
G2 X16.4808 Y79.3516 Z-1.7333 I-0.0125 J0.0
G2 Y79.3733 Z-1.7667 I0.0062 J0.0108
G2 X16.4996 Y79.3624 Z-1.8 I0.0063 J-0.0108
G2 X16.4808 Y79.3516 Z-1.8333 I-0.0125 J0.0
G2 Y79.3733 Z-1.8667 I0.0062 J0.0108
G2 X16.4996 Y79.3624 Z-1.9 I0.0063 J-0.0108
G2 X16.4808 Y79.3516 Z-1.9333 I-0.0125 J0.0
G2 Y79.3733 Z-1.9667 I0.0062 J0.0108
G2 X16.4996 Y79.3624 Z-2.0 I0.0063 J-0.0108
G2 X16.4808 Y79.3516 Z-2.0333 I-0.0125 J0.0
G2 Y79.3733 Z-2.0667 I0.0062 J0.0108
G2 X16.4996 Y79.3624 Z-2.1 I0.0063 J-0.0108
G2 X16.4808 Y79.3516 Z-2.1333 I-0.0125 J0.0
G2 Y79.3733 Z-2.1667 I0.0062 J0.0108
G2 X16.4996 Y79.3624 Z-2.2 I0.0063 J-0.0108
G2 X16.4808 Y79.3516 Z-2.2333 I-0.0125 J0.0
G2 Y79.3733 Z-2.2667 I0.0062 J0.0108
G2 X16.4996 Y79.3624 Z-2.3 I0.0063 J-0.0108
G2 X16.4808 Y79.3516 Z-2.3333 I-0.0125 J0.0
G2 Y79.3733 Z-2.3667 I0.0062 J0.0108
G2 X16.4996 Y79.3624 Z-2.4 I0.0063 J-0.0108
G2 X16.4808 Y79.3516 Z-2.4333 I-0.0125 J0.0
G2 Y79.3733 Z-2.4667 I0.0062 J0.0108
G2 X16.4996 Y79.3624 Z-2.5 I0.0063 J-0.0108
G2 X16.4808 Y79.3516 Z-2.5333 I-0.0125 J0.0
G2 Y79.3733 Z-2.5667 I0.0062 J0.0108
G2 X16.4996 Y79.3624 Z-2.6 I0.0063 J-0.0108
G2 X16.4808 Y79.3516 Z-2.6333 I-0.0125 J0.0
G2 Y79.3733 Z-2.6667 I0.0062 J0.0108
G2 X16.4996 Y79.3624 Z-2.7 I0.0063 J-0.0108
G2 X16.4808 Y79.3516 Z-2.7333 I-0.0125 J0.0
G2 Y79.3733 Z-2.7667 I0.0062 J0.0108
G2 X16.4996 Y79.3624 Z-2.8 I0.0063 J-0.0108
G2 X16.4808 Y79.3516 Z-2.8333 I-0.0125 J0.0
G2 Y79.3733 Z-2.8667 I0.0062 J0.0108
G2 X16.4996 Y79.3624 Z-2.9 I0.0063 J-0.0108
G2 X16.4808 Y79.3516 Z-2.9333 I-0.0125 J0.0
G2 Y79.3733 Z-2.9667 I0.0062 J0.0108
G2 X16.4996 Y79.3624 Z-3.0 I0.0063 J-0.0108
G2 X16.4808 Y79.3516 Z-3.0333 I-0.0125 J0.0
G2 Y79.3733 Z-3.0667 I0.0062 J0.0108
G2 X16.4996 Y79.3624 Z-3.1 I0.0063 J-0.0108
G2 X16.4808 Y79.3516 Z-3.1333 I-0.0125 J0.0
G2 Y79.3733 Z-3.1667 I0.0062 J0.0108
G2 X16.4996 Y79.3624 Z-3.2 I0.0063 J-0.0108
G2 X16.4808 Y79.3516 I-0.0125 J0.0
G2 Y79.3733 I0.0063 J0.0108
G2 X16.4996 Y79.3624 I0.0062 J-0.0108
G0 Z3.0
G0 Y100.3439
G1 F1000.0 Z0.0
G2 F2000.0 X16.4808 Y100.3331 Z-0.0333 I-0.0125 J0.0
G2 Y100.3547 Z-0.0667 I0.0062 J0.0108
G2 X16.4996 Y100.3439 Z-0.1 I0.0063 J-0.0108
G2 X16.4808 Y100.3331 Z-0.1333 I-0.0125 J0.0
G2 Y100.3547 Z-0.1667 I0.0062 J0.0108
G2 X16.4996 Y100.3439 Z-0.2 I0.0063 J-0.0108
G2 X16.4808 Y100.3331 Z-0.2333 I-0.0125 J0.0
G2 Y100.3547 Z-0.2667 I0.0062 J0.0108
G2 X16.4996 Y100.3439 Z-0.3 I0.0063 J-0.0108
G2 X16.4808 Y100.3331 Z-0.3333 I-0.0125 J0.0
G2 Y100.3547 Z-0.3667 I0.0062 J0.0108
G2 X16.4996 Y100.3439 Z-0.4 I0.0063 J-0.0108
G2 X16.4808 Y100.3331 Z-0.4333 I-0.0125 J0.0
G2 Y100.3547 Z-0.4667 I0.0062 J0.0108
G2 X16.4996 Y100.3439 Z-0.5 I0.0063 J-0.0108
G2 X16.4808 Y100.3331 Z-0.5333 I-0.0125 J0.0
G2 Y100.3547 Z-0.5667 I0.0062 J0.0108
G2 X16.4996 Y100.3439 Z-0.6 I0.0063 J-0.0108
G2 X16.4808 Y100.3331 Z-0.6333 I-0.0125 J0.0
G2 Y100.3547 Z-0.6667 I0.0062 J0.0108
G2 X16.4996 Y100.3439 Z-0.7 I0.0063 J-0.0108
G2 X16.4808 Y100.3331 Z-0.7333 I-0.0125 J0.0
G2 Y100.3547 Z-0.7667 I0.0062 J0.0108
G2 X16.4996 Y100.3439 Z-0.8 I0.0063 J-0.0108
G2 X16.4808 Y100.3331 Z-0.8333 I-0.0125 J0.0
G2 Y100.3547 Z-0.8667 I0.0062 J0.0108
G2 X16.4996 Y100.3439 Z-0.9 I0.0063 J-0.0108
G2 X16.4808 Y100.3331 Z-0.9333 I-0.0125 J0.0
G2 Y100.3547 Z-0.9667 I0.0062 J0.0108
G2 X16.4996 Y100.3439 Z-1.0 I0.0063 J-0.0108
G2 X16.4808 Y100.3331 Z-1.0333 I-0.0125 J0.0
G2 Y100.3547 Z-1.0667 I0.0062 J0.0108
G2 X16.4996 Y100.3439 Z-1.1 I0.0063 J-0.0108
G2 X16.4808 Y100.3331 Z-1.1333 I-0.0125 J0.0
G2 Y100.3547 Z-1.1667 I0.0062 J0.0108
G2 X16.4996 Y100.3439 Z-1.2 I0.0063 J-0.0108
G2 X16.4808 Y100.3331 Z-1.2333 I-0.0125 J0.0
G2 Y100.3547 Z-1.2667 I0.0062 J0.0108
G2 X16.4996 Y100.3439 Z-1.3 I0.0063 J-0.0108
G2 X16.4808 Y100.3331 Z-1.3333 I-0.0125 J0.0
G2 Y100.3547 Z-1.3667 I0.0062 J0.0108
G2 X16.4996 Y100.3439 Z-1.4 I0.0063 J-0.0108
G2 X16.4808 Y100.3331 Z-1.4333 I-0.0125 J0.0
G2 Y100.3547 Z-1.4667 I0.0062 J0.0108
G2 X16.4996 Y100.3439 Z-1.5 I0.0063 J-0.0108
G2 X16.4808 Y100.3331 Z-1.5333 I-0.0125 J0.0
G2 Y100.3547 Z-1.5667 I0.0062 J0.0108
G2 X16.4996 Y100.3439 Z-1.6 I0.0063 J-0.0108
G2 X16.4808 Y100.3331 Z-1.6333 I-0.0125 J0.0
G2 Y100.3547 Z-1.6667 I0.0062 J0.0108
G2 X16.4996 Y100.3439 Z-1.7 I0.0063 J-0.0108
G2 X16.4808 Y100.3331 Z-1.7333 I-0.0125 J0.0
G2 Y100.3547 Z-1.7667 I0.0062 J0.0108
G2 X16.4996 Y100.3439 Z-1.8 I0.0063 J-0.0108
G2 X16.4808 Y100.3331 Z-1.8333 I-0.0125 J0.0
G2 Y100.3547 Z-1.8667 I0.0062 J0.0108
G2 X16.4996 Y100.3439 Z-1.9 I0.0063 J-0.0108
G2 X16.4808 Y100.3331 Z-1.9333 I-0.0125 J0.0
G2 Y100.3547 Z-1.9667 I0.0062 J0.0108
G2 X16.4996 Y100.3439 Z-2.0 I0.0063 J-0.0108
G2 X16.4808 Y100.3331 Z-2.0333 I-0.0125 J0.0
G2 Y100.3547 Z-2.0667 I0.0062 J0.0108
G2 X16.4996 Y100.3439 Z-2.1 I0.0063 J-0.0108
G2 X16.4808 Y100.3331 Z-2.1333 I-0.0125 J0.0
G2 Y100.3547 Z-2.1667 I0.0062 J0.0108
G2 X16.4996 Y100.3439 Z-2.2 I0.0063 J-0.0108
G2 X16.4808 Y100.3331 Z-2.2333 I-0.0125 J0.0
G2 Y100.3547 Z-2.2667 I0.0062 J0.0108
G2 X16.4996 Y100.3439 Z-2.3 I0.0063 J-0.0108
G2 X16.4808 Y100.3331 Z-2.3333 I-0.0125 J0.0
G2 Y100.3547 Z-2.3667 I0.0062 J0.0108
G2 X16.4996 Y100.3439 Z-2.4 I0.0063 J-0.0108
G2 X16.4808 Y100.3331 Z-2.4333 I-0.0125 J0.0
G2 Y100.3547 Z-2.4667 I0.0062 J0.0108
G2 X16.4996 Y100.3439 Z-2.5 I0.0063 J-0.0108
G2 X16.4808 Y100.3331 Z-2.5333 I-0.0125 J0.0
G2 Y100.3547 Z-2.5667 I0.0062 J0.0108
G2 X16.4996 Y100.3439 Z-2.6 I0.0063 J-0.0108
G2 X16.4808 Y100.3331 Z-2.6333 I-0.0125 J0.0
G2 Y100.3547 Z-2.6667 I0.0062 J0.0108
G2 X16.4996 Y100.3439 Z-2.7 I0.0063 J-0.0108
G2 X16.4808 Y100.3331 Z-2.7333 I-0.0125 J0.0
G2 Y100.3547 Z-2.7667 I0.0062 J0.0108
G2 X16.4996 Y100.3439 Z-2.8 I0.0063 J-0.0108
G2 X16.4808 Y100.3331 Z-2.8333 I-0.0125 J0.0
G2 Y100.3547 Z-2.8667 I0.0062 J0.0108
G2 X16.4996 Y100.3439 Z-2.9 I0.0063 J-0.0108
G2 X16.4808 Y100.3331 Z-2.9333 I-0.0125 J0.0
G2 Y100.3547 Z-2.9667 I0.0062 J0.0108
G2 X16.4996 Y100.3439 Z-3.0 I0.0063 J-0.0108
G2 X16.4808 Y100.3331 Z-3.0333 I-0.0125 J0.0
G2 Y100.3547 Z-3.0667 I0.0062 J0.0108
G2 X16.4996 Y100.3439 Z-3.1 I0.0063 J-0.0108
G2 X16.4808 Y100.3331 Z-3.1333 I-0.0125 J0.0
G2 Y100.3547 Z-3.1667 I0.0062 J0.0108
G2 X16.4996 Y100.3439 Z-3.2 I0.0063 J-0.0108
G2 X16.4808 Y100.3331 I-0.0125 J0.0
G2 Y100.3547 I0.0063 J0.0108
G2 X16.4996 Y100.3439 I0.0062 J-0.0108
G0 Z3.0
G0 X22.5774 Y120.8645
G1 F1000.0 Z0.0
G2 F2000.0 X22.5587 Y120.8537 Z-0.0333 I-0.0125 J0.0
G2 Y120.8753 Z-0.0667 I0.0062 J0.0108
G2 X22.5774 Y120.8645 Z-0.1 I0.0063 J-0.0108
G2 X22.5587 Y120.8537 Z-0.1333 I-0.0125 J0.0
G2 Y120.8753 Z-0.1667 I0.0062 J0.0108
G2 X22.5774 Y120.8645 Z-0.2 I0.0063 J-0.0108
G2 X22.5587 Y120.8537 Z-0.2333 I-0.0125 J0.0
G2 Y120.8753 Z-0.2667 I0.0062 J0.0108
G2 X22.5774 Y120.8645 Z-0.3 I0.0063 J-0.0108
G2 X22.5587 Y120.8537 Z-0.3333 I-0.0125 J0.0
G2 Y120.8753 Z-0.3667 I0.0062 J0.0108
G2 X22.5774 Y120.8645 Z-0.4 I0.0063 J-0.0108
G2 X22.5587 Y120.8537 Z-0.4333 I-0.0125 J0.0
G2 Y120.8753 Z-0.4667 I0.0062 J0.0108
G2 X22.5774 Y120.8645 Z-0.5 I0.0063 J-0.0108
G2 X22.5587 Y120.8537 Z-0.5333 I-0.0125 J0.0
G2 Y120.8753 Z-0.5667 I0.0062 J0.0108
G2 X22.5774 Y120.8645 Z-0.6 I0.0063 J-0.0108
G2 X22.5587 Y120.8537 Z-0.6333 I-0.0125 J0.0
G2 Y120.8753 Z-0.6667 I0.0062 J0.0108
G2 X22.5774 Y120.8645 Z-0.7 I0.0063 J-0.0108
G2 X22.5587 Y120.8537 Z-0.7333 I-0.0125 J0.0
G2 Y120.8753 Z-0.7667 I0.0062 J0.0108
G2 X22.5774 Y120.8645 Z-0.8 I0.0063 J-0.0108
G2 X22.5587 Y120.8537 Z-0.8333 I-0.0125 J0.0
G2 Y120.8753 Z-0.8667 I0.0062 J0.0108
G2 X22.5774 Y120.8645 Z-0.9 I0.0063 J-0.0108
G2 X22.5587 Y120.8537 Z-0.9333 I-0.0125 J0.0
G2 Y120.8753 Z-0.9667 I0.0062 J0.0108
G2 X22.5774 Y120.8645 Z-1.0 I0.0063 J-0.0108
G2 X22.5587 Y120.8537 Z-1.0333 I-0.0125 J0.0
G2 Y120.8753 Z-1.0667 I0.0062 J0.0108
G2 X22.5774 Y120.8645 Z-1.1 I0.0063 J-0.0108
G2 X22.5587 Y120.8537 Z-1.1333 I-0.0125 J0.0
G2 Y120.8753 Z-1.1667 I0.0062 J0.0108
G2 X22.5774 Y120.8645 Z-1.2 I0.0063 J-0.0108
G2 X22.5587 Y120.8537 Z-1.2333 I-0.0125 J0.0
G2 Y120.8753 Z-1.2667 I0.0062 J0.0108
G2 X22.5774 Y120.8645 Z-1.3 I0.0063 J-0.0108
G2 X22.5587 Y120.8537 Z-1.3333 I-0.0125 J0.0
G2 Y120.8753 Z-1.3667 I0.0062 J0.0108
G2 X22.5774 Y120.8645 Z-1.4 I0.0063 J-0.0108
G2 X22.5587 Y120.8537 Z-1.4333 I-0.0125 J0.0
G2 Y120.8753 Z-1.4667 I0.0062 J0.0108
G2 X22.5774 Y120.8645 Z-1.5 I0.0063 J-0.0108
G2 X22.5587 Y120.8537 Z-1.5333 I-0.0125 J0.0
G2 Y120.8753 Z-1.5667 I0.0062 J0.0108
G2 X22.5774 Y120.8645 Z-1.6 I0.0063 J-0.0108
G2 X22.5587 Y120.8537 Z-1.6333 I-0.0125 J0.0
G2 Y120.8753 Z-1.6667 I0.0062 J0.0108
G2 X22.5774 Y120.8645 Z-1.7 I0.0063 J-0.0108
G2 X22.5587 Y120.8537 Z-1.7333 I-0.0125 J0.0
G2 Y120.8753 Z-1.7667 I0.0062 J0.0108
G2 X22.5774 Y120.8645 Z-1.8 I0.0063 J-0.0108
G2 X22.5587 Y120.8537 Z-1.8333 I-0.0125 J0.0
G2 Y120.8753 Z-1.8667 I0.0062 J0.0108
G2 X22.5774 Y120.8645 Z-1.9 I0.0063 J-0.0108
G2 X22.5587 Y120.8537 Z-1.9333 I-0.0125 J0.0
G2 Y120.8753 Z-1.9667 I0.0062 J0.0108
G2 X22.5774 Y120.8645 Z-2.0 I0.0063 J-0.0108
G2 X22.5587 Y120.8537 Z-2.0333 I-0.0125 J0.0
G2 Y120.8753 Z-2.0667 I0.0062 J0.0108
G2 X22.5774 Y120.8645 Z-2.1 I0.0063 J-0.0108
G2 X22.5587 Y120.8537 Z-2.1333 I-0.0125 J0.0
G2 Y120.8753 Z-2.1667 I0.0062 J0.0108
G2 X22.5774 Y120.8645 Z-2.2 I0.0063 J-0.0108
G2 X22.5587 Y120.8537 Z-2.2333 I-0.0125 J0.0
G2 Y120.8753 Z-2.2667 I0.0062 J0.0108
G2 X22.5774 Y120.8645 Z-2.3 I0.0063 J-0.0108
G2 X22.5587 Y120.8537 Z-2.3333 I-0.0125 J0.0
G2 Y120.8753 Z-2.3667 I0.0062 J0.0108
G2 X22.5774 Y120.8645 Z-2.4 I0.0063 J-0.0108
G2 X22.5587 Y120.8537 Z-2.4333 I-0.0125 J0.0
G2 Y120.8753 Z-2.4667 I0.0062 J0.0108
G2 X22.5774 Y120.8645 Z-2.5 I0.0063 J-0.0108
G2 X22.5587 Y120.8537 Z-2.5333 I-0.0125 J0.0
G2 Y120.8753 Z-2.5667 I0.0062 J0.0108
G2 X22.5774 Y120.8645 Z-2.6 I0.0063 J-0.0108
G2 X22.5587 Y120.8537 Z-2.6333 I-0.0125 J0.0
G2 Y120.8753 Z-2.6667 I0.0062 J0.0108
G2 X22.5774 Y120.8645 Z-2.7 I0.0063 J-0.0108
G2 X22.5587 Y120.8537 Z-2.7333 I-0.0125 J0.0
G2 Y120.8753 Z-2.7667 I0.0062 J0.0108
G2 X22.5774 Y120.8645 Z-2.8 I0.0063 J-0.0108
G2 X22.5587 Y120.8537 Z-2.8333 I-0.0125 J0.0
G2 Y120.8753 Z-2.8667 I0.0062 J0.0108
G2 X22.5774 Y120.8645 Z-2.9 I0.0063 J-0.0108
G2 X22.5587 Y120.8537 Z-2.9333 I-0.0125 J0.0
G2 Y120.8753 Z-2.9667 I0.0062 J0.0108
G2 X22.5774 Y120.8645 Z-3.0 I0.0063 J-0.0108
G2 X22.5587 Y120.8537 Z-3.0333 I-0.0125 J0.0
G2 Y120.8753 Z-3.0667 I0.0062 J0.0108
G2 X22.5774 Y120.8645 Z-3.1 I0.0063 J-0.0108
G2 X22.5587 Y120.8537 Z-3.1333 I-0.0125 J0.0
G2 Y120.8753 Z-3.1667 I0.0062 J0.0108
G2 X22.5774 Y120.8645 Z-3.2 I0.0063 J-0.0108
G2 X22.5587 Y120.8537 I-0.0125 J0.0
G2 Y120.8753 I0.0063 J0.0108
G2 X22.5774 Y120.8645 I0.0062 J-0.0108
( cutout )
S1000
G0 Z3.0
G0 X0.0582 Y-1.5151
G1 F1000.0 Z-0.1
G1 F2000.0 X26.1084
G3 X27.6959 Y0.0724 I0.0 J1.5875
G1 Y123.9433
G3 X26.1084 Y125.5308 I-1.5875 J0.0
G1 X0.0582
G3 X-1.5293 Y123.9433 I0.0 J-1.5875
G1 Y0.0724
G3 X0.0582 Y-1.5151 I1.5875 J0.0
G1 F1000.0 Z-0.2
G1 F2000.0 X26.1084
G3 X27.6959 Y0.0724 I0.0 J1.5875
G1 Y123.9433
G3 X26.1084 Y125.5308 I-1.5875 J0.0
G1 X0.0582
G3 X-1.5293 Y123.9433 I0.0 J-1.5875
G1 Y0.0724
G3 X0.0582 Y-1.5151 I1.5875 J0.0
G1 F1000.0 Z-0.3
G1 F2000.0 X26.1084
G3 X27.6959 Y0.0724 I0.0 J1.5875
G1 Y123.9433
G3 X26.1084 Y125.5308 I-1.5875 J0.0
G1 X0.0582
G3 X-1.5293 Y123.9433 I0.0 J-1.5875
G1 Y0.0724
G3 X0.0582 Y-1.5151 I1.5875 J0.0
G1 F1000.0 Z-0.4
G1 F2000.0 X26.1084
G3 X27.6959 Y0.0724 I0.0 J1.5875
G1 Y123.9433
G3 X26.1084 Y125.5308 I-1.5875 J0.0
G1 X0.0582
G3 X-1.5293 Y123.9433 I0.0 J-1.5875
G1 Y0.0724
G3 X0.0582 Y-1.5151 I1.5875 J0.0
G1 F1000.0 Z-0.5
G1 F2000.0 X26.1084
G3 X27.6959 Y0.0724 I0.0 J1.5875
G1 Y123.9433
G3 X26.1084 Y125.5308 I-1.5875 J0.0
G1 X0.0582
G3 X-1.5293 Y123.9433 I0.0 J-1.5875
G1 Y0.0724
G3 X0.0582 Y-1.5151 I1.5875 J0.0
G1 F1000.0 Z-0.6
G1 F2000.0 X26.1084
G3 X27.6959 Y0.0724 I0.0 J1.5875
G1 Y123.9433
G3 X26.1084 Y125.5308 I-1.5875 J0.0
G1 X0.0582
G3 X-1.5293 Y123.9433 I0.0 J-1.5875
G1 Y0.0724
G3 X0.0582 Y-1.5151 I1.5875 J0.0
G1 F1000.0 Z-0.7
G1 F2000.0 X26.1084
G3 X27.6959 Y0.0724 I0.0 J1.5875
G1 Y123.9433
G3 X26.1084 Y125.5308 I-1.5875 J0.0
G1 X0.0582
G3 X-1.5293 Y123.9433 I0.0 J-1.5875
G1 Y0.0724
G3 X0.0582 Y-1.5151 I1.5875 J0.0
G1 F1000.0 Z-0.8
G1 F2000.0 X26.1084
G3 X27.6959 Y0.0724 I0.0 J1.5875
G1 Y9.1649
G1 Y11.5024 Z-0.7
G1 Y13.8399 Z-0.8
G1 Y84.1255
G1 Y86.463 Z-0.7
G1 Y88.8005 Z-0.8
G1 Y123.9433
G3 X26.1084 Y125.5308 I-1.5875 J0.0
G1 X0.0582
G3 X-1.5293 Y123.9433 I0.0 J-1.5875
G1 Y114.8508
G1 Y112.5133 Z-0.7
G1 Y110.1758 Z-0.8
G1 Y39.8902
G1 Y37.5527 Z-0.7
G1 Y35.2152 Z-0.8
G1 Y0.0724
G3 X0.0582 Y-1.5151 I1.5875 J0.0
G1 F1000.0 Z-0.9
G1 F2000.0 X26.1084
G3 X27.6959 Y0.0724 I0.0 J1.5875
G1 Y9.1649
G1 Y11.5024 Z-0.7
G1 Y13.8399 Z-0.9
G1 Y84.1255
G1 Y86.463 Z-0.7
G1 Y88.8005 Z-0.9
G1 Y123.9433
G3 X26.1084 Y125.5308 I-1.5875 J0.0
G1 X0.0582
G3 X-1.5293 Y123.9433 I0.0 J-1.5875
G1 Y114.8508
G1 Y112.5133 Z-0.7
G1 Y110.1758 Z-0.9
G1 Y39.8902
G1 Y37.5527 Z-0.7
G1 Y35.2152 Z-0.9
G1 Y0.0724
G3 X0.0582 Y-1.5151 I1.5875 J0.0
G1 F1000.0 Z-1.0
G1 F2000.0 X26.1084
G3 X27.6959 Y0.0724 I0.0 J1.5875
G1 Y9.1649
G1 Y11.5024 Z-0.7
G1 Y13.8399 Z-1.0
G1 Y84.1255
G1 Y86.463 Z-0.7
G1 Y88.8005 Z-1.0
G1 Y123.9433
G3 X26.1084 Y125.5308 I-1.5875 J0.0
G1 X0.0582
G3 X-1.5293 Y123.9433 I0.0 J-1.5875
G1 Y114.8508
G1 Y112.5133 Z-0.7
G1 Y110.1758 Z-1.0
G1 Y39.8902
G1 Y37.5527 Z-0.7
G1 Y35.2152 Z-1.0
G1 Y0.0724
G3 X0.0582 Y-1.5151 I1.5875 J0.0
G1 F1000.0 Z-1.1
G1 F2000.0 X26.1084
G3 X27.6959 Y0.0724 I0.0 J1.5875
G1 Y9.1649
G1 Y11.5024 Z-0.7
G1 Y13.8399 Z-1.1
G1 Y84.1255
G1 Y86.463 Z-0.7
G1 Y88.8005 Z-1.1
G1 Y123.9433
G3 X26.1084 Y125.5308 I-1.5875 J0.0
G1 X0.0582
G3 X-1.5293 Y123.9433 I0.0 J-1.5875
G1 Y114.8508
G1 Y112.5133 Z-0.7
G1 Y110.1758 Z-1.1
G1 Y39.8902
G1 Y37.5527 Z-0.7
G1 Y35.2152 Z-1.1
G1 Y0.0724
G3 X0.0582 Y-1.5151 I1.5875 J0.0
G1 F1000.0 Z-1.2
G1 F2000.0 X26.1084
G3 X27.6959 Y0.0724 I0.0 J1.5875
G1 Y9.1649
G1 Y11.5024 Z-0.7
G1 Y13.8399 Z-1.2
G1 Y84.1255
G1 Y86.463 Z-0.7
G1 Y88.8005 Z-1.2
G1 Y123.9433
G3 X26.1084 Y125.5308 I-1.5875 J0.0
G1 X0.0582
G3 X-1.5293 Y123.9433 I0.0 J-1.5875
G1 Y114.8508
G1 Y112.5133 Z-0.7
G1 Y110.1758 Z-1.2
G1 Y39.8902
G1 Y37.5527 Z-0.7
G1 Y35.2152 Z-1.2
G1 Y0.0724
G3 X0.0582 Y-1.5151 I1.5875 J0.0
G1 F1000.0 Z-1.3
G1 F2000.0 X26.1084
G3 X27.6959 Y0.0724 I0.0 J1.5875
G1 Y9.1649
G1 Y11.5024 Z-0.7
G1 Y13.8399 Z-1.3
G1 Y84.1255
G1 Y86.463 Z-0.7
G1 Y88.8005 Z-1.3
G1 Y123.9433
G3 X26.1084 Y125.5308 I-1.5875 J0.0
G1 X0.0582
G3 X-1.5293 Y123.9433 I0.0 J-1.5875
G1 Y114.8508
G1 Y112.5133 Z-0.7
G1 Y110.1758 Z-1.3
G1 Y39.8902
G1 Y37.5527 Z-0.7
G1 Y35.2152 Z-1.3
G1 Y0.0724
G3 X0.0582 Y-1.5151 I1.5875 J0.0
G1 F1000.0 Z-1.4
G1 F2000.0 X26.1084
G3 X27.6959 Y0.0724 I0.0 J1.5875
G1 Y9.1649
G1 Y11.5024 Z-0.7
G1 Y13.8399 Z-1.4
G1 Y84.1255
G1 Y86.463 Z-0.7
G1 Y88.8005 Z-1.4
G1 Y123.9433
G3 X26.1084 Y125.5308 I-1.5875 J0.0
G1 X0.0582
G3 X-1.5293 Y123.9433 I0.0 J-1.5875
G1 Y114.8508
G1 Y112.5133 Z-0.7
G1 Y110.1758 Z-1.4
G1 Y39.8902
G1 Y37.5527 Z-0.7
G1 Y35.2152 Z-1.4
G1 Y0.0724
G3 X0.0582 Y-1.5151 I1.5875 J0.0
G1 F1000.0 Z-1.5
G1 F2000.0 X26.1084
G3 X27.6959 Y0.0724 I0.0 J1.5875
G1 Y9.1649
G1 Y11.5024 Z-0.7
G1 Y13.8399 Z-1.5
G1 Y84.1255
G1 Y86.463 Z-0.7
G1 Y88.8005 Z-1.5
G1 Y123.9433
G3 X26.1084 Y125.5308 I-1.5875 J0.0
G1 X0.0582
G3 X-1.5293 Y123.9433 I0.0 J-1.5875
G1 Y114.8508
G1 Y112.5133 Z-0.7
G1 Y110.1758 Z-1.5
G1 Y39.8902
G1 Y37.5527 Z-0.7
G1 Y35.2152 Z-1.5
G1 Y0.0724
G3 X0.0582 Y-1.5151 I1.5875 J0.0
G1 F1000.0 Z-1.6
G1 F2000.0 X26.1084
G3 X27.6959 Y0.0724 I0.0 J1.5875
G1 Y9.1649
G1 Y11.5024 Z-0.7
G1 Y13.8399 Z-1.6
G1 Y84.1255
G1 Y86.463 Z-0.7
G1 Y88.8005 Z-1.6
G1 Y123.9433
G3 X26.1084 Y125.5308 I-1.5875 J0.0
G1 X0.0582
G3 X-1.5293 Y123.9433 I0.0 J-1.5875
G1 Y114.8508
G1 Y112.5133 Z-0.7
G1 Y110.1758 Z-1.6
G1 Y39.8902
G1 Y37.5527 Z-0.7
G1 Y35.2152 Z-1.6
G1 Y0.0724
G3 X0.0582 Y-1.5151 I1.5875 J0.0
G1 F1000.0 Z-1.7
G1 F2000.0 X26.1084
G3 X27.6959 Y0.0724 I0.0 J1.5875
G1 Y9.1649
G1 Y11.5024 Z-0.7
G1 Y13.8399 Z-1.7
G1 Y84.1255
G1 Y86.463 Z-0.7
G1 Y88.8005 Z-1.7
G1 Y123.9433
G3 X26.1084 Y125.5308 I-1.5875 J0.0
G1 X0.0582
G3 X-1.5293 Y123.9433 I0.0 J-1.5875
G1 Y114.8508
G1 Y112.5133 Z-0.7
G1 Y110.1758 Z-1.7
G1 Y39.8902
G1 Y37.5527 Z-0.7
G1 Y35.2152 Z-1.7
G1 Y0.0724
G3 X0.0582 Y-1.5151 I1.5875 J0.0
G1 F1000.0 Z-1.8
G1 F2000.0 X26.1084
G3 X27.6959 Y0.0724 I0.0 J1.5875
G1 Y9.1649
G1 Y11.5024 Z-0.7
G1 Y13.8399 Z-1.8
G1 Y84.1255
G1 Y86.463 Z-0.7
G1 Y88.8005 Z-1.8
G1 Y123.9433
G3 X26.1084 Y125.5308 I-1.5875 J0.0
G1 X0.0582
G3 X-1.5293 Y123.9433 I0.0 J-1.5875
G1 Y114.8508
G1 Y112.5133 Z-0.7
G1 Y110.1758 Z-1.8
G1 Y39.8902
G1 Y37.5527 Z-0.7
G1 Y35.2152 Z-1.8
G1 Y0.0724
G3 X0.0582 Y-1.5151 I1.5875 J0.0
G1 F1000.0 Z-1.9
G1 F2000.0 X26.1084
G3 X27.6959 Y0.0724 I0.0 J1.5875
G1 Y9.1649
G1 Y11.5024 Z-0.7
G1 Y13.8399 Z-1.9
G1 Y84.1255
G1 Y86.463 Z-0.7
G1 Y88.8005 Z-1.9
G1 Y123.9433
G3 X26.1084 Y125.5308 I-1.5875 J0.0
G1 X0.0582
G3 X-1.5293 Y123.9433 I0.0 J-1.5875
G1 Y114.8508
G1 Y112.5133 Z-0.7
G1 Y110.1758 Z-1.9
G1 Y39.8902
G1 Y37.5527 Z-0.7
G1 Y35.2152 Z-1.9
G1 Y0.0724
G3 X0.0582 Y-1.5151 I1.5875 J0.0
G1 F1000.0 Z-2.0
G1 F2000.0 X26.1084
G3 X27.6959 Y0.0724 I0.0 J1.5875
G1 Y9.1649
G1 Y11.5024 Z-0.7
G1 Y13.8399 Z-2.0
G1 Y84.1255
G1 Y86.463 Z-0.7
G1 Y88.8005 Z-2.0
G1 Y123.9433
G3 X26.1084 Y125.5308 I-1.5875 J0.0
G1 X0.0582
G3 X-1.5293 Y123.9433 I0.0 J-1.5875
G1 Y114.8508
G1 Y112.5133 Z-0.7
G1 Y110.1758 Z-2.0
G1 Y39.8902
G1 Y37.5527 Z-0.7
G1 Y35.2152 Z-2.0
G1 Y0.0724
G3 X0.0582 Y-1.5151 I1.5875 J0.0
G1 F1000.0 Z-2.1
G1 F2000.0 X26.1084
G3 X27.6959 Y0.0724 I0.0 J1.5875
G1 Y9.1649
G1 Y11.5024 Z-0.7
G1 Y13.8399 Z-2.1
G1 Y84.1255
G1 Y86.463 Z-0.7
G1 Y88.8005 Z-2.1
G1 Y123.9433
G3 X26.1084 Y125.5308 I-1.5875 J0.0
G1 X0.0582
G3 X-1.5293 Y123.9433 I0.0 J-1.5875
G1 Y114.8508
G1 Y112.5133 Z-0.7
G1 Y110.1758 Z-2.1
G1 Y39.8902
G1 Y37.5527 Z-0.7
G1 Y35.2152 Z-2.1
G1 Y0.0724
G3 X0.0582 Y-1.5151 I1.5875 J0.0
G1 F1000.0 Z-2.2
G1 F2000.0 X26.1084
G3 X27.6959 Y0.0724 I0.0 J1.5875
G1 Y9.1649
G1 Y11.5024 Z-0.7
G1 Y13.8399 Z-2.2
G1 Y84.1255
G1 Y86.463 Z-0.7
G1 Y88.8005 Z-2.2
G1 Y123.9433
G3 X26.1084 Y125.5308 I-1.5875 J0.0
G1 X0.0582
G3 X-1.5293 Y123.9433 I0.0 J-1.5875
G1 Y114.8508
G1 Y112.5133 Z-0.7
G1 Y110.1758 Z-2.2
G1 Y39.8902
G1 Y37.5527 Z-0.7
G1 Y35.2152 Z-2.2
G1 Y0.0724
G3 X0.0582 Y-1.5151 I1.5875 J0.0
G1 F1000.0 Z-2.3
G1 F2000.0 X26.1084
G3 X27.6959 Y0.0724 I0.0 J1.5875
G1 Y9.1649
G1 Y11.5024 Z-0.7
G1 Y13.8399 Z-2.3
G1 Y84.1255
G1 Y86.463 Z-0.7
G1 Y88.8005 Z-2.3
G1 Y123.9433
G3 X26.1084 Y125.5308 I-1.5875 J0.0
G1 X0.0582
G3 X-1.5293 Y123.9433 I0.0 J-1.5875
G1 Y114.8508
G1 Y112.5133 Z-0.7
G1 Y110.1758 Z-2.3
G1 Y39.8902
G1 Y37.5527 Z-0.7
G1 Y35.2152 Z-2.3
G1 Y0.0724
G3 X0.0582 Y-1.5151 I1.5875 J0.0
G1 F1000.0 Z-2.4
G1 F2000.0 X26.1084
G3 X27.6959 Y0.0724 I0.0 J1.5875
G1 Y9.1649
G1 Y11.5024 Z-0.7
G1 Y13.8399 Z-2.4
G1 Y84.1255
G1 Y86.463 Z-0.7
G1 Y88.8005 Z-2.4
G1 Y123.9433
G3 X26.1084 Y125.5308 I-1.5875 J0.0
G1 X0.0582
G3 X-1.5293 Y123.9433 I0.0 J-1.5875
G1 Y114.8508
G1 Y112.5133 Z-0.7
G1 Y110.1758 Z-2.4
G1 Y39.8902
G1 Y37.5527 Z-0.7
G1 Y35.2152 Z-2.4
G1 Y0.0724
G3 X0.0582 Y-1.5151 I1.5875 J0.0
G1 F1000.0 Z-2.5
G1 F2000.0 X26.1084
G3 X27.6959 Y0.0724 I0.0 J1.5875
G1 Y9.1649
G1 Y11.5024 Z-0.7
G1 Y13.8399 Z-2.5
G1 Y84.1255
G1 Y86.463 Z-0.7
G1 Y88.8005 Z-2.5
G1 Y123.9433
G3 X26.1084 Y125.5308 I-1.5875 J0.0
G1 X0.0582
G3 X-1.5293 Y123.9433 I0.0 J-1.5875
G1 Y114.8508
G1 Y112.5133 Z-0.7
G1 Y110.1758 Z-2.5
G1 Y39.8902
G1 Y37.5527 Z-0.7
G1 Y35.2152 Z-2.5
G1 Y0.0724
G3 X0.0582 Y-1.5151 I1.5875 J0.0
G1 F1000.0 Z-2.6
G1 F2000.0 X26.1084
G3 X27.6959 Y0.0724 I0.0 J1.5875
G1 Y9.1649
G1 Y11.5024 Z-0.7
G1 Y13.8399 Z-2.6
G1 Y84.1255
G1 Y86.463 Z-0.7
G1 Y88.8005 Z-2.6
G1 Y123.9433
G3 X26.1084 Y125.5308 I-1.5875 J0.0
G1 X0.0582
G3 X-1.5293 Y123.9433 I0.0 J-1.5875
G1 Y114.8508
G1 Y112.5133 Z-0.7
G1 Y110.1758 Z-2.6
G1 Y39.8902
G1 Y37.5527 Z-0.7
G1 Y35.2152 Z-2.6
G1 Y0.0724
G3 X0.0582 Y-1.5151 I1.5875 J0.0
G1 F1000.0 Z-2.7
G1 F2000.0 X26.1084
G3 X27.6959 Y0.0724 I0.0 J1.5875
G1 Y9.1649
G1 Y11.5024 Z-0.7
G1 Y13.8399 Z-2.7
G1 Y84.1255
G1 Y86.463 Z-0.7
G1 Y88.8005 Z-2.7
G1 Y123.9433
G3 X26.1084 Y125.5308 I-1.5875 J0.0
G1 X0.0582
G3 X-1.5293 Y123.9433 I0.0 J-1.5875
G1 Y114.8508
G1 Y112.5133 Z-0.7
G1 Y110.1758 Z-2.7
G1 Y39.8902
G1 Y37.5527 Z-0.7
G1 Y35.2152 Z-2.7
G1 Y0.0724
G3 X0.0582 Y-1.5151 I1.5875 J0.0
G1 F1000.0 Z-2.8
G1 F2000.0 X26.1084
G3 X27.6959 Y0.0724 I0.0 J1.5875
G1 Y9.1649
G1 Y11.5024 Z-0.7
G1 Y13.8399 Z-2.8
G1 Y84.1255
G1 Y86.463 Z-0.7
G1 Y88.8005 Z-2.8
G1 Y123.9433
G3 X26.1084 Y125.5308 I-1.5875 J0.0
G1 X0.0582
G3 X-1.5293 Y123.9433 I0.0 J-1.5875
G1 Y114.8508
G1 Y112.5133 Z-0.7
G1 Y110.1758 Z-2.8
G1 Y39.8902
G1 Y37.5527 Z-0.7
G1 Y35.2152 Z-2.8
G1 Y0.0724
G3 X0.0582 Y-1.5151 I1.5875 J0.0
G1 F1000.0 Z-2.9
G1 F2000.0 X26.1084
G3 X27.6959 Y0.0724 I0.0 J1.5875
G1 Y9.1649
G1 Y11.5024 Z-0.7
G1 Y13.8399 Z-2.9
G1 Y84.1255
G1 Y86.463 Z-0.7
G1 Y88.8005 Z-2.9
G1 Y123.9433
G3 X26.1084 Y125.5308 I-1.5875 J0.0
G1 X0.0582
G3 X-1.5293 Y123.9433 I0.0 J-1.5875
G1 Y114.8508
G1 Y112.5133 Z-0.7
G1 Y110.1758 Z-2.9
G1 Y39.8902
G1 Y37.5527 Z-0.7
G1 Y35.2152 Z-2.9
G1 Y0.0724
G3 X0.0582 Y-1.5151 I1.5875 J0.0
G1 F1000.0 Z-3.0
G1 F2000.0 X26.1084
G3 X27.6959 Y0.0724 I0.0 J1.5875
G1 Y9.1649
G1 Y11.5024 Z-0.7
G1 Y13.8399 Z-3.0
G1 Y84.1255
G1 Y86.463 Z-0.7
G1 Y88.8005 Z-3.0
G1 Y123.9433
G3 X26.1084 Y125.5308 I-1.5875 J0.0
G1 X0.0582
G3 X-1.5293 Y123.9433 I0.0 J-1.5875
G1 Y114.8508
G1 Y112.5133 Z-0.7
G1 Y110.1758 Z-3.0
G1 Y39.8902
G1 Y37.5527 Z-0.7
G1 Y35.2152 Z-3.0
G1 Y0.0724
G3 X0.0582 Y-1.5151 I1.5875 J0.0
G1 F1000.0 Z-3.1
G1 F2000.0 X26.1084
G3 X27.6959 Y0.0724 I0.0 J1.5875
G1 Y9.1649
G1 Y11.5024 Z-0.7
G1 Y13.8399 Z-3.1
G1 Y84.1255
G1 Y86.463 Z-0.7
G1 Y88.8005 Z-3.1
G1 Y123.9433
G3 X26.1084 Y125.5308 I-1.5875 J0.0
G1 X0.0582
G3 X-1.5293 Y123.9433 I0.0 J-1.5875
G1 Y114.8508
G1 Y112.5133 Z-0.7
G1 Y110.1758 Z-3.1
G1 Y39.8902
G1 Y37.5527 Z-0.7
G1 Y35.2152 Z-3.1
G1 Y0.0724
G3 X0.0582 Y-1.5151 I1.5875 J0.0
G1 F1000.0 Z-3.2
G1 F2000.0 X26.1084
G3 X27.6959 Y0.0724 I0.0 J1.5875
G1 Y9.1649
G1 Y11.5024 Z-0.7
G1 Y13.8399 Z-3.2
G1 Y84.1255
G1 Y86.463 Z-0.7
G1 Y88.8005 Z-3.2
G1 Y123.9433
G3 X26.1084 Y125.5308 I-1.5875 J0.0
G1 X0.0582
G3 X-1.5293 Y123.9433 I0.0 J-1.5875
G1 Y114.8508
G1 Y112.5133 Z-0.7
G1 Y110.1758 Z-3.2
G1 Y39.8902
G1 Y37.5527 Z-0.7
G1 Y35.2152 Z-3.2
G1 Y0.0724
G3 X0.0582 Y-1.5151 I1.5875 J0.0
G0 Z3.0
M5
M30
